<?xml version="1.0" encoding="UTF-8"?>
<map version="1.11" tiledversion="1.12.1" orientation="orthogonal" renderorder="right-down" width="16" height="12" tilewidth="40" tileheight="40" infinite="0" nextlayerid="18" nextobjectid="47">
 <editorsettings>
  <export target="data.lua" format="lua"/>
 </editorsettings>
 <properties>
  <property name="border" value="church_b"/>
  <property name="music" value="second_church"/>
 </properties>
 <tileset firstgid="1" source="../../../tilesets/bg_dw_church_2_tileset.tsx"/>
 <tileset firstgid="199" source="../../../tilesets/bg_dw_church_tileset_new.tsx"/>
 <tileset firstgid="781" source="../../../tilesets/tiles_moss.tsx"/>
 <tileset firstgid="783" source="../../../tilesets/church_objects.tsx"/>
 <tileset firstgid="892" source="../../../tilesets/bg_dw_church_library_2_tileset.tsx"/>
 <objectgroup id="16" name="objects_parallax3" visible="0" parallaxx="0.3" parallaxy="0.82"/>
 <objectgroup id="15" name="objects_parallax2" visible="0" parallaxx="0.4" parallaxy="0.85">
  <object id="34" gid="795" x="-230" y="570" width="640" height="200">
   <properties>
    <property name="color" type="color" value="#ff2525ba"/>
   </properties>
  </object>
  <object id="38" gid="795" x="-150" y="-190" width="416" height="130" rotation="90">
   <properties>
    <property name="color" type="color" value="#ff00007f"/>
   </properties>
  </object>
  <object id="39" gid="795" x="220" y="-190" width="416" height="130" rotation="90">
   <properties>
    <property name="color" type="color" value="#ff00007f"/>
   </properties>
  </object>
  <object id="40" gid="795" x="-150" y="226" width="416" height="130" rotation="90">
   <properties>
    <property name="color" type="color" value="#ff00007f"/>
   </properties>
  </object>
  <object id="41" gid="795" x="220" y="226" width="416" height="130" rotation="90">
   <properties>
    <property name="color" type="color" value="#ff00007f"/>
   </properties>
  </object>
  <object id="42" gid="795" x="-230" y="40" width="640" height="200">
   <properties>
    <property name="color" type="color" value="#ff2525ba"/>
   </properties>
  </object>
 </objectgroup>
 <objectgroup id="14" name="objects_parallax" visible="0" parallaxx="0.5" parallaxy="0.9">
  <object id="32" gid="787" x="-1060" y="980" width="639" height="1600" rotation="45"/>
  <object id="33" gid="1073742611" x="20" y="440" width="639" height="1600" rotation="45"/>
 </objectgroup>
 <objectgroup id="17" name="objects_fade">
  <object id="45" gid="791" x="640" y="480" width="280" height="640.33" rotation="270"/>
 </objectgroup>
 <layer id="13" name="tiles_osc_optimize" width="16" height="12">
  <data encoding="csv">
0,0,0,0,0,0,0,0,0,0,0,0,0,0,0,0,
0,0,0,0,0,0,0,0,0,0,0,0,0,0,0,0,
0,0,0,0,194,194,194,194,194,194,194,194,0,0,0,0,
0,0,0,0,194,194,194,194,194,194,194,194,0,0,0,0,
0,0,0,0,194,194,194,194,194,194,194,194,0,0,0,0,
0,0,0,0,0,0,194,194,194,194,0,0,0,0,0,0,
0,0,0,0,0,0,0,0,0,0,0,0,0,0,0,0,
0,0,0,0,0,0,0,0,0,0,0,0,0,0,0,0,
0,0,0,0,0,0,0,0,0,0,0,0,0,0,0,0,
0,0,0,0,0,0,0,0,0,0,0,0,0,0,0,0,
0,0,0,0,0,0,0,0,0,0,0,0,0,0,0,0,
0,0,0,0,0,0,0,0,0,0,0,0,0,0,0,0
</data>
 </layer>
 <objectgroup id="7" name="objects_osc">
  <object id="9" name="texturescroller" x="0" y="0">
   <properties>
    <property name="type" value="hsv"/>
   </properties>
   <point/>
  </object>
  <object id="10" name="tile_oscillate" x="160" y="80" width="320" height="120"/>
 </objectgroup>
 <objectgroup id="8" name="collision">
  <object id="15" x="0" y="200" width="240" height="120"/>
  <object id="16" x="40" y="0" width="120" height="200"/>
  <object id="17" x="480" y="0" width="120" height="200"/>
  <object id="18" x="400" y="200" width="240" height="200"/>
  <object id="20" x="0" y="400" width="640" height="80"/>
  <object id="30" x="160" y="0" width="320" height="80"/>
 </objectgroup>
 <objectgroup id="2" name="objects_under_party"/>
 <objectgroup id="6" name="markers">
  <object id="8" name="entry" x="40" y="360">
   <point/>
  </object>
 </objectgroup>
 <layer id="1" name="Tile Layer 1" width="16" height="12">
  <data encoding="csv">
0,559,470,470,470,559,604,605,605,606,559,470,470,470,559,0,
0,893,894,895,476,565,774,774,774,774,565,476,896,897,898,0,
0,903,904,905,169,8,9,14,14,19,8,9,906,907,908,0,
0,913,914,915,179,17,18,14,14,16,17,187,916,917,918,0,
0,923,924,925,197,26,27,2,3,25,196,179,926,927,928,0,
0,28,28,28,28,28,22,11,12,23,28,28,28,28,28,0,
0,0,0,0,0,0,28,28,28,28,0,0,0,0,0,0,
0,0,0,0,0,0,0,0,0,0,0,0,0,0,0,0,
0,0,0,0,0,0,0,0,0,0,0,0,0,0,0,0,
0,0,0,0,0,0,0,0,0,0,0,0,0,0,0,0,
0,0,0,0,0,0,0,0,0,0,0,0,0,0,0,0,
0,0,0,0,0,0,0,0,0,0,0,0,0,0,0,0
</data>
 </layer>
 <objectgroup id="11" name="objects_under_party">
  <object id="26" name="churchmagicglass" x="0" y="320" width="240" height="80">
   <properties>
    <property name="idlealpha" type="float" value="0"/>
   </properties>
  </object>
  <object id="31" name="interactable" gid="2147484429" x="440" y="120" width="40" height="40">
   <properties>
    <property name="cutscene" value="events.moss3"/>
    <property name="usetile" value="true"/>
   </properties>
  </object>
  <object id="46" name="churchmagicglass" x="240" y="240" width="160" height="160">
   <properties>
    <property name="idlealpha" type="float" value="0"/>
   </properties>
  </object>
 </objectgroup>
 <objectgroup id="3" name="objects_party">
  <object id="27" name="transition" x="-40" y="320" width="40" height="80">
   <properties>
    <property name="map" value="1_2nd_sanctuary/second_sanctum_11_exit"/>
    <property name="marker" value="entry2"/>
   </properties>
  </object>
 </objectgroup>
 <objectgroup id="12" name="objects_top">
  <object id="28" name="churchfog" x="80" y="0">
   <point/>
  </object>
  <object id="29" name="filter" x="40" y="0">
   <properties>
    <property name="type" value="hsv"/>
   </properties>
   <point/>
  </object>
 </objectgroup>
</map>
