<?xml version="1.0" encoding="UTF-8"?>
<map version="1.10" tiledversion="1.12.2" orientation="orthogonal" renderorder="right-down" width="16" height="12" tilewidth="40" tileheight="40" infinite="0" nextlayerid="10" nextobjectid="19">
 <editorsettings>
  <export target="data.lua" format="lua"/>
 </editorsettings>
 <properties>
  <property name="border" value="hell"/>
  <property name="music" value="hellworld"/>
 </properties>
 <tileset firstgid="1" source="../../../tilesets/libraryexcerpt.tsx"/>
 <tileset firstgid="49" source="../../../tilesets/bg_dw_church_2_tileset.tsx"/>
 <tileset firstgid="247" source="../../../tilesets/bg_church_library_c_tileset.tsx"/>
 <objectgroup id="2" name="objects_bg">
  <object id="1" name="hell_bg" x="0" y="0">
   <point/>
  </object>
 </objectgroup>
 <objectgroup id="4" name="objects_tile_oscillate">
  <object id="2" name="texturescroller" x="40" y="0">
   <properties>
    <property name="type" value="hsv"/>
   </properties>
   <point/>
  </object>
 </objectgroup>
 <layer id="9" name="Tile Layer 2" width="16" height="12">
  <data encoding="csv">
0,0,0,0,0,0,0,0,0,0,0,0,0,0,0,0,
0,0,0,0,0,0,0,0,0,0,0,0,0,0,0,0,
0,0,0,0,0,0,0,0,0,0,0,0,0,0,0,0,
0,0,0,0,0,0,0,0,0,0,0,0,0,0,0,0,
0,0,0,0,0,0,0,0,0,0,0,0,0,0,0,0,
0,0,0,0,0,0,0,0,0,0,0,0,0,0,0,0,
0,0,0,0,0,0,0,0,0,0,0,0,0,0,0,0,
0,0,0,0,0,0,0,0,0,0,0,0,0,0,0,0,
0,0,76,0,0,0,0,0,0,0,0,0,0,76,0,0,
0,0,0,76,76,76,76,0,0,76,76,76,76,0,0,0,
0,0,0,0,0,0,0,0,0,0,0,0,0,0,0,0,
0,0,0,0,0,0,0,0,0,0,0,0,0,0,0,0
</data>
 </layer>
 <layer id="1" name="Tile Layer 1" width="16" height="12">
  <data encoding="csv">
0,0,0,0,0,0,0,0,0,0,0,0,0,0,0,0,
0,0,0,382,382,382,382,382,382,382,382,382,382,0,0,0,
0,0,383,58,58,58,58,58,58,58,58,58,58,381,0,0,
0,214,58,58,58,58,58,58,58,58,58,58,58,58,212,0,
0,214,58,58,58,58,58,58,58,58,58,58,58,58,212,0,
0,214,58,58,58,58,58,58,58,58,58,58,58,58,212,0,
0,214,58,58,58,58,58,58,58,58,58,58,58,58,212,0,
0,214,58,58,58,58,58,58,58,58,58,58,58,58,212,0,
0,0,214,58,58,58,58,58,58,58,58,58,58,212,0,0,
0,0,0,0,0,0,373,58,58,371,0,0,0,0,0,0,
0,0,0,0,0,0,373,58,58,371,0,0,0,0,0,0,
0,0,0,0,0,0,373,58,58,371,0,0,0,0,0,0
</data>
 </layer>
 <objectgroup id="6" name="objects_player">
  <object id="17" name="transition" x="280" y="480" width="80" height="40">
   <properties>
    <property name="map" value="sanctum_hell/hell_1"/>
    <property name="marker" value="light_exit"/>
   </properties>
  </object>
  <object id="18" name="dwexit" x="320" y="120">
   <point/>
  </object>
 </objectgroup>
 <objectgroup id="7" name="markers">
  <object id="15" x="71.0313" y="26.9688" width="498" height="19">
   <text wrap="1">TODO: Light transition to the last map (saved as flag &quot;last_savepoint&quot;)</text>
  </object>
  <object id="16" name="hell" x="320" y="440">
   <point/>
  </object>
 </objectgroup>
 <objectgroup id="5" name="objects_overlay">
  <object id="3" name="filter" x="80" y="0">
   <properties>
    <property name="hue_start" value="0"/>
    <property name="hue_target" value="0"/>
    <property name="sat_start" value="0"/>
    <property name="sat_target" value="0"/>
    <property name="speed" type="int" value="0"/>
    <property name="type" value="custom"/>
    <property name="val_start" value="1.2"/>
    <property name="val_target" value="1.2"/>
   </properties>
   <point/>
  </object>
  <object id="4" name="roomglow" x="120" y="0">
   <properties>
    <property name="active" type="bool" value="true"/>
    <property name="alpha" type="float" value="1"/>
    <property name="darkness" type="color" value="#ff800000"/>
    <property name="highlight" type="color" value="#ffff7400"/>
    <property name="shadow" type="bool" value="false"/>
    <property name="tint" type="color" value="#ffff0000"/>
   </properties>
   <point/>
  </object>
 </objectgroup>
 <objectgroup id="8" name="collision">
  <object id="6" x="0" y="0" width="640" height="80"/>
  <object id="7" x="520" y="80" width="120" height="40"/>
  <object id="8" x="560" y="120" width="80" height="200"/>
  <object id="9" x="520" y="320" width="120" height="40"/>
  <object id="10" x="360" y="360" width="280" height="120"/>
  <object id="11" x="0" y="80" width="120" height="40"/>
  <object id="12" x="0" y="120" width="80" height="200"/>
  <object id="13" x="0" y="320" width="120" height="40"/>
  <object id="14" x="0" y="360" width="280" height="120"/>
 </objectgroup>
</map>
