<?xml version="1.0" encoding="UTF-8"?>
<map version="1.10" tiledversion="1.12.1" orientation="orthogonal" renderorder="right-down" width="26" height="16" tilewidth="40" tileheight="40" infinite="0" nextlayerid="11" nextobjectid="19">
 <editorsettings>
  <export target="data.lua" format="lua"/>
 </editorsettings>
 <properties>
  <property name="border" value="church_b"/>
  <property name="music" value="second_church"/>
 </properties>
 <tileset firstgid="1" source="../../../tilesets/bg_dw_church_2_tileset.tsx"/>
 <tileset firstgid="199" source="../../../tilesets/bg_dw_church_tileset_new.tsx"/>
 <tileset firstgid="781" source="../../../tilesets/bg_dw_church_library_2_tileset.tsx"/>
 <layer id="1" name="Tile Layer 1" width="26" height="16">
  <data encoding="csv">
0,0,10,10,10,10,10,0,0,0,0,0,0,0,0,0,0,0,0,0,0,0,0,0,0,0,
0,0,10,10,10,10,10,0,0,0,0,0,0,0,0,0,0,0,0,0,0,0,0,0,0,0,
0,0,10,10,10,10,10,0,0,0,0,0,0,0,0,0,0,0,0,0,0,0,0,0,0,0,
0,0,10,10,10,10,10,0,0,0,0,0,0,0,0,0,0,0,0,0,0,0,0,0,0,0,
0,0,10,10,10,10,10,87,0,0,0,0,0,0,0,0,0,0,0,0,0,0,0,0,0,0,
0,0,10,10,10,10,10,96,87,0,0,0,0,0,0,0,0,0,0,0,0,0,0,0,0,0,
0,0,10,10,10,10,10,105,96,87,0,0,0,0,0,0,0,0,0,0,0,0,0,0,0,0,
0,0,10,10,10,10,10,114,105,96,87,0,0,0,0,0,0,0,0,0,0,0,0,0,0,0,
0,0,10,10,10,10,10,0,114,105,96,87,0,10,10,10,10,10,10,10,10,10,10,10,10,10,
0,0,10,10,10,10,10,0,0,114,105,96,87,10,10,10,10,10,10,10,10,10,10,10,10,10,
0,0,10,10,10,10,10,0,0,0,114,105,96,10,10,10,10,10,10,10,10,10,10,10,10,10,
0,0,649,649,649,649,649,0,0,0,0,114,105,10,10,10,10,10,10,10,10,10,649,649,649,649,
0,0,613,865,866,867,613,0,0,0,0,0,114,10,10,10,10,10,10,10,10,10,865,866,867,613,
0,0,619,875,876,877,619,0,0,0,0,0,0,10,10,10,10,10,10,10,10,10,875,876,877,619,
0,0,625,885,886,887,625,0,0,0,0,0,0,649,649,649,649,649,649,649,649,649,885,886,887,625,
0,0,631,895,896,897,631,0,0,0,0,0,0,613,865,866,867,613,865,866,867,613,895,896,897,631
</data>
 </layer>
 <layer id="2" name="Tile Layer 2" width="26" height="16">
  <data encoding="csv">
0,0,0,0,0,0,0,0,0,0,0,0,0,0,0,0,0,0,0,0,0,0,0,0,0,0,
0,0,0,0,0,0,0,0,0,0,0,0,0,0,0,0,0,0,0,0,0,0,0,0,0,0,
0,0,0,0,0,0,0,0,0,0,0,0,0,0,0,0,0,0,0,0,0,0,0,0,0,0,
0,0,0,0,0,0,0,0,0,0,0,0,0,0,0,0,0,0,0,0,0,0,0,0,0,0,
0,0,0,0,0,0,0,0,0,0,0,0,0,0,0,0,0,0,0,0,0,0,0,0,0,0,
0,0,0,0,0,0,0,0,0,0,0,0,0,0,0,0,0,0,0,0,0,0,0,0,0,0,
0,0,0,0,0,0,0,0,0,0,0,0,0,0,0,0,0,0,0,0,0,0,0,0,0,0,
0,0,0,0,0,0,0,0,0,0,0,0,0,0,0,0,0,0,0,0,0,0,0,0,0,0,
0,0,0,0,0,0,0,0,0,0,0,0,0,37,38,39,40,38,38,39,40,41,0,0,0,0,
0,0,0,0,0,0,0,0,0,0,0,0,0,46,47,48,49,47,47,48,49,50,0,0,0,0,
0,0,0,0,0,0,0,0,0,0,0,0,0,46,47,47,47,47,47,48,49,50,0,0,0,0,
0,0,0,0,0,0,0,0,0,0,0,0,0,46,47,48,49,49,49,49,49,50,0,0,0,0,
0,0,0,0,0,0,0,0,0,0,0,0,0,46,47,48,49,49,49,49,49,50,0,0,0,0,
0,0,0,0,0,0,0,0,0,0,0,0,0,55,56,57,58,58,58,58,58,59,0,0,0,0,
0,0,0,0,0,0,0,0,0,0,0,0,0,64,65,64,65,69,68,68,68,68,0,0,0,0,
0,0,0,0,0,0,0,0,0,0,0,0,0,73,74,73,74,78,77,77,77,77,0,0,0,0
</data>
 </layer>
 <layer id="3" name="Tile Layer 3" width="26" height="16" offsetx="20" offsety="0">
  <data encoding="csv">
0,0,0,0,0,0,0,0,0,0,0,0,0,0,0,0,0,0,0,0,0,0,0,0,0,0,
0,0,0,0,0,0,0,0,0,0,0,0,0,0,0,0,0,0,0,0,0,0,0,0,0,0,
0,0,0,0,0,0,0,0,0,0,0,0,0,0,0,37,38,40,41,0,0,0,0,0,0,0,
0,0,0,0,0,0,0,0,0,0,0,0,0,0,0,46,47,49,50,0,0,0,0,0,0,0,
0,0,0,0,0,0,0,0,0,0,0,0,0,0,0,55,56,58,59,0,0,0,0,0,0,0,
0,0,0,0,0,0,0,0,0,0,0,0,0,0,0,64,66,67,68,0,0,0,0,0,0,0,
0,0,0,0,0,0,0,0,0,0,0,0,0,0,0,73,75,76,77,0,0,0,0,0,0,0,
0,0,0,0,0,0,0,0,0,0,0,0,0,0,0,0,0,0,0,0,0,0,0,0,0,0,
0,0,0,0,0,0,0,0,0,0,0,0,0,0,0,0,0,0,0,0,0,0,0,0,0,0,
0,0,0,0,0,0,0,0,0,0,0,0,0,0,0,0,0,0,0,0,0,0,0,0,0,0,
0,0,0,0,0,0,0,0,0,0,0,0,0,0,0,0,0,0,0,0,0,0,0,0,0,0,
0,0,0,0,0,0,0,0,0,0,0,0,0,0,0,0,0,0,0,0,0,0,0,0,0,0,
0,0,0,0,0,0,0,0,0,0,0,0,0,0,0,0,0,0,0,0,0,0,0,0,0,0,
0,0,0,0,0,0,0,0,0,0,0,0,0,0,0,0,0,0,0,0,0,0,0,0,0,0,
0,0,0,0,0,0,0,0,0,0,0,0,0,0,0,0,66,67,0,0,0,0,0,0,0,0,
0,0,0,0,0,0,0,0,0,0,0,0,0,0,0,0,0,0,0,0,0,0,0,0,0,0
</data>
 </layer>
 <objectgroup id="9" name="objects_osc">
  <object id="16" name="texturescroller" x="80" y="0">
   <properties>
    <property name="base_tex" value="backgrounds/glow_purple_tile_oscillate"/>
    <property name="scroll_tex" value="backgrounds/perlin_noise_purple_looping"/>
    <property name="type" value="library"/>
   </properties>
   <point/>
  </object>
  <object id="17" name="texturescroller" x="120" y="0">
   <properties>
    <property name="type" value="hsv"/>
   </properties>
   <point/>
  </object>
 </objectgroup>
 <objectgroup id="4" name="objects">
  <object id="10" name="transition" x="80" y="-40" width="200" height="40">
   <properties>
    <property name="map" value="2_2nd_sanctuary/second_sanctum_11_exit"/>
    <property name="marker" value="entry3"/>
   </properties>
  </object>
  <object id="13" name="transition" x="1040" y="320" width="40" height="120">
   <properties>
    <property name="map" value="2_2nd_sanctuary/second_sanctum_13"/>
    <property name="marker" value="entry"/>
   </properties>
  </object>
 </objectgroup>
 <objectgroup id="5" name="markers">
  <object id="11" name="entry" x="180" y="40">
   <point/>
  </object>
  <object id="12" name="entry2" x="1000" y="380">
   <point/>
  </object>
 </objectgroup>
 <objectgroup id="6" name="collision">
  <object id="1" x="0" y="0" width="80" height="640"/>
  <object id="2" x="80" y="440" width="200" height="200"/>
  <object id="3" x="280" y="0" width="760" height="160"/>
  <object id="4" x="520" y="160" width="520" height="160"/>
  <object id="5" x="880" y="440" width="160" height="200"/>
  <object id="6" x="520" y="560" width="360" height="80"/>
  <object id="7" x="280" y="480" width="240" height="160"/>
  <object id="8" x="280" y="240">
   <polygon points="0,0 240,240 0,240"/>
  </object>
  <object id="9" x="280" y="160">
   <polygon points="0,0 240,0 240,240"/>
  </object>
 </objectgroup>
 <objectgroup id="10" name="objects_darkness">
  <object id="18" name="darkness" x="160" y="0">
   <properties>
    <property name="alpha" type="float" value="0.23"/>
    <property name="highlight" type="bool" value="true"/>
   </properties>
   <point/>
  </object>
 </objectgroup>
 <objectgroup id="8" name="objects_fog">
  <object id="15" name="churchfog" x="40" y="0">
   <point/>
  </object>
 </objectgroup>
 <objectgroup id="7" name="objects_top">
  <object id="14" name="filter" x="0" y="0">
   <properties>
    <property name="type" value="hsv"/>
   </properties>
   <point/>
  </object>
 </objectgroup>
</map>
