<?xml version="1.0" encoding="UTF-8"?>
<map version="1.11" tiledversion="1.12.1" orientation="orthogonal" renderorder="right-down" width="60" height="60" tilewidth="40" tileheight="40" infinite="0" nextlayerid="18" nextobjectid="148">
 <editorsettings>
  <export target="data.lua" format="lua"/>
 </editorsettings>
 <properties>
  <property name="border" value="church_b"/>
  <property name="music" value="second_church"/>
 </properties>
 <tileset firstgid="1" source="../../../tilesets/church_objects.tsx"/>
 <tileset firstgid="111" source="../../../tilesets/bg_dw_church_tileset_new.tsx"/>
 <tileset firstgid="693" source="../../../tilesets/bg_dw_church_c_tileset.tsx"/>
 <tileset firstgid="972" source="../../../tilesets/bg_dw_church_2_tileset.tsx"/>
 <tileset firstgid="1170" source="../../../tilesets/longslides.tsx"/>
 <tileset firstgid="1224" source="../../../tilesets/bg_dw_tower_tileset.tsx"/>
 <tileset firstgid="1254" source="../../../tilesets/ExtraTowerTiles.tsx"/>
 <tileset firstgid="1260" source="../../../tilesets/climbtileobjects.tsx"/>
 <layer id="8" name="tile_osc_optimize" width="60" height="60" visible="0">
  <data encoding="csv">
0,0,0,0,0,0,0,0,0,0,0,0,0,0,0,0,0,0,0,0,0,0,0,0,0,0,0,0,0,0,0,0,0,0,0,0,0,0,0,0,0,0,0,0,0,0,0,0,0,0,0,0,0,0,0,0,0,0,0,0,
0,0,0,0,0,0,0,0,0,0,0,0,0,0,0,0,0,0,0,0,0,0,0,0,0,0,0,0,0,0,0,0,0,0,0,0,0,0,0,0,0,0,0,0,0,0,0,0,0,0,0,0,0,0,0,0,0,0,0,0,
0,0,0,0,0,0,0,0,0,0,0,0,0,0,0,0,0,0,0,0,0,0,0,0,0,0,0,0,0,0,0,0,0,0,0,0,0,0,0,0,0,0,0,0,0,0,0,0,0,0,0,0,0,0,0,0,0,0,0,0,
0,0,0,0,0,0,0,0,0,0,0,0,0,0,0,0,0,0,0,0,0,0,0,0,0,0,0,0,0,0,0,0,0,0,0,0,0,0,0,0,0,0,0,0,0,0,0,0,0,0,0,0,0,0,0,0,0,0,0,0,
0,0,0,0,0,0,0,0,0,0,0,0,0,0,0,0,0,0,0,0,0,0,0,0,0,0,0,0,0,0,0,0,0,0,0,0,0,0,0,0,0,0,0,0,0,0,0,0,0,0,0,0,0,0,0,0,0,0,0,0,
0,0,0,0,0,0,0,0,0,0,0,0,0,0,0,0,0,0,0,0,0,0,0,0,0,0,0,0,0,0,0,0,0,0,0,0,0,0,0,0,0,0,0,0,0,0,0,0,0,0,0,0,0,0,0,0,0,0,0,0,
0,0,0,0,0,0,0,0,0,0,0,0,0,0,0,0,0,0,0,0,0,0,0,0,0,0,0,0,0,0,0,0,0,0,0,0,0,0,0,0,0,0,0,0,0,0,0,0,0,0,0,0,0,0,0,0,0,0,0,0,
0,1165,1165,1165,1165,1165,1165,1165,1165,1165,1165,1165,1165,1165,1165,1165,1165,1165,1165,1165,1165,1165,1165,1165,1165,1165,1165,1165,1165,0,0,0,0,0,0,0,0,0,0,0,0,0,0,0,0,0,0,0,0,0,0,0,0,0,0,0,0,0,0,0,
0,1165,1165,1165,1165,1165,1165,1165,1165,1165,1165,1165,1165,1165,1165,1165,1165,1165,1165,1165,1165,1165,1165,1165,1165,1165,1165,1165,1165,0,0,0,0,0,0,0,0,0,0,0,0,0,0,0,0,0,0,0,0,0,0,0,0,0,0,0,0,0,0,0,
0,0,0,0,0,0,0,0,0,0,0,0,0,0,0,0,0,0,0,0,0,0,0,0,0,0,0,0,0,0,0,0,0,0,0,0,0,0,0,0,0,0,0,0,0,0,0,0,0,0,0,0,0,0,0,0,0,0,0,0,
0,0,0,0,0,0,0,0,0,0,0,0,0,0,0,0,0,0,0,0,0,0,0,0,0,0,0,0,0,0,0,0,0,0,0,0,0,0,0,0,0,0,0,0,0,0,0,0,0,0,0,0,0,0,0,0,0,0,0,0,
0,0,0,0,0,0,0,0,0,0,0,0,0,0,0,0,0,0,0,0,0,0,0,0,0,0,0,0,0,0,0,0,0,0,0,0,0,0,0,0,0,0,0,0,0,0,0,0,0,0,0,0,0,0,0,0,0,0,0,0,
0,0,0,0,0,0,0,0,0,0,0,0,0,0,0,0,0,0,0,0,0,0,0,0,0,0,0,0,0,0,0,0,0,0,0,0,0,0,0,0,0,0,0,0,0,0,0,0,0,0,0,0,0,0,0,0,0,0,0,0,
0,0,0,0,0,0,0,0,0,0,0,0,0,0,0,0,0,0,0,0,0,0,0,0,0,0,0,0,0,0,0,0,0,0,0,0,0,0,0,0,0,0,0,0,0,0,0,0,0,0,0,0,0,0,0,0,0,0,0,0,
0,0,0,0,0,0,0,0,0,0,0,0,0,0,0,0,0,0,0,0,0,0,0,0,0,0,0,0,0,0,0,0,0,0,0,0,0,0,0,0,0,0,0,0,0,0,0,0,0,0,0,0,0,0,0,0,0,0,0,0,
0,0,0,0,0,0,0,0,0,0,0,0,0,0,0,0,0,0,0,0,0,0,0,0,0,0,0,0,0,0,0,0,0,0,0,0,0,0,0,0,0,0,0,0,0,0,0,0,0,0,0,0,0,0,0,0,0,0,0,0,
0,0,0,0,0,0,0,0,0,0,0,0,0,0,0,0,0,0,0,0,0,0,0,0,0,0,0,0,0,0,0,0,0,0,0,0,0,0,0,0,0,0,0,0,0,0,0,0,0,0,0,0,0,0,0,0,0,0,0,0,
0,0,0,0,0,0,0,0,0,0,0,0,0,0,0,0,0,0,0,0,0,0,0,0,0,0,0,0,0,0,0,0,0,0,0,0,0,0,0,0,0,0,0,0,0,0,0,0,0,0,0,0,0,0,0,0,0,0,0,0,
0,0,0,0,0,0,0,0,0,0,0,0,0,0,0,0,0,0,0,0,0,0,0,0,0,0,0,0,0,0,0,0,0,0,0,0,0,0,0,0,0,0,0,0,0,0,0,0,0,0,0,0,0,0,0,0,0,0,0,0,
0,0,0,0,0,0,0,0,0,0,0,0,0,0,0,0,0,0,0,0,0,0,0,0,0,0,0,0,0,0,0,0,0,0,0,0,0,0,0,0,0,0,0,0,0,0,0,0,0,0,0,0,0,0,0,0,0,0,0,0,
0,0,0,0,0,0,0,0,0,0,0,0,0,0,0,0,0,0,0,0,0,0,0,0,0,0,0,0,0,0,0,0,0,0,0,0,0,0,0,0,0,0,0,0,0,0,0,0,0,0,0,0,0,0,0,0,0,0,0,0,
0,0,0,0,0,0,0,0,0,0,0,0,0,0,0,0,0,0,0,0,0,0,0,0,0,0,0,0,0,0,0,0,0,0,0,0,0,0,0,0,0,0,0,0,0,0,0,0,0,0,0,0,0,0,0,0,0,0,0,0,
0,0,0,0,0,0,0,0,0,0,0,0,0,0,0,0,0,0,0,0,0,0,0,0,0,0,0,0,0,0,0,0,0,0,0,0,0,0,0,0,0,0,0,0,0,0,0,0,0,0,0,0,0,0,0,0,0,0,0,0,
0,0,0,0,0,0,0,0,0,0,0,0,0,0,0,0,0,0,0,0,0,0,0,0,0,0,0,0,0,0,0,0,0,0,0,0,0,0,0,0,0,0,0,0,0,0,0,0,0,0,0,0,0,0,0,0,0,0,0,0,
0,0,0,0,0,0,0,0,0,0,0,0,0,0,0,0,0,0,0,0,0,0,0,0,0,0,0,0,0,0,0,0,0,0,0,0,0,0,0,0,0,0,0,0,0,0,0,0,0,0,0,0,0,0,0,0,0,0,0,0,
0,0,0,0,0,0,0,0,0,0,0,0,0,0,0,0,0,0,0,0,0,0,0,0,0,0,0,0,0,0,0,0,0,0,0,0,0,0,0,0,0,0,0,0,0,0,0,0,0,0,0,0,0,0,0,0,0,0,0,0,
0,0,0,0,0,0,0,0,0,0,0,0,0,0,0,0,0,0,0,0,0,0,0,0,0,0,0,0,0,0,0,0,0,0,0,0,0,0,0,0,0,0,0,0,0,0,0,0,0,0,0,0,0,0,0,0,0,0,0,0,
0,0,0,0,0,0,0,0,0,0,0,0,0,0,0,0,0,0,0,0,0,0,0,0,0,0,0,0,0,0,0,0,0,0,0,0,0,0,0,0,0,0,0,0,0,0,0,0,0,0,0,0,0,0,0,0,0,0,0,0,
0,0,0,0,0,0,0,0,0,0,0,0,0,0,0,0,0,0,0,0,0,0,0,0,0,0,0,0,0,0,0,0,0,0,0,0,0,0,0,0,0,0,0,0,0,0,0,0,0,0,0,0,0,0,0,0,0,0,0,0,
0,0,0,0,0,0,0,0,0,0,0,0,0,0,0,0,0,0,0,0,0,0,0,0,0,0,0,0,0,0,0,0,0,0,0,0,0,0,0,0,0,0,0,0,0,0,0,0,0,0,0,0,0,0,0,0,0,0,0,0,
0,0,0,0,0,0,0,0,0,0,0,0,0,0,0,0,0,0,0,0,0,0,0,0,0,0,0,0,0,0,0,0,0,0,0,0,0,0,0,0,0,0,0,0,0,0,0,0,0,0,0,0,0,0,0,0,0,0,0,0,
0,0,0,0,0,0,0,0,0,0,0,0,0,0,0,0,0,0,0,0,0,0,0,0,0,0,0,0,0,0,0,0,0,0,0,0,0,0,0,0,0,0,0,0,0,0,0,0,0,0,0,0,0,0,0,0,0,0,0,0,
0,0,0,0,0,0,0,0,0,0,0,0,0,0,0,0,0,0,0,0,0,0,0,0,0,0,0,0,0,0,0,0,0,0,0,0,0,0,0,0,0,0,0,0,0,0,0,0,0,0,0,0,0,0,0,0,0,0,0,0,
0,0,0,0,0,0,0,0,0,0,0,0,0,0,0,0,0,0,0,0,0,0,0,0,0,0,0,0,0,0,0,0,0,0,0,0,0,0,0,0,0,0,0,0,0,0,0,0,0,0,0,0,0,0,0,0,0,0,0,0,
0,0,0,0,0,0,0,0,0,0,0,0,0,0,0,0,0,0,0,0,0,0,0,0,0,0,0,0,0,0,0,0,0,0,0,0,0,0,0,0,0,0,0,0,0,0,0,0,0,0,0,0,0,0,0,0,0,0,0,0,
0,0,0,0,0,0,0,0,0,0,0,0,0,0,0,0,0,0,0,0,0,0,0,0,0,0,0,0,0,0,0,0,0,0,0,0,0,0,0,0,0,0,0,0,0,0,0,0,0,0,0,0,0,0,0,0,0,0,0,0,
0,0,0,0,0,0,0,0,0,0,0,0,0,0,0,0,0,0,0,0,0,0,0,0,0,0,0,0,0,0,0,0,0,0,0,0,0,0,0,0,0,0,0,0,0,0,0,0,0,0,0,0,0,0,0,0,0,0,0,0,
0,0,0,0,0,0,0,0,0,0,0,0,0,0,0,0,0,0,0,0,0,0,0,0,0,0,0,0,0,0,0,0,0,0,0,0,0,0,0,0,0,0,0,0,0,0,0,0,0,0,0,0,0,0,0,0,0,0,0,0,
0,0,0,0,0,0,0,0,0,0,0,0,0,0,0,0,0,0,0,0,0,0,0,0,0,0,0,0,0,0,0,0,0,0,0,0,0,0,0,0,0,0,0,0,0,0,0,0,0,0,0,0,0,0,0,0,0,0,0,0,
0,0,0,0,0,0,0,0,0,0,0,0,0,0,0,0,0,0,0,0,0,0,0,0,0,0,0,0,0,0,0,0,0,0,0,0,0,0,0,0,0,0,0,0,0,0,0,0,0,0,0,0,0,0,0,0,0,0,0,0,
0,0,0,0,0,0,0,0,0,0,0,0,0,0,0,0,0,0,0,0,0,0,0,0,0,0,0,0,0,0,0,0,0,0,0,0,0,0,0,0,0,0,0,0,0,0,0,0,0,0,0,0,0,0,0,0,0,0,0,0,
0,0,0,0,0,0,0,0,0,0,0,0,0,0,0,0,0,0,0,0,0,0,0,0,0,0,0,0,0,0,0,0,0,0,0,0,0,0,0,0,0,0,0,0,0,0,0,0,0,0,0,0,0,0,0,0,0,0,0,0,
0,0,0,0,0,0,0,0,0,0,0,0,0,0,0,0,0,0,0,0,0,0,0,0,0,0,0,0,0,0,0,0,0,0,0,0,0,0,0,0,0,0,0,0,0,0,0,0,0,0,0,0,0,0,0,0,0,0,0,0,
0,0,0,0,0,0,0,0,0,0,0,0,0,0,0,0,0,0,0,0,0,0,0,0,0,0,0,0,0,0,0,0,0,0,0,0,0,0,0,0,0,0,0,0,0,0,0,0,0,0,0,0,0,0,0,0,0,0,0,0,
0,0,0,0,0,0,0,0,0,0,0,0,0,0,0,0,0,0,0,0,0,0,0,0,0,0,0,0,0,0,0,0,0,0,0,0,0,0,0,0,0,0,0,0,0,0,0,0,0,0,0,0,0,0,0,0,0,0,0,0,
0,0,0,0,0,0,0,0,0,0,0,0,0,0,0,0,0,0,0,0,0,0,0,0,0,0,0,0,0,0,0,0,0,0,0,0,0,0,0,0,0,0,0,0,0,0,0,0,0,0,0,0,0,0,0,0,0,0,0,0,
0,0,0,0,0,0,0,0,0,0,0,0,0,0,0,0,0,0,0,0,0,0,0,0,0,0,0,0,0,0,0,0,0,0,0,0,0,0,0,0,0,0,0,0,0,0,0,0,0,0,0,0,0,0,0,0,0,0,0,0,
0,0,0,0,0,0,0,0,0,0,0,0,0,0,0,0,0,0,0,0,0,0,0,0,0,0,0,0,0,0,0,0,0,0,0,0,0,0,0,0,0,0,0,0,0,0,0,0,0,0,0,0,0,0,0,0,0,0,0,0,
0,0,0,0,0,0,0,0,0,0,0,0,0,0,0,0,0,0,0,0,0,0,0,0,0,0,0,0,0,0,0,0,0,0,0,0,0,0,0,0,0,0,0,0,0,0,0,0,0,0,0,0,0,0,0,0,0,0,0,0,
0,0,0,0,0,0,0,0,0,0,0,0,0,0,0,0,0,0,0,0,0,0,0,0,0,0,0,0,0,0,0,0,0,0,0,0,0,0,0,0,0,0,0,0,0,0,0,0,0,0,0,0,0,0,0,0,0,0,0,0,
0,0,0,0,0,0,0,0,0,0,0,0,0,0,0,0,0,0,0,0,0,0,0,0,0,0,0,0,0,0,0,0,0,0,0,0,0,0,0,0,0,0,0,0,0,0,0,0,0,0,0,0,0,0,0,0,0,0,0,0,
0,0,0,0,0,0,0,0,0,0,0,0,0,0,0,0,0,0,0,0,0,0,0,0,0,0,0,0,0,0,0,0,0,0,0,0,0,0,0,0,0,0,0,0,0,0,0,0,0,0,0,0,0,0,0,0,0,0,0,0,
0,0,0,0,0,0,0,0,0,0,0,0,0,0,0,0,0,0,0,0,0,0,0,0,0,0,0,0,0,0,0,0,0,0,0,0,0,0,0,0,0,0,0,0,0,0,0,0,0,0,0,0,0,0,0,0,0,0,0,0,
0,0,0,0,0,0,0,0,0,0,0,0,0,0,0,0,0,0,0,0,0,0,0,0,0,0,0,0,0,0,0,0,0,0,0,0,0,0,0,0,0,0,0,0,0,0,0,0,0,0,0,0,0,0,0,0,0,0,0,0,
0,0,0,0,0,0,0,0,0,0,0,0,0,0,0,0,0,0,0,0,0,0,0,0,0,0,0,0,0,0,0,0,0,0,0,0,0,0,0,0,0,0,0,0,0,0,0,0,0,0,0,0,0,0,0,0,0,0,0,0,
1165,1165,1165,1165,1165,1165,1165,1165,1165,1165,1165,1165,1165,1165,1165,1165,1165,1165,1165,1165,1165,1165,1165,1165,1165,1165,1165,1165,1165,0,0,0,0,0,0,0,0,0,0,0,0,0,0,0,0,0,0,0,0,0,0,0,0,0,0,0,0,0,0,0,
1165,1165,1165,1165,1165,1165,1165,1165,1165,1165,1165,1165,1165,1165,1165,1165,1165,1165,1165,1165,1165,1165,1165,1165,1165,1165,1165,1165,1165,0,0,0,0,0,0,0,0,0,0,0,0,0,0,0,0,0,0,0,0,0,0,0,0,0,0,0,0,0,0,0,
0,0,0,0,0,0,0,0,0,0,0,0,0,0,0,0,0,0,0,0,0,0,0,0,0,0,0,0,0,0,0,0,0,0,0,0,0,0,0,0,0,0,0,0,0,0,0,0,0,0,0,0,0,0,0,0,0,0,0,0,
0,0,0,0,0,0,0,0,0,0,0,0,0,0,0,0,0,0,0,0,0,0,0,0,0,0,0,0,0,0,0,0,0,0,0,0,0,0,0,0,0,0,0,0,0,0,0,0,0,0,0,0,0,0,0,0,0,0,0,0,
0,0,0,0,0,0,0,0,0,0,0,0,0,0,0,0,0,0,0,0,0,0,0,0,0,0,0,0,0,0,0,0,0,0,0,0,0,0,0,0,0,0,0,0,0,0,0,0,0,0,0,0,0,0,0,0,0,0,0,0
</data>
 </layer>
 <layer id="11" name="tile_bg" width="60" height="60" opacity="0.6">
  <data encoding="csv">
0,0,0,0,0,0,0,0,0,0,0,0,0,0,0,0,0,0,0,0,0,0,0,0,0,0,0,0,0,0,0,0,0,0,0,0,0,0,0,0,0,0,0,0,0,0,0,0,0,0,0,0,0,0,0,0,0,0,0,0,
0,0,0,0,0,0,0,0,0,0,0,0,0,0,0,0,0,0,0,0,0,0,0,0,0,0,0,0,0,0,0,0,0,0,0,0,0,0,0,0,0,0,0,0,0,0,0,0,0,0,0,0,0,0,0,0,0,0,0,0,
0,0,0,0,0,0,0,0,0,0,0,0,0,0,0,0,0,0,0,0,0,0,0,0,0,0,0,0,0,0,0,0,0,0,0,0,0,0,0,0,0,0,0,0,0,0,0,0,0,0,0,0,0,0,0,0,0,0,0,0,
0,0,0,0,0,0,0,0,0,0,0,0,0,0,0,0,0,0,0,0,0,0,0,0,0,0,0,0,0,0,0,0,0,0,0,0,0,0,0,0,0,0,0,0,0,0,0,0,0,0,0,0,0,0,0,0,0,0,0,0,
0,0,0,0,0,0,0,0,0,0,0,0,0,0,0,0,0,0,0,0,0,0,0,0,0,0,0,0,0,0,0,0,0,0,0,0,0,0,0,0,0,0,0,0,0,0,0,0,0,0,0,0,0,0,0,0,0,0,0,0,
0,0,0,0,0,0,0,0,0,0,0,0,0,0,0,0,0,0,0,0,0,0,0,0,0,0,0,0,0,0,0,0,0,0,0,0,0,0,0,0,0,0,0,0,0,0,0,0,0,0,0,0,0,0,0,0,0,0,0,0,
0,0,0,0,0,0,0,0,0,0,0,0,0,0,0,0,0,0,0,0,0,0,0,0,0,0,0,0,0,0,0,0,0,0,0,0,0,0,0,0,0,0,0,0,0,0,0,0,0,0,0,0,0,0,0,0,0,0,0,0,
0,0,0,0,0,0,0,0,0,0,0,0,0,0,0,0,0,0,0,0,0,0,0,0,0,0,0,0,0,0,0,0,0,0,0,0,0,0,0,0,0,0,0,0,0,0,0,0,0,0,0,0,0,0,0,0,0,0,0,0,
0,0,0,0,0,0,0,0,0,0,0,0,0,0,0,0,0,0,0,0,0,0,0,0,0,0,0,0,0,0,0,0,0,0,0,0,0,0,0,0,0,0,0,0,0,0,0,0,0,0,0,0,0,0,0,0,0,0,0,0,
0,0,0,0,0,0,0,0,0,0,0,0,0,0,0,0,0,0,0,0,0,0,0,0,0,0,0,0,0,0,0,0,0,0,0,0,0,0,0,0,0,0,0,0,0,0,0,0,0,0,0,0,0,0,0,0,0,0,0,0,
0,0,0,0,0,0,0,0,0,0,0,0,0,0,0,0,0,0,0,0,0,0,0,0,0,0,0,0,0,0,0,0,0,0,0,0,0,0,0,0,0,0,0,0,0,0,0,0,0,0,0,0,0,0,0,0,0,0,0,0,
0,0,0,0,0,0,0,0,0,0,0,0,0,0,0,0,0,0,0,0,0,0,0,0,0,0,0,0,0,0,0,0,0,0,0,0,0,0,0,0,0,0,0,0,0,0,0,0,0,0,0,0,0,0,0,0,0,0,0,0,
0,0,0,0,0,0,0,0,0,0,0,0,0,0,0,0,0,0,0,0,0,0,0,0,0,0,0,0,0,0,0,0,0,0,0,0,0,0,0,0,0,0,0,0,0,0,0,0,0,0,0,0,0,0,0,0,0,0,0,0,
0,0,0,0,0,0,0,0,0,0,0,0,0,0,0,0,0,0,0,0,0,0,0,0,0,0,0,0,0,0,0,0,0,0,0,0,0,0,0,0,0,0,0,0,0,0,0,0,0,0,0,0,0,0,0,0,0,0,0,0,
0,0,0,0,0,0,0,0,0,0,0,0,0,0,0,0,0,0,0,0,0,0,0,0,0,0,0,0,0,0,0,0,0,0,0,0,0,0,0,0,0,0,0,0,0,0,0,0,0,0,0,0,0,0,0,0,0,0,0,0,
0,0,0,0,0,246,247,0,0,0,0,0,0,0,246,247,0,0,0,0,0,0,0,246,247,0,0,0,0,0,0,0,246,247,0,0,0,0,0,0,0,246,247,0,0,0,0,0,0,0,0,0,0,0,0,0,0,0,0,0,
0,0,0,0,0,252,253,0,0,0,0,0,0,0,252,253,0,0,0,0,0,0,0,252,253,0,0,0,0,0,0,0,252,253,0,0,0,0,0,0,0,252,253,0,0,0,0,0,0,0,0,0,0,0,0,0,0,0,0,0,
0,0,0,0,0,258,259,0,0,0,0,0,0,0,258,259,0,0,0,0,0,0,0,258,259,0,0,0,0,0,0,0,258,259,0,0,0,0,0,0,0,258,259,0,0,0,0,0,0,0,0,0,0,0,0,0,0,0,0,0,
0,0,0,0,0,264,265,0,0,0,0,0,0,0,264,265,0,0,0,0,0,0,0,264,265,0,0,0,0,0,0,0,264,265,0,0,0,0,0,0,0,264,265,0,0,0,0,0,0,0,0,0,0,0,0,0,0,0,0,0,
0,0,0,0,0,0,0,0,0,0,0,0,0,0,0,0,0,0,0,0,0,0,0,0,0,0,0,0,0,0,0,0,0,0,0,0,0,0,0,0,0,0,0,0,0,0,0,0,0,0,0,0,0,0,0,0,0,0,0,0,
0,0,0,0,0,0,0,0,0,0,0,0,0,0,0,0,0,0,0,0,0,0,0,0,0,0,0,0,0,0,0,0,0,0,0,0,0,0,0,0,0,0,0,0,0,0,0,0,0,0,0,0,0,0,0,0,0,0,0,0,
0,0,0,0,0,0,0,0,0,0,0,0,0,0,0,0,0,0,0,0,0,0,0,0,0,0,0,0,0,0,0,0,0,0,0,0,0,0,0,0,0,0,0,0,0,0,0,0,0,0,0,0,0,0,0,0,0,0,0,0,
247,0,0,0,0,0,0,0,246,247,0,0,0,0,0,0,0,246,247,0,0,0,0,0,0,0,246,247,0,0,0,0,0,0,0,246,247,0,0,0,0,0,0,0,246,247,0,0,0,0,0,0,0,0,0,0,0,0,0,0,
253,0,0,0,0,0,0,0,252,253,0,0,0,0,0,0,0,252,253,0,0,0,0,0,0,0,252,253,0,0,0,0,0,0,0,252,253,0,0,0,0,0,0,0,252,253,0,0,0,0,0,0,0,0,0,0,0,0,0,0,
259,0,0,0,0,0,0,0,258,259,0,0,0,0,0,0,0,258,259,0,0,0,0,0,0,0,258,259,0,0,0,0,0,0,0,258,259,0,0,0,0,0,0,0,258,259,0,0,0,0,0,0,0,0,0,0,0,0,0,0,
265,0,0,0,0,0,0,0,264,265,0,0,0,0,0,0,0,264,265,0,0,0,0,0,0,0,264,265,0,0,0,0,0,0,0,264,265,0,0,0,0,0,0,0,264,265,0,0,0,0,0,0,0,0,0,0,0,0,0,0,
0,0,0,0,0,0,0,0,0,0,0,0,0,0,0,0,0,0,0,0,0,0,0,0,0,0,0,0,0,0,0,0,0,0,0,0,0,0,0,0,0,0,0,0,0,0,0,0,0,0,0,0,0,0,0,0,0,0,0,0,
0,0,0,0,0,0,0,0,0,0,0,0,0,0,0,0,0,0,0,0,0,0,0,0,0,0,0,0,0,0,0,0,0,0,0,0,0,0,0,0,0,0,0,0,0,0,0,0,0,0,0,0,0,0,0,0,0,0,0,0,
0,0,0,0,0,0,0,0,0,0,0,0,0,0,0,0,0,0,0,0,0,0,0,0,0,0,0,0,0,0,0,0,0,0,0,0,0,0,0,0,0,0,0,0,0,0,0,0,0,0,0,0,0,0,0,0,0,0,0,0,
0,0,246,247,0,0,0,0,0,0,0,246,247,0,0,0,0,0,0,0,246,247,0,0,0,0,0,0,0,246,247,0,0,0,0,0,0,0,246,247,0,0,0,0,0,0,0,0,0,0,0,0,0,0,0,0,0,0,0,0,
0,0,252,253,0,0,0,0,0,0,0,252,253,0,0,0,0,0,0,0,252,253,0,0,0,0,0,0,0,252,253,0,0,0,0,0,0,0,252,253,0,0,0,0,0,0,0,0,0,0,0,0,0,0,0,0,0,0,0,0,
0,0,258,259,0,0,0,0,0,0,0,258,259,0,0,0,0,0,0,0,258,259,0,0,0,0,0,0,0,258,259,0,0,0,0,0,0,0,258,259,0,0,0,0,0,0,0,0,0,0,0,0,0,0,0,0,0,0,0,0,
0,0,264,265,0,0,0,0,0,0,0,264,265,0,0,0,0,0,0,0,264,265,0,0,0,0,0,0,0,264,265,0,0,0,0,0,0,0,264,265,0,0,0,0,0,0,0,0,0,0,0,0,0,0,0,0,0,0,0,0,
0,0,0,0,0,0,0,0,0,0,0,0,0,0,0,0,0,0,0,0,0,0,0,0,0,0,0,0,0,0,0,0,0,0,0,0,0,0,0,0,0,0,0,0,0,0,0,0,0,0,0,0,0,0,0,0,0,0,0,0,
0,0,0,0,0,0,0,0,0,0,0,0,0,0,0,0,0,0,0,0,0,0,0,0,0,0,0,0,0,0,0,0,0,0,0,0,0,0,0,0,0,0,0,0,0,0,0,0,0,0,0,0,0,0,0,0,0,0,0,0,
0,0,0,0,0,0,0,0,0,0,0,0,0,0,0,0,0,0,0,0,0,0,0,0,0,0,0,0,0,0,0,0,0,0,0,0,0,0,0,0,0,0,0,0,0,0,0,0,0,0,0,0,0,0,0,0,0,0,0,0,
0,0,0,0,0,246,247,0,0,0,0,0,0,0,246,247,0,0,0,0,0,0,0,246,247,0,0,0,0,0,0,0,246,247,0,0,0,0,0,0,0,246,247,0,0,0,0,0,0,0,0,0,0,0,0,0,0,0,0,0,
0,0,0,0,0,252,253,0,0,0,0,0,0,0,252,253,0,0,0,0,0,0,0,252,253,0,0,0,0,0,0,0,252,253,0,0,0,0,0,0,0,252,253,0,0,0,0,0,0,0,0,0,0,0,0,0,0,0,0,0,
0,0,0,0,0,258,259,0,0,0,0,0,0,0,258,259,0,0,0,0,0,0,0,258,259,0,0,0,0,0,0,0,258,259,0,0,0,0,0,0,0,258,259,0,0,0,0,0,0,0,0,0,0,0,0,0,0,0,0,0,
0,0,0,0,0,264,265,0,0,0,0,0,0,0,264,265,0,0,0,0,0,0,0,264,265,0,0,0,0,0,0,0,264,265,0,0,0,0,0,0,0,264,265,0,0,0,0,0,0,0,0,0,0,0,0,0,0,0,0,0,
0,0,0,0,0,0,0,0,0,0,0,0,0,0,0,0,0,0,0,0,0,0,0,0,0,0,0,0,0,0,0,0,0,0,0,0,0,0,0,0,0,0,0,0,0,0,0,0,0,0,0,0,0,0,0,0,0,0,0,0,
0,0,0,0,0,0,0,0,0,0,0,0,0,0,0,0,0,0,0,0,0,0,0,0,0,0,0,0,0,0,0,0,0,0,0,0,0,0,0,0,0,0,0,0,0,0,0,0,0,0,0,0,0,0,0,0,0,0,0,0,
0,0,0,0,0,0,0,0,0,0,0,0,0,0,0,0,0,0,0,0,0,0,0,0,0,0,0,0,0,0,0,0,0,0,0,0,0,0,0,0,0,0,0,0,0,0,0,0,0,0,0,0,0,0,0,0,0,0,0,0,
0,0,0,0,0,0,0,0,246,247,0,0,0,0,0,0,0,246,247,0,0,0,0,0,0,0,246,247,0,0,0,0,0,0,0,246,247,0,0,0,0,0,0,0,246,247,0,0,0,0,0,0,0,0,0,0,0,0,0,0,
0,0,0,0,0,0,0,0,252,253,0,0,0,0,0,0,0,252,253,0,0,0,0,0,0,0,252,253,0,0,0,0,0,0,0,252,253,0,0,0,0,0,0,0,252,253,0,0,0,0,0,0,0,0,0,0,0,0,0,0,
0,0,0,0,0,0,0,0,258,259,0,0,0,0,0,0,0,258,259,0,0,0,0,0,0,0,258,259,0,0,0,0,0,0,0,258,259,0,0,0,0,0,0,0,258,259,0,0,0,0,0,0,0,0,0,0,0,0,0,0,
0,0,0,0,0,0,0,0,264,265,0,0,0,0,0,0,0,264,265,0,0,0,0,0,0,0,264,265,0,0,0,0,0,0,0,264,265,0,0,0,0,0,0,0,264,265,0,0,0,0,0,0,0,0,0,0,0,0,0,0,
0,0,0,0,0,0,0,0,0,0,0,0,0,0,0,0,0,0,0,0,0,0,0,0,0,0,0,0,0,0,0,0,0,0,0,0,0,0,0,0,0,0,0,0,0,0,0,0,0,0,0,0,0,0,0,0,0,0,0,0,
0,0,0,0,0,0,0,0,0,0,0,0,0,0,0,0,0,0,0,0,0,0,0,0,0,0,0,0,0,0,0,0,0,0,0,0,0,0,0,0,0,0,0,0,0,0,0,0,0,0,0,0,0,0,0,0,0,0,0,0,
0,0,246,247,0,0,0,0,0,0,0,246,247,0,0,0,0,0,0,0,246,247,0,0,0,0,0,0,0,246,247,0,0,0,0,0,0,0,246,247,0,0,0,0,0,0,0,0,0,0,0,0,0,0,0,0,0,0,0,0,
0,0,252,253,0,0,0,0,0,0,0,252,253,0,0,0,0,0,0,0,252,253,0,0,0,0,0,0,0,252,253,0,0,0,0,0,0,0,252,253,0,0,0,0,0,0,0,0,0,0,0,0,0,0,0,0,0,0,0,0,
0,0,258,259,0,0,0,0,0,0,0,258,259,0,0,0,0,0,0,0,258,259,0,0,0,0,0,0,0,258,259,0,0,0,0,0,0,0,258,259,0,0,0,0,0,0,0,0,0,0,0,0,0,0,0,0,0,0,0,0,
0,0,264,265,0,0,0,0,0,0,0,264,265,0,0,0,0,0,0,0,264,265,0,0,0,0,0,0,0,264,265,0,0,0,0,0,0,0,264,265,0,0,0,0,0,0,0,0,0,0,0,0,0,0,0,0,0,0,0,0,
0,0,0,0,0,0,0,0,0,0,0,0,0,0,0,0,0,0,0,0,0,0,0,0,0,0,0,0,0,0,0,0,0,0,0,0,0,0,0,0,0,0,0,0,0,0,0,0,0,0,0,0,0,0,0,0,0,0,0,0,
0,0,0,0,0,0,0,0,0,0,0,0,0,0,0,0,0,0,0,0,0,0,0,0,0,0,0,0,0,0,0,0,0,0,0,0,0,0,0,0,0,0,0,0,0,0,0,0,0,0,0,0,0,0,0,0,0,0,0,0,
0,0,0,0,0,0,0,0,0,0,0,0,0,0,0,0,0,0,0,0,0,0,0,0,0,0,0,0,0,0,0,0,0,0,0,0,0,0,0,0,0,0,0,0,0,0,0,0,0,0,0,0,0,0,0,0,0,0,0,0,
0,0,0,0,0,0,0,0,0,0,0,0,0,0,0,0,0,0,0,0,0,0,0,0,0,0,0,0,0,0,0,0,0,0,0,0,0,0,0,0,0,0,0,0,0,0,0,0,0,0,0,0,0,0,0,0,0,0,0,0,
0,0,0,0,0,0,0,0,0,0,0,0,0,0,0,0,0,0,0,0,0,0,0,0,0,0,0,0,0,0,0,0,0,0,0,0,0,0,0,0,0,0,0,0,0,0,0,0,0,0,0,0,0,0,0,0,0,0,0,0,
0,0,0,0,0,0,0,0,0,0,0,0,0,0,0,0,0,0,0,0,0,0,0,0,0,0,0,0,0,0,0,0,0,0,0,0,0,0,0,0,0,0,0,0,0,0,0,0,0,0,0,0,0,0,0,0,0,0,0,0,
0,0,0,0,0,0,0,0,0,0,0,0,0,0,0,0,0,0,0,0,0,0,0,0,0,0,0,0,0,0,0,0,0,0,0,0,0,0,0,0,0,0,0,0,0,0,0,0,0,0,0,0,0,0,0,0,0,0,0,0
</data>
 </layer>
 <layer id="10" name="tile_tower" width="60" height="60">
  <data encoding="csv">
1229,1230,1231,1232,1233,1229,1230,1231,1232,1233,1229,1230,1231,1232,1233,1229,1230,1231,1232,1233,1229,1230,1231,0,0,0,0,0,0,0,0,0,0,0,0,0,0,0,0,0,0,0,0,0,0,0,0,0,0,0,0,0,0,0,0,0,0,0,0,0,
1234,1235,1236,1237,1238,1234,1235,1236,1237,1238,1234,1235,1236,1237,1238,1234,1235,1236,1237,1238,1234,1235,1236,0,0,0,0,0,0,0,0,0,0,0,0,0,0,0,0,0,0,0,0,0,0,0,0,0,0,0,0,0,0,0,0,0,0,0,0,0,
1239,1240,1241,1242,1243,1239,1240,1241,1242,1243,1239,1240,1241,1242,1243,1239,1240,1241,1242,1243,1239,1240,1241,0,0,0,0,0,0,0,0,0,0,0,0,0,0,0,0,0,0,0,0,0,0,0,0,0,0,0,0,0,0,0,0,0,0,0,0,0,
1244,1245,1246,1247,1248,1244,1245,1246,1247,1248,1244,1245,1246,1247,1248,1244,1245,1246,1247,1248,1244,1245,1246,0,0,0,0,0,0,0,0,0,0,0,0,0,0,0,0,0,0,0,0,0,0,0,0,0,0,0,0,0,0,0,0,0,0,0,0,0,
1229,1230,1231,1232,1233,1229,1230,1231,1232,1233,1229,1230,1231,1232,1233,1229,1230,1231,1232,1233,1229,1230,1231,0,0,0,0,0,0,0,0,0,0,0,0,0,0,0,0,0,0,0,0,0,0,0,0,0,0,0,0,0,0,0,0,0,0,0,0,0,
1234,1235,1236,1237,1238,1234,1235,1236,1237,1238,1234,1235,1236,1237,1238,1234,1235,1236,1237,1238,1234,1235,1236,0,0,0,0,0,0,0,0,0,0,0,0,0,0,0,0,0,0,0,0,0,0,0,0,0,0,0,0,0,0,0,0,0,0,0,0,0,
1239,1240,1241,1242,1243,1239,1240,1241,1242,1243,1239,1240,1241,1242,1243,1239,1240,1241,1242,1243,1239,1240,1241,0,0,0,0,0,0,0,0,0,0,0,0,0,0,0,0,0,0,0,0,0,0,0,0,0,0,0,0,0,0,0,0,0,0,0,0,0,
1244,1245,1246,1247,1248,1244,1245,1246,1247,1248,1244,1245,1246,1247,1248,1244,1245,1246,1247,1248,1244,1245,1246,0,0,0,0,0,0,0,0,0,0,0,0,0,0,0,0,0,0,0,0,0,0,0,0,0,0,0,0,0,0,0,0,0,0,0,0,0,
1229,1230,1231,1232,1233,1229,1230,1231,1232,1233,1229,1230,1231,1232,1233,1229,1230,1231,1232,1233,1229,1230,1231,0,0,0,0,0,0,0,0,0,0,0,0,0,0,0,0,0,0,0,0,0,0,0,0,0,0,0,0,0,0,0,0,0,0,0,0,0,
1234,1235,1236,1237,1238,1234,1235,1236,1226,1238,1234,1235,1236,1237,1238,1234,1235,1236,1237,1238,1234,1235,1236,0,0,0,0,0,0,0,0,0,0,0,0,0,0,0,0,0,0,0,0,0,0,0,0,0,0,0,0,0,0,0,0,0,0,0,0,0,
1239,1240,1241,1242,1243,1239,1240,1241,1226,1243,1239,1240,1241,1242,1243,1239,1240,1241,1242,1243,1239,1240,1241,0,0,0,0,0,0,0,0,0,0,0,0,0,0,0,0,0,0,0,0,0,0,0,0,0,0,0,0,0,0,0,0,0,0,0,0,0,
1244,1245,1246,1247,1248,1244,1245,1246,1226,1248,1244,1245,1246,1247,1248,1244,1245,1246,1247,1248,1244,1245,1246,0,0,0,0,0,0,0,0,0,0,0,0,0,0,0,0,0,0,0,0,0,0,0,0,0,0,0,0,0,0,0,0,0,0,0,0,0,
1229,1230,1231,1232,1233,1229,1230,1231,1226,1233,1229,1230,1231,1232,1233,1229,1230,1231,1232,1233,1229,1230,1231,0,0,0,0,0,0,0,0,0,0,0,0,0,0,0,0,0,0,0,0,0,0,0,0,0,0,0,0,0,0,0,0,0,0,0,0,0,
1234,1235,1236,1237,1238,1234,1235,1236,1226,1238,1234,1235,1236,1237,1238,1234,1235,1236,1237,1238,1234,1235,1236,0,0,0,0,0,0,0,0,0,0,0,0,0,0,0,0,0,0,0,0,0,0,0,0,0,0,0,0,0,0,0,0,0,0,0,0,0,
1239,1240,1241,1242,1243,1239,1240,1241,1226,1243,1239,1240,1241,1242,1243,1239,1240,1241,1242,1243,1239,1240,1241,0,0,0,0,0,0,0,0,0,0,0,0,0,0,0,0,0,0,0,0,0,0,0,0,0,0,0,0,0,0,0,0,0,0,0,0,0,
1244,1245,1246,1247,1248,1244,1245,1246,1226,1248,1244,1245,1246,1247,1248,1244,1245,1246,1247,1248,1244,1245,1246,0,0,0,0,0,0,0,0,0,0,0,0,0,0,0,0,0,0,0,0,0,0,0,0,0,0,0,0,0,0,0,0,0,0,0,0,0,
1229,1230,1231,1232,1233,1229,1230,1231,1226,1233,1229,1230,1231,1232,1233,1229,1230,1231,1232,1233,1229,1230,1231,0,0,0,0,0,0,0,0,0,0,0,0,0,0,0,0,0,0,0,0,0,0,0,0,0,0,0,0,0,0,0,0,0,0,0,0,0,
1234,1235,1236,1237,1238,1234,1235,1236,1226,1238,1234,1235,1236,1237,1238,1234,1235,1236,1237,1238,1234,1235,1236,0,0,0,0,0,0,0,0,0,0,0,0,0,0,0,0,0,0,0,0,0,0,0,0,0,0,0,0,0,0,0,0,0,0,0,0,0,
1239,1240,1241,1242,1243,1239,1240,1241,1226,1243,1239,1240,1241,1242,1243,1239,1240,1241,1242,1243,1239,1240,1241,0,0,0,0,0,0,0,0,0,0,0,0,0,0,0,0,0,0,0,0,0,0,0,0,0,0,0,0,0,0,0,0,0,0,0,0,0,
1244,1245,1246,1247,1248,1244,1245,1246,1226,1248,1226,1245,1246,1247,1248,1244,1245,1246,1247,1248,1244,1245,1246,0,0,0,0,0,0,0,0,0,0,0,0,0,0,0,0,0,0,0,0,0,0,0,0,0,0,0,0,0,0,0,0,0,0,0,0,0,
1229,1230,1231,1232,1233,1229,1230,1231,1232,1233,1226,1230,1231,1232,1233,1229,1245,1245,1232,1233,1229,1230,1231,0,0,0,0,0,0,0,0,0,0,0,0,0,0,0,0,0,0,0,0,0,0,0,0,0,0,0,0,0,0,0,0,0,0,0,0,0,
1234,1235,1236,1237,1238,1234,1235,1236,1237,1238,1226,1235,1236,1237,1238,1234,1235,1236,1237,1238,1234,1235,1236,0,0,0,0,0,0,0,0,0,0,0,0,0,0,0,0,0,0,0,0,0,0,0,0,0,0,0,0,0,0,0,0,0,0,0,0,0,
1239,1240,1241,1242,1243,1239,1240,1241,1242,1243,1226,1240,1241,1242,1243,1239,1240,1241,1242,1243,1239,1240,1241,0,0,0,0,0,0,0,0,0,0,0,0,0,0,0,0,0,0,0,0,0,0,0,0,0,0,0,0,0,0,0,0,0,0,0,0,0,
1244,1245,1246,1247,1248,1244,1245,1246,1247,1248,1226,1226,1226,1226,1226,1226,1226,1226,1226,1226,1226,1245,1246,0,0,0,0,0,0,0,0,0,0,0,0,0,0,0,0,0,0,0,0,0,0,0,0,0,0,0,0,0,0,0,0,0,0,0,0,0,
1229,1230,1231,1232,1233,1229,1230,1231,1232,1233,1229,1230,1231,1232,1233,1229,1230,1231,1232,1233,1229,1230,1231,0,0,0,0,0,0,0,0,0,0,0,0,0,0,0,0,0,0,0,0,0,0,0,0,0,0,0,0,0,0,0,0,0,0,0,0,0,
1234,1235,1236,1237,1238,1234,1235,1236,1237,1238,1234,1235,1236,1237,1238,1234,1235,1236,1237,1238,1226,1235,1236,0,0,0,0,0,0,0,0,0,0,0,0,0,0,0,0,0,0,0,0,0,0,0,0,0,0,0,0,0,0,0,0,0,0,0,0,0,
1239,1240,1241,1242,1243,1239,1240,1241,1242,1243,1226,1240,1241,1242,1243,1239,1240,1241,1242,1243,1239,1240,1241,0,0,0,0,0,0,0,0,0,0,0,0,0,0,0,0,0,0,0,0,0,0,0,0,0,0,0,0,0,0,0,0,0,0,0,0,0,
1244,1245,1246,1247,1248,1244,1245,1246,1247,1248,1244,1245,1246,1247,1248,1244,1245,1246,1247,1248,1226,1245,1246,0,0,0,0,0,0,0,0,0,0,0,0,0,0,0,0,0,0,0,0,0,0,0,0,0,0,0,0,0,0,0,0,0,0,0,0,0,
1229,1230,1231,1232,1233,1229,1230,1231,1232,1233,1226,1226,1226,1232,1226,1229,1226,1231,1226,1233,1229,1230,1231,0,0,0,0,0,0,0,0,0,0,0,0,0,0,0,0,0,0,0,0,0,0,0,0,0,0,0,0,0,0,0,0,0,0,0,0,0,
1234,1235,1236,1237,1238,1234,1235,1236,1237,1238,1234,1235,1236,1237,1238,1234,1235,1236,1237,1238,1226,1235,1236,0,0,0,0,0,0,0,0,0,0,0,0,0,0,0,0,0,0,0,0,0,0,0,0,0,0,0,0,0,0,0,0,0,0,0,0,0,
1239,1240,1241,1242,1243,1239,1240,1241,1242,1243,1239,1240,1241,1242,1243,1239,1240,1241,1242,1243,1239,1240,1241,0,0,0,0,0,0,0,0,0,0,0,0,0,0,0,0,0,0,0,0,0,0,0,0,0,0,0,0,0,0,0,0,0,0,0,0,0,
1244,1245,1246,1247,1248,1244,1245,1246,1247,1248,1244,1245,1246,1226,1248,1226,1245,1226,1247,1226,1226,1245,1246,0,0,0,0,0,0,0,0,0,0,0,0,0,0,0,0,0,0,0,0,0,0,0,0,0,0,0,0,0,0,0,0,0,0,0,0,0,
1229,1230,1231,1232,1233,1229,1230,1231,1232,1233,1229,1230,1232,1226,1233,1229,1230,1231,1232,1233,1229,1230,1231,0,0,0,0,0,0,0,0,0,0,0,0,0,0,0,0,0,0,0,0,0,0,0,0,0,0,0,0,0,0,0,0,0,0,0,0,0,
1226,1226,1226,1226,1226,1226,1226,1226,1226,1226,1226,1226,1237,1226,1238,1234,1235,1236,1237,1238,1234,1226,1226,0,0,0,0,0,0,0,0,0,0,0,0,0,0,0,0,0,0,0,0,0,0,0,0,0,0,0,0,0,0,0,0,0,0,0,0,0,
1239,1240,1241,1242,1243,1239,1240,1241,1242,1243,1239,1240,1242,1242,1243,1239,1240,1241,1242,1243,1239,1240,1241,0,0,0,0,0,0,0,0,0,0,0,0,0,0,0,0,0,0,0,0,0,0,0,0,0,0,0,0,0,0,0,0,0,0,0,0,0,
1244,1245,1246,1247,1248,1244,1226,1246,1247,1248,1244,1245,1247,1247,1226,1244,1226,1226,1226,1226,1226,1226,1246,0,0,0,0,0,0,0,0,0,0,0,0,0,0,0,0,0,0,0,0,0,0,0,0,0,0,0,0,0,0,0,0,0,0,0,0,0,
1229,1230,1231,1232,1233,1229,1230,1231,1232,1233,1229,1230,1231,1232,1226,1229,1230,1231,1232,1233,1229,1230,1231,0,0,0,0,0,0,0,0,0,0,0,0,0,0,0,0,0,0,0,0,0,0,0,0,0,0,0,0,0,0,0,0,0,0,0,0,0,
1234,1226,1226,1226,1226,1226,1226,1236,1237,1238,1234,1235,1236,1237,1226,1234,1235,1236,1237,1238,1234,1235,1236,0,0,0,0,0,0,0,0,0,0,0,0,0,0,0,0,0,0,0,0,0,0,0,0,0,0,0,0,0,0,0,0,0,0,0,0,0,
1239,1240,1241,1242,1243,1239,1240,1241,1242,1243,1239,1240,1241,1242,1226,1239,1240,1241,1242,1243,1239,1240,1241,0,0,0,0,0,0,0,0,0,0,0,0,0,0,0,0,0,0,0,0,0,0,0,0,0,0,0,0,0,0,0,0,0,0,0,0,0,
1244,1245,1246,1247,1248,1244,1245,1246,1247,1248,1244,1245,1246,1247,1226,1244,1245,1246,1247,1248,1244,1245,1246,0,0,0,0,0,0,0,0,0,0,0,0,0,0,0,0,0,0,0,0,0,0,0,0,0,0,0,0,0,0,0,0,0,0,0,0,0,
1229,1230,1231,1232,1233,1229,1230,1231,1232,1233,1229,1230,1231,1232,1226,1229,1230,1231,1232,1233,1229,1230,1231,0,0,0,0,0,0,0,0,0,0,0,0,0,0,0,0,0,0,0,0,0,0,0,0,0,0,0,0,0,0,0,0,0,0,0,0,0,
1234,1235,1236,1237,1238,1234,1235,1236,1237,1238,1234,1235,1236,1237,1226,1234,1235,1236,1237,1238,1234,1235,1236,0,0,0,0,0,0,0,0,0,0,0,0,0,0,0,0,0,0,0,0,0,0,0,0,0,0,0,0,0,0,0,0,0,0,0,0,0,
1239,1240,1241,1242,1243,1239,1240,1241,1242,1243,1239,1240,1241,1242,1226,1239,1240,1241,1242,1243,1239,1240,1241,0,0,0,0,0,0,0,0,0,0,0,0,0,0,0,0,0,0,0,0,0,0,0,0,0,0,0,0,0,0,0,0,0,0,0,0,0,
1244,1245,1246,1247,1248,1244,1245,1246,1226,1226,1255,1255,1255,1226,1226,1244,1245,1246,1247,1248,1244,1245,1246,0,0,0,0,0,0,0,0,0,0,0,0,0,0,0,0,0,0,0,0,0,0,0,0,0,0,0,0,0,0,0,0,0,0,0,0,0,
1229,1230,1231,1232,1233,1229,1230,1231,1226,1233,1229,1230,1231,1232,1233,1229,1230,1231,1232,1233,1229,1230,1231,0,0,0,0,0,0,0,0,0,0,0,0,0,0,0,0,0,0,0,0,0,0,0,0,0,0,0,0,0,0,0,0,0,0,0,0,0,
1234,1235,1236,1237,1238,1234,1235,1236,1226,1238,1234,1235,1236,1237,1238,1234,1235,1236,1237,1238,1234,1235,1236,0,0,0,0,0,0,0,0,0,0,0,0,0,0,0,0,0,0,0,0,0,0,0,0,0,0,0,0,0,0,0,0,0,0,0,0,0,
1239,1240,1241,1242,1243,1239,1240,1241,1226,1243,1239,1240,1241,1242,1243,1239,1240,1241,1242,1243,1239,1240,1241,0,0,0,0,0,0,0,0,0,0,0,0,0,0,0,0,0,0,0,0,0,0,0,0,0,0,0,0,0,0,0,0,0,0,0,0,0,
1244,1245,1246,1247,1248,1244,1245,1246,1226,1248,1244,1245,1246,1247,1248,1244,1245,1246,1247,1248,1244,1245,1246,0,0,0,0,0,0,0,0,0,0,0,0,0,0,0,0,0,0,0,0,0,0,0,0,0,0,0,0,0,0,0,0,0,0,0,0,0,
1229,1230,1231,1232,1233,1229,1230,1231,1226,1233,1229,1230,1231,1232,1233,1229,1230,1231,1232,1233,1229,1230,1231,0,0,0,0,0,0,0,0,0,0,0,0,0,0,0,0,0,0,0,0,0,0,0,0,0,0,0,0,0,0,0,0,0,0,0,0,0,
1234,1235,1236,1237,1238,1234,1235,1236,1226,1238,1234,1235,1236,1237,1238,1234,1235,1236,1237,1238,1234,1235,1236,0,0,0,0,0,0,0,0,0,0,0,0,0,0,0,0,0,0,0,0,0,0,0,0,0,0,0,0,0,0,0,0,0,0,0,0,0,
1239,1240,1241,1242,1243,1239,1240,1241,1226,1243,1239,1240,1241,1242,1243,1239,1240,1241,1242,1243,1239,1240,1241,0,0,0,0,0,0,0,0,0,0,0,0,0,0,0,0,0,0,0,0,0,0,0,0,0,0,0,0,0,0,0,0,0,0,0,0,0,
1244,1245,1246,1247,1248,1244,1245,1246,1226,1248,1244,1245,1246,1247,1248,1244,1245,1246,1247,1248,1244,1245,1246,0,0,0,0,0,0,0,0,0,0,0,0,0,0,0,0,0,0,0,0,0,0,0,0,0,0,0,0,0,0,0,0,0,0,0,0,0,
1229,1230,1231,1232,1233,1229,1230,1231,1226,1233,1229,1230,1231,1232,1233,1229,1230,1231,1232,1233,1229,1230,1231,0,0,0,0,0,0,0,0,0,0,0,0,0,0,0,0,0,0,0,0,0,0,0,0,0,0,0,0,0,0,0,0,0,0,0,0,0,
1234,1235,1236,1237,1238,1234,1235,1236,1226,1238,1234,1235,1236,1237,1238,1234,1235,1236,1237,1238,1234,1235,1236,0,0,0,0,0,0,0,0,0,0,0,0,0,0,0,0,0,0,0,0,0,0,0,0,0,0,0,0,0,0,0,0,0,0,0,0,0,
1239,1240,1241,1242,1243,1239,1240,1241,1226,1243,1239,1240,1241,1242,1243,1239,1240,1241,1242,1243,1239,1240,1241,0,0,0,0,0,0,0,0,0,0,0,0,0,0,0,0,0,0,0,0,0,0,0,0,0,0,0,0,0,0,0,0,0,0,0,0,0,
0,0,0,0,0,0,0,0,0,0,0,0,0,0,0,0,0,0,0,0,0,0,0,0,0,0,0,0,0,0,0,0,0,0,0,0,0,0,0,0,0,0,0,0,0,0,0,0,0,0,0,0,0,0,0,0,0,0,0,0,
0,0,0,0,0,0,0,0,0,0,0,0,0,0,0,0,0,0,0,0,0,0,0,0,0,0,0,0,0,0,0,0,0,0,0,0,0,0,0,0,0,0,0,0,0,0,0,0,0,0,0,0,0,0,0,0,0,0,0,0,
0,0,0,0,0,0,0,0,0,0,0,0,0,0,0,0,0,0,0,0,0,0,0,0,0,0,0,0,0,0,0,0,0,0,0,0,0,0,0,0,0,0,0,0,0,0,0,0,0,0,0,0,0,0,0,0,0,0,0,0,
0,0,0,0,0,0,0,0,0,0,0,0,0,0,0,0,0,0,0,0,0,0,0,0,0,0,0,0,0,0,0,0,0,0,0,0,0,0,0,0,0,0,0,0,0,0,0,0,0,0,0,0,0,0,0,0,0,0,0,0,
0,0,0,0,0,0,0,0,0,0,0,0,0,0,0,0,0,0,0,0,0,0,0,0,0,0,0,0,0,0,0,0,0,0,0,0,0,0,0,0,0,0,0,0,0,0,0,0,0,0,0,0,0,0,0,0,0,0,0,0
</data>
 </layer>
 <objectgroup color="#00ffff" id="13" name="climbing" class="objects">
  <object id="40" type="climbarea" x="320" y="400" width="40" height="400"/>
  <object id="42" type="climbarea" x="400" y="760" width="40" height="200"/>
  <object id="43" type="climbarea" x="520" y="1240" width="40" height="120"/>
  <object id="44" type="climbarea" x="440" y="920" width="400" height="40"/>
  <object id="46" type="climbarea" x="560" y="1400" width="40" height="360"/>
  <object id="47" type="climbarea" x="320" y="1720" width="40" height="440"/>
  <object id="51" type="climbarea" x="520" y="1720" width="40" height="40"/>
  <object id="65" type="climbarea" x="800" y="1000" width="40" height="40"/>
  <object id="66" type="climbarea" x="800" y="1080" width="40" height="40"/>
  <object id="67" type="climbarea" x="800" y="1160" width="40" height="40"/>
  <object id="68" type="climbarea" x="840" y="1320" width="120" height="40"/>
  <object id="69" type="climbarea" x="-40" y="1320" width="520" height="40"/>
  <object id="70" type="climbarea" x="240" y="1400" width="40" height="40"/>
  <object id="71" type="climbarea" x="40" y="1480" width="240" height="40"/>
  <object id="82" type="climbarea" x="640" y="1400" width="240" height="40"/>
  <object id="83" type="climbarea" x="400" y="1120" width="120" height="40"/>
  <object id="85" type="climbarea" x="640" y="1120" width="40" height="40"/>
  <object id="86" type="climbarea" x="720" y="1120" width="40" height="40"/>
  <object id="87" type="climbarea" x="600" y="1240" width="40" height="40"/>
  <object id="88" type="climbarea" x="680" y="1240" width="40" height="40"/>
  <object id="89" type="climbarea" x="760" y="1240" width="80" height="40"/>
  <object id="90" type="climbarea" x="400" y="1040" width="40" height="40"/>
  <object id="112" type="climbarea" x="360" y="1720" width="40" height="40"/>
  <object id="115" type="climbarea" x="560" y="1120" width="40" height="40"/>
 </objectgroup>
 <objectgroup id="17" name="objects_buckets">
  <object id="145" name="fallingclimbarea" gid="1264" x="400" y="1760" width="40" height="40"/>
  <object id="146" name="fallingclimbarea" gid="1264" x="440" y="1760" width="40" height="40"/>
  <object id="147" name="fallingclimbarea" gid="1264" x="480" y="1760" width="40" height="40"/>
 </objectgroup>
 <objectgroup id="16" name="paths"/>
 <objectgroup color="#ff00ff" id="12" name="objects_tower">
  <object id="38" name="rotatingtower" x="340" y="0">
   <properties>
    <property name="angle" type="float" value="114.95"/>
    <property name="anglefine" type="float" value="300"/>
    <property name="bglayer1" value="tile_bg"/>
    <property name="tilelayer1" value="tile_tower"/>
    <property name="usebg" type="bool" value="true"/>
    <property name="usetiles" type="bool" value="true"/>
    <property name="verttiles" type="int" value="54"/>
    <property name="width" type="int" value="280"/>
   </properties>
   <point/>
  </object>
  <object id="57" name="climbwaterbucket" x="640" y="880" width="40" height="40">
   <properties>
    <property name="activetime" type="float" value="60"/>
    <property name="generate" type="bool" value="true"/>
    <property name="spawnrate" type="float" value="25"/>
    <property name="timelimit" type="float" value="5"/>
    <property name="timer" type="float" value="75"/>
    <property name="waittime" type="float" value="30"/>
    <property name="waterfallingtimer" type="int" value="16"/>
    <property name="watermoverate" type="float" value="6"/>
    <property name="watertilelimit" type="int" value="32"/>
   </properties>
  </object>
  <object id="58" name="climbwaterbucket" x="640" y="1040" width="40" height="40">
   <properties>
    <property name="generate" type="bool" value="false"/>
   </properties>
  </object>
  <object id="59" name="climbwaterbucket" x="560" y="880" width="40" height="40">
   <properties>
    <property name="activetime" type="float" value="60"/>
    <property name="generate" type="bool" value="true"/>
    <property name="spawnrate" type="float" value="25"/>
    <property name="timelimit" type="float" value="5"/>
    <property name="timer" type="float" value="65"/>
    <property name="waittime" type="float" value="30"/>
    <property name="waterfallingtimer" type="int" value="16"/>
    <property name="watermoverate" type="float" value="6"/>
    <property name="watertilelimit" type="int" value="32"/>
   </properties>
  </object>
  <object id="60" name="climbwaterbucket" x="560" y="1040" width="40" height="40">
   <properties>
    <property name="generate" type="bool" value="false"/>
   </properties>
  </object>
  <object id="62" name="climbwaterbucket" x="720" y="880" width="40" height="40">
   <properties>
    <property name="activetime" type="float" value="60"/>
    <property name="generate" type="bool" value="true"/>
    <property name="spawnrate" type="float" value="25"/>
    <property name="timelimit" type="float" value="5"/>
    <property name="timer" type="float" value="85"/>
    <property name="waittime" type="float" value="30"/>
    <property name="waterfallingtimer" type="int" value="16"/>
    <property name="watermoverate" type="float" value="6"/>
    <property name="watertilelimit" type="int" value="32"/>
   </properties>
  </object>
  <object id="63" name="climbwaterbucket" x="720" y="1040" width="40" height="40">
   <properties>
    <property name="generate" type="bool" value="false"/>
   </properties>
  </object>
  <object id="72" name="climbwaterbucket" x="40" y="1160" width="40" height="40">
   <properties>
    <property name="activetime" type="float" value="60"/>
    <property name="generate" type="bool" value="true"/>
    <property name="spawnrate" type="float" value="25"/>
    <property name="timelimit" type="float" value="5"/>
    <property name="timer" type="float" value="75"/>
    <property name="waittime" type="float" value="30"/>
    <property name="waterfallingtimer" type="int" value="16"/>
    <property name="watermoverate" type="float" value="6"/>
    <property name="watertilelimit" type="int" value="32"/>
   </properties>
  </object>
  <object id="73" name="climbwaterbucket" x="80" y="1160" width="40" height="40">
   <properties>
    <property name="activetime" type="float" value="60"/>
    <property name="generate" type="bool" value="true"/>
    <property name="spawnrate" type="float" value="25"/>
    <property name="timelimit" type="float" value="5"/>
    <property name="timer" type="float" value="20"/>
    <property name="waittime" type="float" value="30"/>
    <property name="waterfallingtimer" type="int" value="16"/>
    <property name="watermoverate" type="float" value="6"/>
    <property name="watertilelimit" type="int" value="32"/>
   </properties>
  </object>
  <object id="74" name="climbwaterbucket" x="120" y="1160" width="40" height="40">
   <properties>
    <property name="activetime" type="float" value="60"/>
    <property name="generate" type="bool" value="true"/>
    <property name="spawnrate" type="float" value="25"/>
    <property name="timelimit" type="float" value="5"/>
    <property name="timer" type="float" value="65"/>
    <property name="waittime" type="float" value="30"/>
    <property name="waterfallingtimer" type="int" value="16"/>
    <property name="watermoverate" type="float" value="6"/>
    <property name="watertilelimit" type="int" value="32"/>
   </properties>
  </object>
  <object id="75" name="climbwaterbucket" x="160" y="1160" width="40" height="40">
   <properties>
    <property name="activetime" type="float" value="60"/>
    <property name="generate" type="bool" value="true"/>
    <property name="spawnrate" type="float" value="25"/>
    <property name="timelimit" type="float" value="5"/>
    <property name="timer" type="float" value="10"/>
    <property name="waittime" type="float" value="30"/>
    <property name="waterfallingtimer" type="int" value="16"/>
    <property name="watermoverate" type="float" value="6"/>
    <property name="watertilelimit" type="int" value="32"/>
   </properties>
  </object>
  <object id="76" name="climbwaterbucket" x="200" y="1160" width="40" height="40">
   <properties>
    <property name="activetime" type="float" value="60"/>
    <property name="generate" type="bool" value="true"/>
    <property name="spawnrate" type="float" value="25"/>
    <property name="timelimit" type="float" value="5"/>
    <property name="timer" type="float" value="55"/>
    <property name="waittime" type="float" value="30"/>
    <property name="waterfallingtimer" type="int" value="16"/>
    <property name="watermoverate" type="float" value="6"/>
    <property name="watertilelimit" type="int" value="32"/>
   </properties>
  </object>
  <object id="77" name="climbwaterbucket" x="40" y="1400" width="40" height="40">
   <properties>
    <property name="generate" type="bool" value="false"/>
   </properties>
  </object>
  <object id="78" name="climbwaterbucket" x="120" y="1400" width="40" height="40">
   <properties>
    <property name="generate" type="bool" value="false"/>
   </properties>
  </object>
  <object id="79" name="climbwaterbucket" x="160" y="1440" width="40" height="40">
   <properties>
    <property name="generate" type="bool" value="false"/>
   </properties>
  </object>
  <object id="80" name="climbwaterbucket" x="200" y="1400" width="40" height="40">
   <properties>
    <property name="generate" type="bool" value="false"/>
   </properties>
  </object>
  <object id="81" name="climbwaterbucket" x="80" y="1440" width="40" height="40">
   <properties>
    <property name="generate" type="bool" value="false"/>
   </properties>
  </object>
  <object id="113" name="climbwaterbucket" x="480" y="880" width="40" height="40">
   <properties>
    <property name="activetime" type="float" value="60"/>
    <property name="generate" type="bool" value="true"/>
    <property name="spawnrate" type="float" value="25"/>
    <property name="timelimit" type="float" value="5"/>
    <property name="timer" type="float" value="55"/>
    <property name="waittime" type="float" value="30"/>
    <property name="waterfallingtimer" type="int" value="16"/>
    <property name="watermoverate" type="float" value="6"/>
    <property name="watertilelimit" type="int" value="32"/>
   </properties>
  </object>
  <object id="114" name="climbwaterbucket" x="480" y="1040" width="40" height="40">
   <properties>
    <property name="generate" type="bool" value="false"/>
   </properties>
  </object>
  <object id="140" name="climbentry" x="320" y="360" width="40" height="40">
   <properties>
    <property name="target" type="object" value="141"/>
    <property name="towercenter" type="bool" value="true"/>
   </properties>
  </object>
  <object id="141" name="climbexit" x="320" y="400" width="40" height="40">
   <properties>
    <property name="target" type="object" value="139"/>
   </properties>
  </object>
  <object id="142" name="climbentry" x="320" y="2160" width="40" height="40">
   <properties>
    <property name="target" type="object" value="143"/>
    <property name="towercenter" type="bool" value="true"/>
   </properties>
  </object>
  <object id="143" name="climbexit" x="320" y="2120" width="40" height="40">
   <properties>
    <property name="target" type="object" value="144"/>
   </properties>
  </object>
 </objectgroup>
 <objectgroup id="9" name="objects_osc">
  <object id="32" name="texturescroller" x="80" y="0">
   <properties>
    <property name="type" value="hsv"/>
   </properties>
   <point/>
  </object>
  <object id="33" name="tile_oscillate" x="40" y="280" width="1120" height="80"/>
  <object id="34" name="tile_oscillate" x="0" y="2200" width="1160" height="80"/>
 </objectgroup>
 <layer id="1" name="Tile Layer 1" width="60" height="60">
  <data encoding="csv">
0,0,0,0,0,0,0,0,0,0,0,0,0,0,0,0,0,459,529,529,529,459,529,529,459,529,529,529,459,0,0,0,0,0,0,0,0,0,0,0,0,0,0,0,0,0,0,0,0,0,0,0,0,0,0,0,0,0,0,0,
0,0,0,0,0,0,0,0,0,0,0,0,0,0,0,0,0,459,492,493,494,459,529,529,459,492,493,494,459,0,0,0,0,0,0,0,0,0,0,0,0,0,0,0,0,0,0,0,0,0,0,0,0,0,0,0,0,0,0,0,
0,0,0,0,0,0,0,0,0,0,0,0,0,0,0,0,0,459,498,499,500,459,529,529,459,498,499,500,459,0,0,0,0,0,0,0,0,0,0,0,0,0,0,0,0,0,0,0,0,0,0,0,0,0,0,0,0,0,0,0,
0,0,0,0,0,0,0,0,0,0,0,0,0,0,0,0,0,483,504,505,506,483,529,529,483,504,505,506,483,0,0,0,0,0,0,0,0,0,0,0,0,0,0,0,0,0,0,0,0,0,0,0,0,0,0,0,0,0,0,0,
0,0,0,0,0,0,0,0,0,0,0,0,0,0,0,0,0,465,510,511,512,465,529,529,465,510,511,512,465,0,0,0,0,0,0,0,0,0,0,0,0,0,0,0,0,0,0,0,0,0,0,0,0,0,0,0,0,0,0,0,
0,0,0,0,0,0,0,0,0,0,0,0,0,0,0,0,0,471,516,517,518,471,529,529,471,516,517,518,471,0,0,0,0,0,0,0,0,0,0,0,0,0,0,0,0,0,0,0,0,0,0,0,0,0,0,0,0,0,0,0,
0,0,0,0,0,0,0,0,0,0,0,0,0,0,0,0,0,477,522,523,524,477,529,529,477,522,523,524,477,0,0,0,0,0,0,0,0,0,0,0,0,0,0,0,0,0,0,0,0,0,0,0,0,0,0,0,0,0,0,0,
0,991,992,981,981,981,981,981,981,976,977,981,978,979,1140,1141,979,980,981,984,981,981,993,994,981,981,981,973,974,0,0,0,0,0,0,0,0,0,0,0,0,0,0,0,0,0,0,0,0,0,0,0,0,0,0,0,0,0,0,0,
0,1000,1001,1002,981,981,981,981,981,985,986,981,1148,988,1149,1150,988,989,981,981,981,981,1002,1002,975,981,981,982,983,0,0,0,0,0,0,0,0,0,0,0,0,0,0,0,0,0,0,0,0,0,0,0,0,0,0,0,0,0,0,0,
0,999,999,999,999,999,999,999,999,999,999,999,999,999,999,999,999,999,999,999,999,999,999,999,999,999,999,999,999,0,0,0,0,0,0,0,0,0,0,0,0,0,0,0,0,0,0,0,0,0,0,0,0,0,0,0,0,0,0,0,
0,0,0,0,0,0,0,0,0,0,0,0,0,0,0,0,0,0,0,0,0,0,0,0,0,0,0,0,0,0,0,0,0,0,0,0,0,0,0,0,0,0,0,0,0,0,0,0,0,0,0,0,0,0,0,0,0,0,0,0,
0,0,0,0,0,0,0,0,0,0,0,0,0,0,0,0,0,0,0,0,0,0,0,0,0,0,0,0,0,0,0,0,0,0,0,0,0,0,0,0,0,0,0,0,0,0,0,0,0,0,0,0,0,0,0,0,0,0,0,0,
0,0,0,0,0,0,0,0,0,0,0,0,0,0,0,0,0,0,0,0,0,0,0,0,0,0,0,0,0,0,0,0,0,0,0,0,0,0,0,0,0,0,0,0,0,0,0,0,0,0,0,0,0,0,0,0,0,0,0,0,
0,0,0,0,0,0,0,0,0,0,0,0,0,0,0,0,0,0,0,0,0,0,0,0,0,0,0,0,0,0,0,0,0,0,0,0,0,0,0,0,0,0,0,0,0,0,0,0,0,0,0,0,0,0,0,0,0,0,0,0,
0,0,0,0,0,0,0,0,0,0,0,0,0,0,0,0,0,0,0,0,0,0,0,0,0,0,0,0,0,0,0,0,0,0,0,0,0,0,0,0,0,0,0,0,0,0,0,0,0,0,0,0,0,0,0,0,0,0,0,0,
0,0,0,0,0,0,0,0,0,0,0,0,0,0,0,0,0,0,0,0,0,0,0,0,0,0,0,0,0,0,0,0,0,0,0,0,0,0,0,0,0,0,0,0,0,0,0,0,0,0,0,0,0,0,0,0,0,0,0,0,
0,0,0,0,0,0,0,0,0,0,0,0,0,0,0,0,0,0,0,0,0,0,0,0,0,0,0,0,0,0,0,0,0,0,0,0,0,0,0,0,0,0,0,0,0,0,0,0,0,0,0,0,0,0,0,0,0,0,0,0,
0,0,0,0,0,0,0,0,0,0,0,0,0,0,0,0,0,0,0,0,0,0,0,0,0,0,0,0,0,0,0,0,0,0,0,0,0,0,0,0,0,0,0,0,0,0,0,0,0,0,0,0,0,0,0,0,0,0,0,0,
0,0,0,0,0,0,0,0,0,0,0,0,0,0,0,0,0,0,0,0,0,0,0,0,0,0,0,0,0,0,0,0,0,0,0,0,0,0,0,0,0,0,0,0,0,0,0,0,0,0,0,0,0,0,0,0,0,0,0,0,
0,0,0,0,0,0,0,0,0,0,0,0,0,0,0,0,0,0,0,0,0,0,0,0,0,0,0,0,0,0,0,0,0,0,0,0,0,0,0,0,0,0,0,0,0,0,0,0,0,0,0,0,0,0,0,0,0,0,0,0,
0,0,0,0,0,0,0,0,0,0,0,0,0,0,0,0,0,0,0,0,0,0,0,0,0,0,0,0,0,0,0,0,0,0,0,0,0,0,0,0,0,0,0,0,0,0,0,0,0,0,0,0,0,0,0,0,0,0,0,0,
0,0,0,0,0,0,0,0,0,0,0,0,0,0,0,0,0,0,0,0,0,0,0,0,0,0,0,0,0,0,0,0,0,0,0,0,0,0,0,0,0,0,0,0,0,0,0,0,0,0,0,0,0,0,0,0,0,0,0,0,
0,0,0,0,0,0,0,0,0,0,0,0,0,0,0,0,0,0,0,0,0,0,0,0,0,0,0,0,0,0,0,0,0,0,0,0,0,0,0,0,0,0,0,0,0,0,0,0,0,0,0,0,0,0,0,0,0,0,0,0,
0,0,0,0,0,0,0,0,0,0,0,0,0,0,0,0,0,0,0,0,0,0,0,0,0,0,0,0,0,0,0,0,0,0,0,0,0,0,0,0,0,0,0,0,0,0,0,0,0,0,0,0,0,0,0,0,0,0,0,0,
0,0,0,0,0,0,0,0,0,0,0,0,0,0,0,0,0,0,0,0,0,0,0,0,0,0,0,0,0,0,0,0,0,0,0,0,0,0,0,0,0,0,0,0,0,0,0,0,0,0,0,0,0,0,0,0,0,0,0,0,
0,0,0,0,0,0,0,0,0,0,0,0,0,0,0,0,0,0,0,0,0,0,0,0,0,0,0,0,0,0,0,0,0,0,0,0,0,0,0,0,0,0,0,0,0,0,0,0,0,0,0,0,0,0,0,0,0,0,0,0,
0,0,0,0,0,0,0,0,0,0,0,0,0,0,0,0,0,0,0,0,0,0,0,0,0,0,0,0,0,0,0,0,0,0,0,0,0,0,0,0,0,0,0,0,0,0,0,0,0,0,0,0,0,0,0,0,0,0,0,0,
0,0,0,0,0,0,0,0,0,0,0,0,0,0,0,0,0,0,0,0,0,0,0,0,0,0,0,0,0,0,0,0,0,0,0,0,0,0,0,0,0,0,0,0,0,0,0,0,0,0,0,0,0,0,0,0,0,0,0,0,
0,0,0,0,0,0,0,0,0,0,0,0,0,0,0,0,0,0,0,0,0,0,0,0,0,0,0,0,0,0,0,0,0,0,0,0,0,0,0,0,0,0,0,0,0,0,0,0,0,0,0,0,0,0,0,0,0,0,0,0,
0,0,0,0,0,0,0,0,0,0,0,0,0,0,0,0,0,0,0,0,0,0,0,0,0,0,0,0,0,0,0,0,0,0,0,0,0,0,0,0,0,0,0,0,0,0,0,0,0,0,0,0,0,0,0,0,0,0,0,0,
0,0,0,0,0,0,0,0,0,0,0,0,0,0,0,0,0,0,0,0,0,0,0,0,0,0,0,0,0,0,0,0,0,0,0,0,0,0,0,0,0,0,0,0,0,0,0,0,0,0,0,0,0,0,0,0,0,0,0,0,
0,0,0,0,0,0,0,0,0,0,0,0,0,0,0,0,0,0,0,0,0,0,0,0,0,0,0,0,0,0,0,0,0,0,0,0,0,0,0,0,0,0,0,0,0,0,0,0,0,0,0,0,0,0,0,0,0,0,0,0,
0,0,0,0,0,0,0,0,0,0,0,0,0,0,0,0,0,0,0,0,0,0,0,0,0,0,0,0,0,0,0,0,0,0,0,0,0,0,0,0,0,0,0,0,0,0,0,0,0,0,0,0,0,0,0,0,0,0,0,0,
0,0,0,0,0,0,0,0,0,0,0,0,0,0,0,0,0,0,0,0,0,0,0,0,0,0,0,0,0,0,0,0,0,0,0,0,0,0,0,0,0,0,0,0,0,0,0,0,0,0,0,0,0,0,0,0,0,0,0,0,
0,0,0,0,0,0,0,0,0,0,0,0,0,0,0,0,0,0,0,0,0,0,0,0,0,0,0,0,0,0,0,0,0,0,0,0,0,0,0,0,0,0,0,0,0,0,0,0,0,0,0,0,0,0,0,0,0,0,0,0,
0,0,0,0,0,0,0,0,0,0,0,0,0,0,0,0,0,0,0,0,0,0,0,0,0,0,0,0,0,0,0,0,0,0,0,0,0,0,0,0,0,0,0,0,0,0,0,0,0,0,0,0,0,0,0,0,0,0,0,0,
0,0,0,0,0,0,0,0,0,0,0,0,0,0,0,0,0,0,0,0,0,0,0,0,0,0,0,0,0,0,0,0,0,0,0,0,0,0,0,0,0,0,0,0,0,0,0,0,0,0,0,0,0,0,0,0,0,0,0,0,
0,0,0,0,0,0,0,0,0,0,0,0,0,0,0,0,0,0,0,0,0,0,0,0,0,0,0,0,0,0,0,0,0,0,0,0,0,0,0,0,0,0,0,0,0,0,0,0,0,0,0,0,0,0,0,0,0,0,0,0,
0,0,0,0,0,0,0,0,0,0,0,0,0,0,0,0,0,0,0,0,0,0,0,0,0,0,0,0,0,0,0,0,0,0,0,0,0,0,0,0,0,0,0,0,0,0,0,0,0,0,0,0,0,0,0,0,0,0,0,0,
0,0,0,0,0,0,0,0,0,0,0,0,0,0,0,0,0,0,0,0,0,0,0,0,0,0,0,0,0,0,0,0,0,0,0,0,0,0,0,0,0,0,0,0,0,0,0,0,0,0,0,0,0,0,0,0,0,0,0,0,
0,0,0,0,0,0,0,0,0,0,0,0,0,0,0,0,0,0,0,0,0,0,0,0,0,0,0,0,0,0,0,0,0,0,0,0,0,0,0,0,0,0,0,0,0,0,0,0,0,0,0,0,0,0,0,0,0,0,0,0,
0,0,0,0,0,0,0,0,0,0,0,0,0,0,0,0,0,0,0,0,0,0,0,0,0,0,0,0,0,0,0,0,0,0,0,0,0,0,0,0,0,0,0,0,0,0,0,0,0,0,0,0,0,0,0,0,0,0,0,0,
0,0,0,0,0,0,0,0,0,0,0,0,0,0,0,0,0,0,0,0,0,0,0,0,0,0,0,0,0,0,0,0,0,0,0,0,0,0,0,0,0,0,0,0,0,0,0,0,0,0,0,0,0,0,0,0,0,0,0,0,
0,0,0,0,0,0,0,0,0,0,0,0,0,0,0,0,0,0,0,0,0,0,0,0,0,0,0,0,0,0,0,0,0,0,0,0,0,0,0,0,0,0,0,0,0,0,0,0,0,0,0,0,0,0,0,0,0,0,0,0,
0,0,0,0,0,0,0,0,0,0,0,0,0,0,0,0,0,0,0,0,0,0,0,0,0,0,0,0,0,0,0,0,0,0,0,0,0,0,0,0,0,0,0,0,0,0,0,0,0,0,0,0,0,0,0,0,0,0,0,0,
0,0,0,0,0,0,0,0,0,0,0,0,0,0,0,0,0,0,0,0,0,0,0,0,0,0,0,0,0,0,0,0,0,0,0,0,0,0,0,0,0,0,0,0,0,0,0,0,0,0,0,0,0,0,0,0,0,0,0,0,
0,0,0,0,0,0,0,0,0,0,0,0,0,0,0,0,0,0,0,0,0,0,0,0,0,0,0,0,0,0,0,0,0,0,0,0,0,0,0,0,0,0,0,0,0,0,0,0,0,0,0,0,0,0,0,0,0,0,0,0,
0,0,0,0,0,0,0,0,0,0,0,0,0,0,0,0,0,0,0,0,0,0,0,0,0,0,0,0,0,0,0,0,0,0,0,0,0,0,0,0,0,0,0,0,0,0,0,0,0,0,0,0,0,0,0,0,0,0,0,0,
0,0,0,0,0,0,0,0,0,0,0,0,0,0,0,0,0,0,0,0,0,0,0,0,0,0,0,0,0,0,0,0,0,0,0,0,0,0,0,0,0,0,0,0,0,0,0,0,0,0,0,0,0,0,0,0,0,0,0,0,
0,0,0,0,0,0,0,0,0,0,0,0,0,0,0,0,0,0,0,0,0,0,0,0,0,0,0,0,0,0,0,0,0,0,0,0,0,0,0,0,0,0,0,0,0,0,0,0,0,0,0,0,0,0,0,0,0,0,0,0,
0,0,0,0,0,0,0,0,0,0,0,0,0,0,0,0,0,0,0,0,0,0,0,0,0,0,0,0,0,0,0,0,0,0,0,0,0,0,0,0,0,0,0,0,0,0,0,0,0,0,0,0,0,0,0,0,0,0,0,0,
0,0,0,0,0,0,0,0,0,0,0,0,0,0,0,0,0,0,0,0,0,0,0,0,0,0,0,0,0,0,0,0,0,0,0,0,0,0,0,0,0,0,0,0,0,0,0,0,0,0,0,0,0,0,0,0,0,0,0,0,
0,0,0,0,0,0,0,0,0,0,0,0,0,0,0,0,0,0,0,0,0,0,0,0,0,0,0,0,0,0,0,0,0,0,0,0,0,0,0,0,0,0,0,0,0,0,0,0,0,0,0,0,0,0,0,0,0,0,0,0,
0,0,0,0,0,0,0,0,0,0,0,0,0,0,0,0,0,0,0,0,0,0,0,0,0,0,0,0,0,0,0,0,0,0,0,0,0,0,0,0,0,0,0,0,0,0,0,0,0,0,0,0,0,0,0,0,0,0,0,0,
0,0,0,0,0,0,0,0,0,0,0,0,0,0,0,0,0,0,0,0,0,0,0,0,0,0,0,0,0,0,0,0,0,0,0,0,0,0,0,0,0,0,0,0,0,0,0,0,0,0,0,0,0,0,0,0,0,0,0,0,
1011,1012,981,1014,1015,1113,1133,973,974,981,1002,991,992,981,981,981,1002,981,1140,1159,988,1151,975,976,977,1103,1104,1123,995,0,0,0,0,0,0,0,0,0,0,0,0,0,0,0,0,0,0,0,0,0,0,0,0,0,0,0,0,0,0,0,
1029,1030,981,1023,1024,1133,981,982,983,981,981,1000,1001,993,994,984,981,1148,1149,1150,988,1158,1142,985,986,1112,1113,1114,1004,0,0,0,0,0,0,0,0,0,0,0,0,0,0,0,0,0,0,0,0,0,0,0,0,0,0,0,0,0,0,0,
1038,1039,999,999,999,999,999,999,999,999,999,999,999,999,999,999,999,999,999,999,999,999,999,999,999,999,999,999,999,0,0,0,0,0,0,0,0,0,0,0,0,0,0,0,0,0,0,0,0,0,0,0,0,0,0,0,0,0,0,0,
1047,1048,0,0,0,0,0,0,0,0,0,0,0,0,0,0,0,0,0,0,0,0,0,0,0,0,0,0,0,0,0,0,0,0,0,0,0,0,0,0,0,0,0,0,0,0,0,0,0,0,0,0,0,0,0,0,0,0,0,0,
0,0,0,0,0,0,0,0,0,0,0,0,0,0,0,0,0,0,0,0,0,0,0,0,0,0,0,0,0,0,0,0,0,0,0,0,0,0,0,0,0,0,0,0,0,0,0,0,0,0,0,0,0,0,0,0,0,0,0,0
</data>
 </layer>
 <objectgroup id="4" name="collision">
  <object id="4" x="960" y="240" width="200" height="40"/>
  <object id="8" x="1160" y="280" width="40" height="80"/>
  <object id="9" x="0" y="2160" width="1160" height="40"/>
  <object id="24" x="40" y="360" width="1120" height="40"/>
  <object id="10" x="40" y="240" width="840" height="40"/>
  <object id="12" x="0" y="280" width="40" height="80"/>
  <object id="19" x="1160" y="2200" width="40" height="80"/>
  <object id="20" x="0" y="2280" width="1160" height="40"/>
  <object id="126" x="143.667" y="2186.45" width="34.3333" height="40"/>
  <object id="127" x="180" y="2199.79" width="30" height="23.3333"/>
  <object id="128" x="396" y="2249.25" width="26.25" height="26"/>
  <object id="129" x="427.75" y="2242.25" width="41" height="20.5"/>
  <object id="130" x="572" y="2179.27" width="38.1818" height="41.8182"/>
  <object id="131" x="882.909" y="2235.45" width="34.7273" height="41.0909"/>
  <object id="132" x="924.364" y="2250.36" width="24" height="22.1818"/>
  <object id="133" x="1003" y="2207.75" width="24.25" height="22.25"/>
  <object id="134" x="1034.5" y="2198.25" width="38.75" height="20"/>
 </objectgroup>
 <objectgroup color="#aa00ff" id="6" name="objects_door">
  <object id="3" gid="84" x="880" y="280" width="80.4444" height="125.333"/>
 </objectgroup>
 <objectgroup color="#aa00ff" id="5" name="markers">
  <object id="22" name="entry" x="920" y="300">
   <point/>
  </object>
  <object id="23" name="spawn" x="920" y="320">
   <point/>
  </object>
  <object id="35" name="entry2" x="40" y="2240">
   <point/>
  </object>
  <object id="139" x="340" y="330">
   <point/>
  </object>
  <object id="144" x="340" y="2240">
   <point/>
  </object>
 </objectgroup>
 <objectgroup id="3" name="objects_party">
  <object id="18" name="transition" x="880" y="-40" width="80" height="300">
   <properties>
    <property name="map" value="1_2nd_sanctuary/second_sanctum_4_crossroad"/>
    <property name="marker" value="entry3"/>
   </properties>
  </object>
  <object id="36" name="transition" x="-40" y="2200" width="40" height="80">
   <properties>
    <property name="map" value="1_2nd_sanctuary/second_sanctum_6"/>
    <property name="marker" value="entry"/>
   </properties>
  </object>
  <object id="98" name="chest" x="1100" y="2220" width="40" height="40">
   <properties>
    <property name="money" type="int" value="350"/>
   </properties>
  </object>
  <object id="108" name="window_glow" x="780" y="220">
   <point/>
  </object>
  <object id="109" name="window_glow" x="1060" y="220">
   <point/>
  </object>
  <object id="119" gid="35" x="881.75" y="2282.58" width="68" height="50"/>
  <object id="124" gid="35" x="143.084" y="2232.04" width="68" height="50"/>
  <object id="120" gid="34" x="1000.67" y="2234.08" width="76" height="38"/>
  <object id="125" gid="34" x="394.917" y="2278.08" width="76" height="38"/>
  <object id="121" gid="39" x="573.083" y="2226.08" width="36" height="50"/>
 </objectgroup>
 <objectgroup id="15" name="objects_fog">
  <object id="1" name="churchfog" x="0" y="0">
   <point/>
  </object>
 </objectgroup>
 <objectgroup id="2" name="objects_top">
  <object id="2" name="filter" x="40" y="0">
   <properties>
    <property name="type" value="hsv"/>
   </properties>
   <point/>
  </object>
 </objectgroup>
</map>
