<?xml version="1.0" encoding="UTF-8"?>
<map version="1.11" tiledversion="1.12.1" orientation="orthogonal" renderorder="right-down" width="26" height="16" tilewidth="40" tileheight="40" infinite="0" nextlayerid="23" nextobjectid="71">
 <editorsettings>
  <export target="data.lua" format="lua"/>
 </editorsettings>
 <properties>
  <property name="border" value="church_b"/>
  <property name="music" value="second_church"/>
 </properties>
 <tileset firstgid="1" source="../../../tilesets/bg_dw_church_2_tileset.tsx"/>
 <tileset firstgid="199" source="../../../tilesets/bg_dw_church_tileset_new.tsx"/>
 <tileset firstgid="781" source="../../../tilesets/bg_dw_church_library_2_tileset.tsx"/>
 <tileset firstgid="1041" source="../../../tilesets/church_objects.tsx"/>
 <tileset firstgid="1150" source="../../../tilesets/bg_dw_church_c_tileset.tsx"/>
 <tileset firstgid="1429" source="../../../tilesets/light_areas.tsx"/>
 <objectgroup id="16" name="objects_parallax3" parallaxx="0.5" parallaxy="0.82">
  <object id="66" gid="1053" x="606" y="460" width="416" height="130">
   <properties>
    <property name="color" type="color" value="#ff00007f"/>
   </properties>
  </object>
  <object id="68" gid="1053" x="192" y="460" width="416" height="130">
   <properties>
    <property name="color" type="color" value="#ff00007f"/>
   </properties>
  </object>
  <object id="69" gid="1053" x="-220" y="460" width="416" height="130">
   <properties>
    <property name="color" type="color" value="#ff00007f"/>
   </properties>
  </object>
 </objectgroup>
 <objectgroup id="12" name="objects_parallax2" visible="0" parallaxx="0.4" parallaxy="0.85">
  <object id="64" gid="1053" x="70" y="-40" width="640" height="200" rotation="90">
   <properties>
    <property name="color" type="color" value="#ff2525ba"/>
   </properties>
  </object>
 </objectgroup>
 <objectgroup id="11" name="objects_parallax" parallaxx="0.5" parallaxy="0.9">
  <object id="63" gid="1045" x="-600" y="820" width="639" height="1600" rotation="45"/>
 </objectgroup>
 <objectgroup id="21" name="objects_fade" visible="0">
  <object id="61" gid="1049" x="1040" y="640" width="240" height="1040.33" rotation="270"/>
  <object id="62" gid="2147484697" x="840" y="160" width="160" height="320.33" rotation="270"/>
 </objectgroup>
 <layer id="19" name="tiles_osc_optimize" width="26" height="16">
  <data encoding="csv">
0,0,194,194,194,194,194,0,0,0,0,0,0,0,0,0,0,0,0,0,0,0,0,0,0,0,
0,0,194,194,194,194,194,0,0,0,0,0,0,0,0,0,0,0,0,0,0,0,0,0,0,0,
0,0,194,194,194,194,194,0,0,0,0,0,0,0,0,0,0,0,0,0,0,0,0,0,0,0,
0,0,194,194,194,194,194,0,0,0,0,0,0,0,0,0,0,0,0,0,0,0,0,0,0,0,
0,0,194,194,194,194,194,0,0,0,0,0,0,0,0,0,0,0,0,0,0,0,0,0,0,0,
0,0,194,194,194,194,194,0,0,0,0,0,0,0,0,0,0,0,0,0,0,0,0,0,0,0,
0,0,0,0,0,0,0,0,0,0,0,0,0,0,0,0,0,0,0,0,0,0,0,0,0,0,
0,0,0,0,0,0,0,0,0,0,0,0,0,0,0,0,0,0,0,0,0,0,0,0,0,0,
0,0,0,0,0,0,0,0,0,0,0,0,0,0,0,0,0,0,0,0,0,194,194,0,0,0,
0,0,0,0,0,0,0,0,0,0,0,0,0,0,0,0,0,0,0,0,0,194,194,0,0,0,
0,0,0,0,0,0,0,0,0,0,0,0,0,0,0,0,0,0,0,0,0,194,0,0,0,0,
0,0,0,0,0,0,0,0,0,0,0,0,0,0,0,0,0,0,0,0,194,194,0,0,0,0,
0,0,0,0,0,0,0,0,0,0,0,0,0,0,0,0,0,0,0,0,0,0,0,0,0,0,
0,0,0,0,0,0,0,0,0,0,0,0,0,0,0,0,0,0,0,0,0,0,0,0,0,0,
0,0,0,0,0,0,0,0,0,0,0,0,0,0,0,0,0,0,0,0,0,0,0,0,0,0,
0,0,0,0,0,0,0,0,0,0,0,0,0,0,0,0,0,0,0,0,0,0,0,0,0,0
</data>
 </layer>
 <objectgroup id="9" name="objects_osc">
  <object id="16" name="texturescroller" x="80" y="0">
   <properties>
    <property name="base_tex" value="backgrounds/glow_purple_tile_oscillate"/>
    <property name="scroll_tex" value="backgrounds/perlin_noise_purple_looping"/>
    <property name="type" value="library"/>
   </properties>
   <point/>
  </object>
  <object id="39" name="tile_oscillate" x="80" y="80" width="202.143" height="160"/>
  <object id="41" name="texturescroller" x="80" y="-40">
   <properties>
    <property name="type" value="hsv"/>
   </properties>
   <point/>
  </object>
  <object id="51" name="tile_oscillate" x="760" y="400" width="120" height="80"/>
  <object id="52" name="tile_oscillate" x="800" y="320" width="122.143" height="80"/>
 </objectgroup>
 <layer id="22" name="tiles_below" width="26" height="16" visible="0">
  <data encoding="csv">
0,0,0,0,0,0,0,331,331,331,331,331,331,0,0,0,0,0,0,0,0,0,0,0,0,0,
0,0,0,0,0,0,0,331,331,331,331,331,331,0,0,0,0,0,0,0,0,0,0,0,0,0,
0,0,0,0,0,0,0,331,331,331,331,331,331,0,0,0,0,0,0,0,0,0,0,0,0,0,
0,0,0,0,0,0,0,331,331,331,331,331,331,0,0,0,0,0,0,0,0,0,0,0,0,0,
0,0,0,0,0,0,0,331,331,331,331,331,331,0,0,0,0,0,0,0,0,0,0,0,0,0,
0,0,0,0,0,0,0,331,331,331,331,331,331,0,0,0,0,0,0,0,0,0,0,0,0,0,
0,0,0,0,0,0,0,331,331,331,331,331,331,0,0,0,0,0,0,0,0,0,0,0,0,0,
0,0,331,331,331,331,331,331,331,331,331,331,331,0,0,0,0,0,0,0,0,0,0,0,0,0,
0,0,331,331,331,331,331,331,331,331,331,331,331,0,0,0,0,0,0,0,0,0,0,0,0,0,
0,0,331,331,331,331,331,331,331,331,331,331,331,0,0,0,0,0,0,0,0,0,0,0,0,0,
0,0,331,331,331,331,331,331,331,331,331,331,331,0,0,0,0,0,0,0,0,0,0,0,0,0,
0,0,331,331,331,331,331,331,331,331,331,331,331,0,0,0,0,0,0,0,0,0,0,0,0,0,
0,0,331,331,331,331,331,331,331,331,331,331,331,0,0,0,0,0,0,0,0,0,0,0,0,0,
0,0,331,331,331,331,331,331,331,331,331,331,331,331,331,331,331,331,331,331,331,331,0,0,0,0,
0,0,331,331,331,331,331,331,331,331,331,331,331,331,331,331,331,331,331,331,331,331,0,0,0,0,
0,0,331,331,331,331,331,331,331,331,331,331,331,331,331,331,331,331,331,331,331,331,0,0,0,0
</data>
 </layer>
 <layer id="20" name="tile_floating_platform" width="26" height="16" visible="0" offsetx="20" offsety="0">
  <data encoding="csv">
0,0,0,0,0,0,0,0,0,0,0,0,0,0,0,0,0,0,0,0,0,0,0,0,0,0,
0,0,0,0,0,0,0,0,0,0,0,0,0,0,0,0,0,0,0,0,0,0,0,0,0,0,
0,0,0,0,0,0,0,0,0,0,0,0,0,0,0,0,0,0,0,0,0,0,0,0,0,0,
0,0,0,0,0,0,0,0,0,0,0,0,0,0,0,0,0,0,0,0,0,0,0,0,0,0,
0,0,0,0,0,0,0,0,0,0,0,0,0,0,0,0,0,0,0,0,0,0,0,0,0,0,
0,0,0,0,0,0,0,0,0,0,0,0,0,0,0,827,828,829,830,0,0,0,0,0,0,0,
0,0,0,0,0,0,0,0,0,0,0,0,0,0,0,837,838,839,840,0,0,0,0,0,0,0,
0,0,0,0,0,0,0,0,0,0,0,0,0,0,0,1001,1002,1002,1003,0,0,0,0,0,0,0,
0,0,0,0,0,0,0,0,0,0,0,0,0,0,0,0,0,0,0,0,0,0,0,0,0,0,
0,0,0,0,0,0,0,0,0,0,0,0,0,0,0,0,0,0,0,0,0,0,0,0,0,0,
0,0,0,0,0,0,0,0,0,0,0,0,0,0,0,0,0,0,0,0,0,0,0,0,0,0,
0,0,0,0,0,0,0,0,0,0,0,0,0,0,0,0,0,0,0,0,0,0,0,0,0,0,
0,0,0,0,0,0,0,0,0,0,0,0,0,0,0,0,0,0,0,0,0,0,0,0,0,0,
0,0,0,0,0,0,0,0,0,0,0,0,0,0,0,0,0,0,0,0,0,0,0,0,0,0,
0,0,0,0,0,0,0,0,0,0,0,0,0,0,0,0,0,0,0,0,0,0,0,0,0,0,
0,0,0,0,0,0,0,0,0,0,0,0,0,0,0,0,0,0,0,0,0,0,0,0,0,0
</data>
 </layer>
 <layer id="1" name="Tile Layer 1" width="26" height="16" visible="0">
  <data encoding="csv">
331,331,10,10,10,10,10,0,0,0,0,0,0,0,0,0,0,0,0,0,0,541,470,470,470,541,
331,331,10,10,10,10,10,0,0,0,0,0,0,0,0,0,0,0,0,0,0,547,470,470,470,547,
331,331,34,35,36,10,10,0,0,0,0,0,0,0,0,0,0,0,0,0,0,547,470,470,470,547,
331,331,43,44,45,5,6,0,0,0,0,0,0,0,0,0,0,0,0,0,0,547,470,463,470,547,
331,331,52,53,6,14,15,87,0,0,0,0,0,0,0,0,0,0,0,0,0,553,470,469,470,553,
331,331,5,6,169,170,171,96,87,0,0,0,0,0,0,0,0,0,0,0,0,559,470,475,470,559,
331,331,28,28,28,28,28,105,96,87,0,0,0,0,0,0,0,0,0,0,0,559,470,470,470,559,
331,331,634,542,543,544,634,114,105,96,87,0,0,0,0,0,0,0,0,0,0,565,476,476,476,565,
331,331,640,548,549,550,640,0,114,105,96,87,0,0,0,0,0,0,0,0,10,5,6,10,10,10,
331,331,640,554,555,556,640,0,0,114,105,96,87,0,0,0,0,0,0,0,10,10,15,10,10,10,
331,331,640,560,561,562,640,0,0,0,114,105,96,22,2,3,10,10,10,10,14,168,28,28,28,28,
331,331,640,566,567,568,640,0,0,0,0,114,105,31,11,12,10,13,10,10,169,188,0,0,0,0,
331,331,640,0,0,0,640,0,0,0,0,0,114,28,28,28,28,28,28,28,28,28,0,0,0,0,
331,331,671,0,0,0,671,0,0,0,0,0,0,634,542,543,544,634,542,543,544,634,0,0,0,0,
331,331,0,0,0,0,0,0,0,0,0,0,0,640,548,549,550,640,548,549,550,640,0,0,0,0,
331,331,0,0,0,0,0,0,0,0,0,0,0,640,554,555,556,640,554,555,556,640,0,0,0,0
</data>
 </layer>
 <objectgroup id="17" name="objects_onefuckingnpc">
  <object id="20" name="npc" x="700" y="250">
   <properties>
    <property name="actor" value="balthizard"/>
   </properties>
   <point/>
  </object>
 </objectgroup>
 <objectgroup id="4" name="objects_party">
  <object id="10" name="transition" x="80" y="-40" width="200" height="40">
   <properties>
    <property name="map" value="1_2nd_sanctuary/second_sanctum_11_exit"/>
    <property name="marker" value="entry3"/>
   </properties>
  </object>
  <object id="13" name="transition" x="1040" y="320" width="40" height="120">
   <properties>
    <property name="map" value="1_2nd_sanctuary/second_sanctum_13"/>
    <property name="marker" value="entry"/>
   </properties>
  </object>
  <object id="26" name="interactable" x="620" y="360" width="160" height="40">
   <properties>
    <property name="text1" value="[speed:0.2]* T a k e   a   b r e a t h e r ."/>
   </properties>
  </object>
  <object id="49" name="window_glow" x="430" y="150">
   <point/>
  </object>
  <object id="58" name="window_glow" x="180" y="440">
   <point/>
  </object>
 </objectgroup>
 <objectgroup id="5" name="markers">
  <object id="11" name="entry" x="180" y="40">
   <point/>
  </object>
  <object id="12" name="entry2" x="1000" y="380">
   <point/>
  </object>
 </objectgroup>
 <objectgroup id="6" name="collision" visible="0">
  <object id="1" x="0" y="0" width="80" height="640"/>
  <object id="2" x="80" y="240" width="200" height="400"/>
  <object id="3" x="280" y="0" width="760" height="160"/>
  <object id="4" x="800" y="160" width="240" height="160"/>
  <object id="5" x="880" y="400" width="160" height="240"/>
  <object id="6" x="520" y="480" width="360" height="160"/>
  <object id="7" x="280" y="480" width="240" height="160"/>
  <object id="8" x="280" y="240">
   <polygon points="0,0 240,240 0,240"/>
  </object>
  <object id="9" x="280" y="160">
   <polygon points="0,0 240,0 240,240"/>
  </object>
  <object id="50" x="520" y="160" width="280" height="240"/>
 </objectgroup>
 <objectgroup id="8" name="objects_fog">
  <object id="15" name="churchfog" x="40" y="0">
   <point/>
  </object>
 </objectgroup>
 <objectgroup id="7" name="objects_top">
  <object id="14" name="filter" x="0" y="0">
   <properties>
    <property name="type" value="hsv"/>
   </properties>
   <point/>
  </object>
 </objectgroup>
</map>
