<?xml version="1.0" encoding="UTF-8"?>
<map version="1.11" tiledversion="1.12.1" orientation="orthogonal" renderorder="right-down" width="32" height="18" tilewidth="40" tileheight="40" infinite="0" nextlayerid="24" nextobjectid="342">
 <editorsettings>
  <export target="data.lua" format="lua"/>
 </editorsettings>
 <properties>
  <property name="border" value="church_b"/>
  <property name="music" value="second_church"/>
 </properties>
 <tileset firstgid="1" source="../../../tilesets/church_objects.tsx"/>
 <tileset firstgid="111" source="../../../tilesets/bg_dw_church_tileset_new.tsx"/>
 <tileset firstgid="693" source="../../../tilesets/bg_dw_church_c_tileset.tsx"/>
 <tileset firstgid="972" source="../../../tilesets/bg_dw_church_2_tileset.tsx"/>
 <tileset firstgid="1170" source="../../../tilesets/longslides.tsx"/>
 <tileset firstgid="1224" source="../../../tilesets/bg_dw_church_library_2_tileset.tsx"/>
 <tileset firstgid="1484" source="../../../tilesets/bg_dw_dither_overlay_tileset.tsx"/>
 <tileset firstgid="1530" source="../../../tilesets/bg_dw_library_tileset_new.tsx"/>
 <tileset firstgid="2360" source="../../../tilesets/light_areas.tsx"/>
 <objectgroup id="23" name="objects_parallax3" visible="0" parallaxx="0.3" parallaxy="0.82">
  <object id="338" gid="13" x="200" y="-50" width="416" height="130" rotation="90">
   <properties>
    <property name="color" type="color" value="#ff00007f"/>
   </properties>
  </object>
  <object id="339" gid="13" x="200" y="366" width="416" height="130" rotation="90">
   <properties>
    <property name="color" type="color" value="#ff00007f"/>
   </properties>
  </object>
  <object id="340" gid="13" x="1000" y="-60" width="416" height="130" rotation="90">
   <properties>
    <property name="color" type="color" value="#ff00007f"/>
   </properties>
  </object>
  <object id="341" gid="13" x="1000" y="356" width="416" height="130" rotation="90">
   <properties>
    <property name="color" type="color" value="#ff00007f"/>
   </properties>
  </object>
 </objectgroup>
 <objectgroup id="22" name="objects_parallax2" visible="0" parallaxx="0.4" parallaxy="0.85">
  <object id="334" gid="13" x="-240" y="480" width="640" height="200">
   <properties>
    <property name="color" type="color" value="#ff2525ba"/>
   </properties>
  </object>
  <object id="335" gid="13" x="400" y="480" width="640" height="200">
   <properties>
    <property name="color" type="color" value="#ff2525ba"/>
   </properties>
  </object>
 </objectgroup>
 <objectgroup id="14" name="objects_parallax" visible="0" parallaxx="0.5" parallaxy="0.9">
  <object id="281" gid="3221225477" x="120" y="640" width="640" height="1600"/>
  <object id="287" gid="5" x="80" y="880" width="639" height="1600" rotation="45"/>
  <object id="336" gid="1073741829" x="20" y="640" width="640" height="1600" rotation="-45"/>
 </objectgroup>
 <layer id="8" name="tile_osc_optimize" width="32" height="18">
  <data encoding="csv">
0,0,0,0,0,0,0,0,0,0,0,0,0,0,0,0,0,0,0,0,0,0,0,0,0,0,0,0,0,0,0,0,
0,0,0,0,0,0,0,0,0,0,0,0,0,0,0,0,0,0,0,0,0,0,0,0,0,0,0,0,0,0,0,0,
0,0,0,0,0,0,0,0,0,0,0,0,0,0,0,0,0,0,0,0,0,0,0,0,0,0,0,0,0,0,0,0,
0,0,0,0,0,0,0,0,0,0,0,0,0,0,0,0,0,0,0,0,0,0,0,0,0,0,0,0,0,0,0,0,
0,0,0,0,0,0,0,0,0,0,0,0,0,0,0,0,0,0,0,0,0,0,0,0,0,0,0,0,0,0,0,0,
0,0,0,0,0,0,0,0,0,0,0,0,1483,1483,1483,1483,1483,1483,0,0,0,0,0,1483,1483,1483,1483,1483,1483,0,0,0,
0,0,0,0,0,0,0,0,0,0,0,0,1483,1483,1483,1483,1483,1483,0,0,0,0,0,1483,1483,1483,1483,1483,1483,0,0,0,
0,0,0,0,0,0,0,0,0,0,0,0,1483,1483,1483,1483,1483,1483,0,0,0,0,0,1483,1483,1483,1483,1483,1483,0,0,0,
0,0,0,0,0,0,0,0,0,0,0,0,0,0,0,0,0,0,0,0,0,0,0,0,0,0,0,0,0,0,0,0,
0,0,0,0,0,0,0,0,0,0,0,0,0,0,0,0,0,0,0,0,0,0,0,0,0,0,0,0,0,0,0,0,
0,0,0,0,0,0,0,0,0,0,0,0,0,0,0,0,0,0,0,0,0,0,0,0,0,0,0,0,0,0,0,0,
0,0,0,0,0,0,0,0,0,0,0,0,0,0,0,0,0,0,0,0,0,0,0,0,0,0,0,0,0,0,0,0,
1165,1165,1165,1165,1165,1165,1165,1165,1165,1165,1165,1165,1165,1165,1165,1165,1165,1165,1165,1165,1165,1165,1165,1165,0,0,0,0,0,0,0,0,
1165,1165,1165,1165,1165,1165,1165,1165,1165,1165,1165,1165,1165,1165,1165,1165,1165,1165,1165,1165,1165,1165,1165,1165,0,0,0,0,0,0,0,0,
0,0,0,0,0,0,0,0,0,0,0,0,0,0,0,0,0,0,1165,1165,1165,1165,1165,0,0,0,0,0,0,0,0,0,
0,0,0,0,0,0,0,0,0,0,0,0,0,0,0,0,0,0,1165,1165,1165,1165,1165,0,0,0,0,0,0,0,0,0,
0,0,0,0,0,0,0,0,0,0,0,0,0,0,0,0,0,0,1165,1165,1165,1165,1165,0,0,0,0,0,0,0,0,0,
0,0,0,0,0,0,0,0,0,0,0,0,0,0,0,0,0,0,1165,1165,1165,1165,1165,0,0,0,0,0,0,0,0,0
</data>
 </layer>
 <objectgroup color="#93ffed" id="9" name="objects_osc">
  <object id="32" name="texturescroller" x="80" y="0">
   <properties>
    <property name="base_tex" value="backgrounds/glow_purple_tile_oscillate"/>
    <property name="scroll_tex" value="backgrounds/perlin_noise_purple_looping"/>
    <property name="type" value="library"/>
   </properties>
   <point/>
  </object>
  <object id="312" name="texturescroller" x="120" y="0">
   <properties>
    <property name="type" value="hsv"/>
   </properties>
   <point/>
  </object>
  <object id="316" name="tile_oscillate" x="0" y="480" width="960" height="80"/>
  <object id="317" name="tile_oscillate" x="720" y="560" width="200" height="160"/>
  <object id="319" name="tile_oscillate" x="520" y="200" width="200" height="120">
   <properties>
    <property name="type" value="library"/>
   </properties>
  </object>
  <object id="320" name="tile_oscillate" x="920" y="200" width="200" height="120">
   <properties>
    <property name="type" value="library"/>
   </properties>
  </object>
 </objectgroup>
 <layer id="13" name="tiles3" width="32" height="18">
  <data encoding="csv">
1107,1126,1127,1128,1107,1126,1127,1128,1107,0,0,0,1235,1236,1237,1238,1239,1240,1307,1318,1319,1320,1307,1235,1236,1237,1238,1239,1240,0,0,0,
1116,1126,1127,1128,1116,1126,1127,1128,1116,0,0,0,1245,1246,1247,1248,1249,1250,1317,1328,1329,1330,1317,1245,1246,1247,1248,1249,1250,0,0,0,
1125,1135,1136,1137,1125,1135,1136,1137,1125,0,0,0,1235,1236,1237,1238,1239,1240,1327,1338,1339,1340,1327,1235,1236,1237,1238,1239,1240,0,0,0,
1134,686,686,686,1134,686,686,686,1134,0,0,0,1245,1246,1247,1248,1249,1250,1337,1348,1349,1350,1337,1245,1246,1247,1248,1249,1250,0,0,0,
1107,649,649,649,1107,649,649,649,1107,0,0,0,1255,1256,1257,1258,1259,1260,1425,1358,1359,1360,1425,1255,1256,1257,1258,1259,1260,0,0,0,
1107,1099,1100,1101,1107,1099,1100,1101,1107,0,0,0,1404,1396,1396,1396,1396,1442,1341,1342,1342,1342,1343,1396,1386,1396,1432,1396,1397,0,0,0,
1107,1108,1109,1110,1107,1108,1109,1110,1107,0,0,0,1414,1396,1412,1396,1415,1396,1351,1352,1352,1352,1353,1386,1395,1395,1396,1405,1417,0,0,0,
1107,1117,1118,1119,1107,1117,1118,1119,1107,0,0,0,1394,1415,1421,1431,1396,1396,1361,1362,1362,1362,1363,1396,1396,1416,1415,1386,1407,0,0,0,
1107,1126,1127,1128,1107,1126,1127,1128,1107,0,0,0,1444,1445,1445,1445,1445,1446,1580,1580,1580,1580,1580,1444,1445,1445,1445,1445,1446,0,0,0,
1116,1126,1127,1128,1116,1126,1127,1128,1116,0,0,0,1235,1239,1236,1239,1236,1237,1590,1590,1590,1590,1590,1238,1239,1236,1239,1236,1240,0,0,0,
1125,1135,1136,1137,1125,1135,1136,1137,1125,0,0,0,1245,1249,1246,1249,1246,1247,1580,1580,1580,1580,1580,1248,1249,1246,1249,1246,1250,0,0,0,
1134,1144,1145,1146,1134,1144,1145,1146,1134,1145,1145,1145,1255,1259,1256,1259,1256,1257,1590,1590,1590,1590,1590,1248,1249,1246,1249,1246,1250,0,0,0,
0,0,0,0,0,0,0,0,0,0,0,0,0,0,0,0,0,0,0,0,0,0,0,0,1249,1246,1249,1246,1250,0,0,0,
0,0,0,0,0,0,0,0,0,0,0,0,0,0,0,0,0,0,0,0,0,0,0,0,1249,1246,1249,1246,1250,0,0,0,
0,0,0,0,0,0,0,0,0,0,0,0,0,0,0,0,0,0,0,0,0,0,0,0,1249,1246,1249,1246,1250,0,0,0,
243,243,243,243,243,243,243,243,243,243,243,243,243,243,243,243,243,243,0,0,0,0,0,1248,1249,1246,1249,1246,1250,0,0,0,
243,243,243,243,243,243,243,243,243,243,243,243,243,243,243,243,243,243,0,0,0,0,0,1248,1249,1246,1249,1246,1250,0,0,0,
243,243,243,243,243,243,243,243,243,243,243,243,243,243,243,243,243,243,0,0,0,0,0,1248,1249,1246,1249,1246,1250,0,0,0
</data>
 </layer>
 <objectgroup id="18" name="objects_fade">
  <object id="321" gid="9" x="1280" y="720" width="240" height="360.33" rotation="270"/>
 </objectgroup>
 <layer id="16" name="tiles2" width="32" height="18">
  <data encoding="csv">
0,0,0,0,0,0,0,0,0,0,0,0,0,0,0,0,0,0,0,0,0,0,0,0,0,0,0,0,0,0,0,0,
0,0,0,0,0,0,0,0,0,0,0,0,0,0,0,0,0,0,0,0,0,0,0,0,0,0,0,0,0,0,0,0,
0,0,0,0,0,0,0,0,0,0,0,0,0,0,0,0,0,0,0,0,0,0,0,0,0,0,0,0,0,0,0,0,
0,0,0,0,0,0,0,0,0,0,0,0,0,0,0,0,0,0,0,0,0,0,0,0,0,0,0,0,0,0,0,0,
0,0,0,0,0,0,0,0,0,0,0,0,0,0,0,0,0,0,1347,0,0,0,1347,0,0,0,0,0,0,0,0,0,
0,0,0,0,0,0,0,0,0,0,0,0,0,0,0,0,0,0,0,0,0,0,0,0,0,0,0,0,0,0,0,0,
0,0,0,0,0,0,0,0,0,0,0,0,0,0,0,0,0,0,0,0,0,0,0,0,0,0,0,0,0,0,0,0,
0,0,0,0,0,0,0,0,0,0,0,0,0,0,0,0,1425,1426,0,0,0,0,0,0,1425,0,0,0,0,0,0,0,
0,0,0,0,0,0,0,0,0,0,0,0,0,0,0,0,0,0,0,0,0,0,0,0,0,0,0,0,0,0,0,0,
0,0,0,0,0,0,0,0,0,0,0,0,0,0,0,0,0,0,0,0,0,0,0,0,0,0,0,0,0,0,0,0,
0,0,0,0,0,0,0,0,0,0,0,0,0,0,0,0,0,0,0,0,0,0,0,0,0,0,0,0,0,0,0,0,
0,0,0,0,0,0,0,0,0,0,0,0,0,0,0,0,0,0,0,0,0,0,0,0,0,0,0,0,0,0,0,0,
1002,981,981,991,992,973,974,981,990,981,1014,995,1016,990,1140,1141,1157,1158,1159,1160,985,976,1105,1002,0,0,0,0,0,0,0,0,
994,993,981,1000,1001,982,983,985,981,976,1023,1024,1025,1148,1149,1150,1166,1167,1168,1169,981,1112,1113,994,0,0,0,0,0,0,0,0,
999,999,999,999,999,999,999,999,999,999,999,999,999,999,999,999,999,999,975,981,981,1121,1122,999,0,0,0,0,0,0,0,0,
591,592,593,594,546,591,592,593,594,546,591,592,593,594,546,591,592,0,981,981,984,1130,1131,0,0,0,0,0,0,0,0,0,
597,598,599,600,552,597,598,599,600,552,597,598,599,600,552,597,598,599,977,981,991,992,1002,0,0,0,0,0,0,0,0,0,
603,604,605,606,552,603,604,605,606,552,603,604,605,606,552,603,604,605,993,1002,1000,1001,994,0,0,0,0,0,0,0,0,0
</data>
 </layer>
 <objectgroup id="17" name="objects_under_party">
  <object id="294" gid="104" x="500" y="240" width="160" height="80"/>
  <object id="309" name="churchmagicglass" x="960" y="480" width="320" height="80">
   <properties>
    <property name="idlealpha" type="float" value="0"/>
   </properties>
  </object>
 </objectgroup>
 <objectgroup id="3" name="objects_party">
  <object id="18" name="transition" x="-40" y="480" width="40" height="80">
   <properties>
    <property name="map" value="1_2nd_sanctuary/second_sanctum_10_final"/>
    <property name="marker" value="entry2"/>
   </properties>
  </object>
  <object id="299" name="npc" x="558" y="232">
   <properties>
    <property name="actor" value="susie"/>
    <property name="sprite" value="sit-couch"/>
    <property name="text1" value="[face:annoyed_down_alt]* Some guy, [wait:5]huh?"/>
    <property name="text2" value="[face:smile]* We totally got out alive because of me."/>
   </properties>
   <point/>
  </object>
  <object id="300" name="npc" x="605" y="232">
   <properties>
    <property name="actor" value="ralsei"/>
    <property name="sprite" value="sit-couch"/>
    <property name="text1" value="[voice:default]* (He looks deep in thought.)"/>
   </properties>
   <point/>
  </object>
  <object id="301" name="npc" x="1060" y="230">
   <properties>
    <property name="actor" value="jamm"/>
    <property name="cond" value="Game:hasPartyMember(&quot;jamm&quot;)"/>
    <property name="cutscene" value="events.jamm_book"/>
    <property name="facing" value="up"/>
   </properties>
   <point/>
  </object>
  <object id="310" name="interactable" x="920" y="160" width="120" height="40">
   <properties>
    <property name="text1" value="* (This book has schematics of various locations.)"/>
    <property name="text2" value="* (You recognize the Base Sanctum's floorwork on one of the pages.)"/>
    <property name="text3" value="* (...And another page, has this very area.)"/>
    <property name="text4" value="* (Part of it seems to be scratched out.)"/>
   </properties>
  </object>
  <object id="325" name="window_glow" x="100" y="380">
   <point/>
  </object>
  <object id="327" name="window_glow" x="260" y="380">
   <point/>
  </object>
  <object id="328" name="transition" x="1280" y="480" width="40" height="80">
   <properties>
    <property name="map" value="1_2nd_sanctuary/second_sanctum_11_ponder"/>
    <property name="marker" value="entry"/>
   </properties>
  </object>
  <object id="330" name="transition" x="720" y="720" width="200" height="40">
   <properties>
    <property name="map" value="1_2nd_sanctuary/second_sanctum_12"/>
    <property name="marker" value="entry"/>
   </properties>
  </object>
  <object id="332" name="savepoint" x="820" y="160">
   <properties>
    <property name="text1" value="* Limitless spires span the horizon."/>
    <property name="text2" value="* You can't help but feel small with how big some of them are."/>
    <property name="text3" value="* The power of literature shines within you."/>
   </properties>
  </object>
 </objectgroup>
 <layer id="1" name="tiles1" width="32" height="18">
  <data encoding="csv">
0,0,0,0,0,0,0,0,0,0,0,0,1307,1345,1345,1345,1307,0,0,0,0,0,0,0,1307,1345,1345,1345,1307,0,0,0,
0,0,0,0,0,0,0,0,0,0,0,0,1317,1308,1309,1310,1317,0,0,0,0,0,0,0,1317,1308,1309,1310,1317,0,0,0,
0,0,0,0,0,0,0,0,0,0,0,0,1317,1318,1319,1320,1317,0,0,0,0,0,0,0,1317,1318,1319,1320,1317,0,0,0,
0,0,0,0,0,0,0,0,0,0,0,0,1317,1328,1329,1330,1317,0,0,0,0,0,0,0,1317,1328,1329,1330,1317,0,0,0,
0,0,0,0,0,0,0,0,0,0,0,0,1317,1338,1339,1340,1317,0,0,0,0,0,0,0,1317,1338,1339,1340,1317,0,0,0,
0,0,0,0,0,0,0,0,0,0,0,0,1327,1348,1349,1350,1327,0,0,0,0,0,0,0,1327,1348,1349,1350,1327,0,0,0,
0,0,0,0,0,0,0,0,0,0,0,0,1337,1348,1349,1350,1337,0,0,0,0,0,0,0,1337,1348,1349,1350,1337,0,0,0,
0,0,0,0,0,0,0,0,0,0,0,0,1347,1358,1359,1360,1347,1426,0,0,0,0,0,1424,1347,1358,1359,1360,1347,0,0,0,
0,0,0,0,0,0,0,0,0,0,0,0,0,0,0,0,0,0,0,0,0,0,0,0,0,0,0,0,0,0,0,0,
0,0,0,0,0,0,0,0,0,0,0,0,0,0,0,0,0,0,0,0,0,0,0,0,0,0,0,0,0,0,0,0,
0,0,0,0,0,0,0,0,0,0,0,0,0,0,0,0,0,0,0,0,0,0,0,0,0,0,0,0,0,0,0,0,
0,0,0,0,0,0,0,0,0,0,0,0,0,0,0,0,0,0,0,0,0,0,0,0,0,0,0,0,0,0,0,0,
0,0,0,0,0,0,0,0,0,0,0,0,0,0,0,0,0,0,0,0,0,0,0,0,0,0,0,0,0,0,0,0,
0,0,0,0,0,0,0,0,0,0,0,0,0,0,0,0,0,0,0,0,0,0,0,0,0,0,0,0,0,0,0,0,
0,0,0,0,0,0,0,0,0,0,0,0,0,0,0,0,0,0,0,0,0,0,0,0,0,0,0,0,0,0,0,0,
0,0,0,0,0,0,0,0,0,0,0,0,0,0,0,0,0,0,0,0,0,0,0,0,0,0,0,0,0,0,0,0,
0,0,0,0,0,0,0,0,0,0,0,0,0,0,0,0,0,0,0,0,0,0,0,0,0,0,0,0,0,0,0,0,
0,0,0,0,0,0,0,0,0,0,0,0,0,0,0,0,0,0,0,0,0,0,0,0,0,0,0,0,0,0,0,0
</data>
 </layer>
 <objectgroup color="#ff0000" id="4" name="collision">
  <object id="302" x="0" y="320" width="720" height="160"/>
  <object id="303" x="480" y="160" width="40" height="160"/>
  <object id="304" x="520" y="160" width="600" height="40"/>
  <object id="305" x="1120" y="160" width="40" height="160"/>
  <object id="306" x="920" y="320" width="360" height="160"/>
  <object id="307" x="920" y="560" width="360" height="160"/>
  <object id="308" x="0" y="560" width="720" height="160"/>
 </objectgroup>
 <objectgroup id="6" name="objects"/>
 <objectgroup id="19" name="objects_lightarea">
  <object id="322" gid="1073744185" x="500" y="480" width="160" height="720">
   <properties>
    <property name="light" type="bool" value="true"/>
    <property name="light_alpha" type="float" value="0"/>
    <property name="light_color" type="color" value="#ffffffff"/>
    <property name="light_type" type="int" value="1"/>
   </properties>
  </object>
  <object id="323" gid="1073744185" x="980" y="480" width="160" height="720">
   <properties>
    <property name="light" type="bool" value="true"/>
    <property name="light_alpha" type="float" value="0"/>
    <property name="light_color" type="color" value="#ffffffff"/>
    <property name="light_type" type="int" value="1"/>
   </properties>
  </object>
 </objectgroup>
 <objectgroup id="5" name="markers">
  <object id="22" name="entry" x="40" y="520">
   <point/>
  </object>
  <object id="230" name="spawn" x="80" y="520">
   <point/>
  </object>
  <object id="329" name="entry2" x="1240" y="520">
   <point/>
  </object>
  <object id="331" name="entry3" x="820" y="680">
   <point/>
  </object>
 </objectgroup>
 <objectgroup id="20" name="objects_darkness">
  <object id="324" name="darkness" x="160" y="0">
   <properties>
    <property name="alpha" type="float" value="0.23"/>
    <property name="highlight" type="bool" value="true"/>
   </properties>
   <point/>
  </object>
 </objectgroup>
 <objectgroup id="10" name="objects_fog">
  <object id="1" name="churchfog" x="40" y="0">
   <point/>
  </object>
 </objectgroup>
 <objectgroup id="2" name="objects_top">
  <object id="2" name="filter" x="0" y="0">
   <properties>
    <property name="type" value="hsv"/>
   </properties>
   <point/>
  </object>
 </objectgroup>
</map>
