<?xml version="1.0" encoding="UTF-8"?>
<map version="1.11" tiledversion="1.12.1" orientation="orthogonal" renderorder="right-down" width="32" height="20" tilewidth="40" tileheight="40" infinite="0" nextlayerid="18" nextobjectid="314">
 <editorsettings>
  <export target="data.lua" format="lua"/>
 </editorsettings>
 <properties>
  <property name="border" value="church_b"/>
  <property name="music" value="second_church"/>
  <property name="name" value="Second Sanctuary - Split 2"/>
 </properties>
 <tileset firstgid="1" source="../../../tilesets/church_objects.tsx"/>
 <tileset firstgid="111" source="../../../tilesets/bg_dw_church_tileset_new.tsx"/>
 <tileset firstgid="693" source="../../../tilesets/bg_dw_church_c_tileset.tsx"/>
 <tileset firstgid="972" source="../../../tilesets/bg_dw_church_2_tileset.tsx"/>
 <tileset firstgid="1170" source="../../../tilesets/longslides.tsx"/>
 <tileset firstgid="1224" source="../../../tilesets/bg_dw_church_library_2_tileset.tsx"/>
 <objectgroup id="16" name="objects_parallax3" visible="0" parallaxx="0.3" parallaxy="0.82">
  <object id="300" gid="13" x="80" y="-30" width="416" height="130" rotation="90">
   <properties>
    <property name="color" type="color" value="#ff00007f"/>
   </properties>
  </object>
  <object id="301" gid="13" x="80" y="386" width="416" height="130" rotation="90">
   <properties>
    <property name="color" type="color" value="#ff00007f"/>
   </properties>
  </object>
 </objectgroup>
 <objectgroup id="15" name="objects_parallax2" visible="0" parallaxx="0.4" parallaxy="0.85">
  <object id="298" gid="13" x="-380" y="290" width="640" height="200">
   <properties>
    <property name="color" type="color" value="#ff2525ba"/>
   </properties>
  </object>
  <object id="299" gid="13" x="260" y="290" width="640" height="200">
   <properties>
    <property name="color" type="color" value="#ff2525ba"/>
   </properties>
  </object>
 </objectgroup>
 <objectgroup id="14" name="objects_parallax" visible="0" parallaxx="0.5" parallaxy="0.9">
  <object id="281" gid="3221225477" x="-280" y="720" width="640" height="1600"/>
  <object id="287" gid="5" x="-320" y="960" width="640" height="1600" rotation="45"/>
 </objectgroup>
 <objectgroup id="17" name="objects_fade" visible="0">
  <object id="311" gid="2147483657" x="1000" y="120" width="120" height="720" rotation="270"/>
  <object id="313" gid="9" x="160" y="1030" width="720" height="160" rotation="270"/>
 </objectgroup>
 <layer id="8" name="tile_osc_optimize" width="32" height="20">
  <data encoding="csv">
0,0,0,0,0,0,0,0,0,0,0,0,0,0,0,0,0,0,0,0,0,0,0,0,0,0,0,0,0,0,0,0,
0,0,0,0,0,0,0,0,0,0,0,0,0,0,0,0,0,0,0,0,0,0,0,0,0,0,0,0,0,0,0,0,
0,0,0,0,0,0,0,0,0,0,0,0,0,0,0,0,0,0,0,0,0,0,0,0,0,0,0,0,0,0,0,0,
0,0,0,0,0,0,0,0,0,0,0,0,0,0,0,0,0,0,0,0,0,0,0,0,0,0,0,0,0,0,0,0,
0,0,0,0,0,0,0,0,0,0,0,0,0,0,0,0,0,0,0,0,0,0,0,0,0,0,0,0,0,0,0,0,
0,0,0,0,0,0,0,0,0,0,0,0,0,0,0,0,0,0,0,0,0,0,0,0,0,0,0,0,0,0,0,0,
0,0,0,0,1165,1165,1165,0,0,0,0,0,1165,1165,1165,1165,1165,1165,1165,1165,0,0,0,0,0,0,0,0,0,0,0,0,
0,0,0,0,1165,1165,1165,0,0,0,0,0,1165,1165,1165,1165,1165,1165,1165,1165,0,0,0,0,0,0,0,0,0,0,0,0,
0,0,0,0,1165,1165,1165,0,0,0,0,0,1165,1165,1165,1165,1165,1165,1165,1165,0,0,0,0,0,0,0,0,0,0,0,0,
0,0,0,0,1165,1165,1165,1165,1165,1165,1165,1165,1165,1165,1165,1165,1165,1165,1165,1165,1165,1165,1165,1165,1165,1165,1165,1165,1165,1165,1165,1165,
0,0,0,0,1165,1165,1165,1165,1165,1165,1165,1165,1165,1165,1165,1165,1165,1165,1165,1165,1165,1165,1165,1165,1165,1165,1165,1165,1165,1165,1165,1165,
0,0,0,0,1165,1165,1165,1165,1165,1165,1165,1165,1165,1165,1165,1165,1165,1165,1165,1165,1165,1165,1165,1165,1165,1165,1165,1165,1165,1165,1165,1165,
0,0,0,0,0,0,0,0,0,0,0,0,1165,1165,1165,1165,1165,1165,1165,1165,0,0,0,0,0,0,0,0,0,0,0,0,
0,0,0,0,0,0,0,0,0,0,0,0,0,1165,1165,1165,1165,1165,1165,0,0,0,0,0,0,0,0,0,0,0,0,0,
0,0,0,0,0,0,0,0,0,0,0,0,0,0,1165,1165,1165,1165,0,0,0,0,0,0,0,0,0,0,0,0,0,0,
0,0,0,0,0,0,0,0,0,0,0,0,0,0,0,0,0,0,0,0,0,0,0,0,0,0,0,0,0,0,0,0,
0,0,0,0,0,0,0,0,0,0,0,0,0,0,0,0,0,0,0,0,0,0,0,0,0,0,0,0,0,0,0,0,
0,0,0,0,0,0,0,0,0,0,0,0,0,0,0,0,0,0,0,0,0,0,0,0,0,0,0,0,0,0,0,0,
0,0,0,0,0,0,0,0,0,0,0,0,0,0,0,0,0,0,0,0,0,0,0,0,0,0,0,0,0,0,0,0,
0,0,0,0,0,0,0,0,0,0,0,0,0,0,0,0,0,0,0,0,0,0,0,0,0,0,0,0,0,0,0,0
</data>
 </layer>
 <objectgroup color="#93ffed" id="9" name="objects_osc">
  <object id="32" name="texturescroller" x="80" y="0">
   <properties>
    <property name="base_tex" value="backgrounds/glow_purple_tile_oscillate"/>
    <property name="scroll_tex" value="backgrounds/perlin_noise_purple_looping"/>
    <property name="type" value="library"/>
   </properties>
   <point/>
  </object>
  <object id="305" name="texturescroller" x="110" y="0">
   <properties>
    <property name="type" value="hsv"/>
   </properties>
   <point/>
  </object>
  <object id="306" name="tile_oscillate" x="160" y="360" width="1120" height="120">
   <properties>
    <property name="type" value="hsv"/>
   </properties>
  </object>
  <object id="307" name="tile_oscillate" x="480" y="480" width="320" height="40">
   <properties>
    <property name="type" value="hsv"/>
   </properties>
  </object>
  <object id="308" name="tile_oscillate" x="480" y="240" width="320" height="120">
   <properties>
    <property name="type" value="hsv"/>
   </properties>
  </object>
  <object id="309" name="tile_oscillate" x="160" y="240" width="120" height="120">
   <properties>
    <property name="type" value="hsv"/>
   </properties>
  </object>
 </objectgroup>
 <layer id="13" name="Tile Layer 2" width="32" height="20">
  <data encoding="csv">
0,0,0,0,0,0,0,0,0,0,0,0,0,0,0,0,0,0,0,0,0,0,0,0,0,0,0,0,0,0,0,0,
0,0,0,0,0,0,0,0,0,0,0,0,0,0,0,0,0,0,0,0,0,0,0,0,0,0,0,0,0,0,0,0,
0,0,0,0,0,0,0,0,0,0,0,0,0,0,0,0,0,0,0,0,0,0,0,0,0,0,0,0,0,0,0,0,
0,0,0,0,0,0,0,0,0,0,0,0,0,0,0,0,0,0,0,0,0,0,0,0,0,0,0,0,0,0,0,0,
0,0,0,0,0,0,0,0,0,0,0,0,0,0,0,0,0,0,0,0,0,0,0,0,0,0,0,0,0,0,0,0,
0,0,0,0,0,0,0,0,0,0,0,0,0,0,0,0,0,0,0,0,0,0,0,0,0,0,0,0,0,0,0,0,
0,0,0,0,0,0,0,0,0,0,0,0,0,0,0,0,0,0,0,0,0,0,0,0,0,0,0,0,0,0,0,0,
0,0,0,0,0,0,0,0,0,0,0,0,0,0,0,0,0,0,0,0,0,0,0,0,0,0,0,0,0,0,0,0,
0,0,0,0,0,0,0,0,0,0,0,0,0,0,0,0,0,0,0,0,0,0,0,0,0,0,0,0,0,0,0,0,
0,0,0,0,0,0,0,0,0,0,0,0,0,0,0,0,0,0,0,0,0,0,0,0,0,0,0,0,0,0,0,0,
0,0,0,0,0,0,0,0,0,0,0,0,0,0,0,0,0,0,0,0,0,0,0,0,0,0,0,0,0,0,0,0,
0,0,0,0,0,0,0,0,0,0,0,0,0,0,0,0,0,0,0,0,0,0,0,0,0,0,0,0,0,0,0,0,
0,0,0,0,0,0,0,0,0,0,0,0,0,0,0,0,0,0,0,0,0,0,0,0,0,0,0,0,0,0,0,0,
0,0,0,0,243,243,243,243,243,243,243,243,0,0,0,0,0,0,0,0,243,243,243,243,243,243,243,243,243,243,243,243,
0,0,0,0,243,243,243,243,243,243,243,243,243,0,0,0,0,0,0,243,243,243,243,243,243,243,243,243,243,243,243,243,
0,0,0,0,243,243,243,243,243,243,243,243,243,243,243,243,243,243,243,243,243,243,243,243,243,243,243,243,243,243,243,243,
0,0,0,0,243,243,243,243,243,243,243,243,243,243,243,243,243,243,243,243,243,243,243,243,243,243,243,243,243,243,243,243,
0,0,0,0,243,243,243,243,243,243,243,243,243,243,243,243,243,243,243,243,243,243,243,243,243,243,243,243,243,243,243,243,
0,0,0,0,243,243,243,243,243,243,243,243,243,243,243,243,243,243,243,243,243,243,243,243,243,243,243,243,243,243,243,243,
0,0,0,0,243,243,243,243,243,243,243,243,243,243,243,243,243,243,243,243,243,243,243,243,243,243,243,243,243,243,243,243
</data>
 </layer>
 <layer id="1" name="Tile Layer 1" width="32" height="20">
  <data encoding="csv">
0,0,0,0,0,0,0,1098,1102,1102,1102,1098,0,0,1404,1406,1395,1407,0,0,1098,1102,1102,1102,1098,1102,1102,1102,1098,1102,1102,1102,
0,0,0,0,0,0,0,1107,1102,1102,1102,1107,0,0,1414,1396,1395,1417,0,0,1107,1102,1102,1102,1107,1102,1102,1102,1107,1102,1102,1102,
0,0,0,0,0,0,0,1107,1102,1102,1102,1107,0,0,1264,1265,1266,1267,0,0,1107,1102,1102,1102,1107,1102,1102,1102,1107,1102,1102,1102,
0,0,0,0,0,0,0,1107,1099,1100,1101,1107,0,0,1274,1275,1276,1277,0,0,1107,1099,1100,1101,1107,1099,1100,1101,1107,1099,1100,1101,
0,0,0,0,0,0,0,1116,1108,1109,1110,1116,0,0,1284,1285,1286,1287,0,0,1116,1108,1109,1110,1116,1108,1109,1110,1116,1108,1109,1110,
0,0,0,0,686,686,686,1125,1117,1118,1119,1125,686,686,1294,1295,1296,1297,686,686,1125,1117,1118,1119,1125,1117,1118,1119,1125,1117,1118,1119,
0,0,0,0,990,973,974,1125,1126,1127,1128,1125,991,992,1002,981,981,981,993,994,1125,1126,1127,1128,1125,1126,1127,1128,1125,1126,1127,1128,
0,0,0,0,990,982,983,1125,1135,1136,1137,1125,1000,1001,990,981,975,990,990,981,1125,1135,1136,1137,1125,1135,1136,1137,1125,1135,1136,1137,
0,0,0,0,1140,1142,990,1134,1144,1145,1146,1134,975,990,1103,1104,1105,1007,981,990,1134,1144,1145,1146,1134,1144,1145,1146,1134,1144,1145,1146,
0,0,0,0,988,1158,1140,1142,981,985,990,981,990,1103,1123,1113,1114,1115,981,985,981,990,981,973,974,981,981,975,981,990,990,990,
0,0,0,0,1150,988,988,1151,990,981,981,990,1005,1112,1015,1122,1123,1124,976,977,981,981,981,982,983,981,981,981,990,990,981,984,
0,0,0,0,981,1150,988,1158,1142,984,981,985,1014,1015,995,1113,1132,990,985,986,981,981,1002,993,994,981,981,981,981,990,990,981,
0,0,0,0,999,999,999,999,999,999,999,999,1130,1131,1132,1133,981,981,990,981,999,999,999,999,999,999,999,999,999,999,999,999,
0,0,0,0,546,0,546,591,592,593,594,546,999,981,981,990,981,981,990,999,546,591,592,593,594,546,0,546,591,592,593,594,
0,0,0,0,552,0,552,597,598,599,600,552,0,999,981,981,990,981,999,0,552,597,598,599,600,552,0,552,597,598,599,600,
0,0,0,0,552,0,552,603,604,605,606,552,0,546,999,999,999,999,546,0,552,603,604,605,606,552,0,552,603,604,605,606,
0,0,0,0,552,0,552,609,610,611,612,552,0,552,591,592,593,594,552,0,552,609,610,611,612,552,0,552,609,610,611,612,
0,0,0,0,552,0,552,615,616,617,618,552,0,552,597,598,599,600,552,0,552,615,616,617,618,552,0,552,615,616,617,618,
0,0,0,0,552,0,552,0,0,611,1136,552,0,552,603,604,605,606,552,0,552,0,610,611,0,552,0,552,0,610,611,0,
0,0,0,0,552,0,552,0,610,611,1136,552,0,552,609,610,611,612,552,0,552,0,610,611,0,552,0,552,0,610,611,0
</data>
 </layer>
 <objectgroup id="4" name="collision">
  <object id="263" x="520" y="0" width="40" height="120"/>
  <object id="264" x="720" y="0" width="40" height="120"/>
  <object id="265" x="480" y="120" width="120" height="120"/>
  <object id="266" x="280" y="240" width="200" height="120"/>
  <object id="269" x="480" y="600" width="320" height="40"/>
  <object id="271" x="120" y="240" width="40" height="240"/>
  <object id="272" x="160" y="200" width="120" height="40"/>
  <object id="273" x="800" y="240" width="480" height="120"/>
  <object id="274" x="800" y="480" width="480" height="120"/>
  <object id="275" x="680" y="120" width="120" height="120"/>
  <object id="276" x="160" y="480" width="320" height="120"/>
  <object id="294" x="480" y="520" width="40" height="80"/>
  <object id="295" x="520" y="560" width="40" height="40"/>
  <object id="296" x="760" y="520" width="40" height="80"/>
  <object id="297" x="720" y="560" width="40" height="40"/>
 </objectgroup>
 <objectgroup id="6" name="objects"/>
 <objectgroup id="5" name="markers">
  <object id="22" name="entry" x="640" y="80">
   <point/>
  </object>
  <object id="230" name="spawn" x="640" y="280">
   <point/>
  </object>
  <object id="291" name="entry2" x="1240" y="420">
   <point/>
  </object>
 </objectgroup>
 <objectgroup id="3" name="objects_party">
  <object id="18" name="transition" x="560" y="-40" width="160" height="40">
   <properties>
    <property name="map" value="1_2nd_sanctuary/second_sanctum_7"/>
    <property name="marker" value="entry2"/>
   </properties>
  </object>
  <object id="282" name="window_glow" x="900" y="300">
   <point/>
  </object>
  <object id="283" name="window_glow" x="1060" y="300">
   <point/>
  </object>
  <object id="284" name="window_glow" x="1220" y="300">
   <point/>
  </object>
  <object id="285" name="window_glow" x="380" y="300">
   <point/>
  </object>
  <object id="289" name="npc" x="220" y="320">
   <properties>
    <property name="actor" value="lobbyman"/>
    <property name="cutscene" value="lobbyman.second"/>
   </properties>
   <point/>
  </object>
  <object id="292" name="transition" x="1280" y="360" width="40" height="120">
   <properties>
    <property name="map" value="1_2nd_sanctuary/second_sanctum_9"/>
    <property name="marker" value="entry"/>
   </properties>
  </object>
  <object id="293" name="savepoint" x="640" y="480">
   <properties>
    <property name="text1" value="* (A split in the road.)"/>
    <property name="text2" value="* (You feel a sense of finality.)"/>
    <property name="text3" value="* (The power of surreal symbolism shines within you.)"/>
   </properties>
  </object>
 </objectgroup>
 <objectgroup id="10" name="objects_fog">
  <object id="1" name="churchfog" x="40" y="0">
   <point/>
  </object>
 </objectgroup>
 <objectgroup id="2" name="objects_top">
  <object id="2" name="filter" x="0" y="0">
   <properties>
    <property name="type" value="hsv"/>
   </properties>
   <point/>
  </object>
 </objectgroup>
</map>
