<?xml version="1.0" encoding="UTF-8"?>
<map version="1.11" tiledversion="1.12.1" orientation="orthogonal" renderorder="right-down" width="20" height="70" tilewidth="40" tileheight="40" infinite="0" nextlayerid="17" nextobjectid="286">
 <editorsettings>
  <export target="data.lua" format="lua"/>
 </editorsettings>
 <properties>
  <property name="border" value="church_b"/>
  <property name="music" value="second_church"/>
 </properties>
 <tileset firstgid="1" source="../../../tilesets/church_objects.tsx"/>
 <tileset firstgid="111" source="../../../tilesets/bg_dw_church_tileset_new.tsx"/>
 <tileset firstgid="693" source="../../../tilesets/bg_dw_church_c_tileset.tsx"/>
 <tileset firstgid="972" source="../../../tilesets/bg_dw_church_2_tileset.tsx"/>
 <tileset firstgid="1170" source="../../../tilesets/longslides.tsx"/>
 <tileset firstgid="1224" source="../../../tilesets/bg_dw_church_library_2_tileset.tsx"/>
 <layer id="8" name="tile_osc_optimize" width="20" height="70">
  <data encoding="csv">
0,0,0,0,0,0,0,0,0,0,0,0,0,0,0,0,0,0,0,0,
0,0,0,0,0,0,0,0,0,0,0,0,0,0,0,0,0,0,0,0,
0,0,0,0,0,0,0,0,0,0,0,0,0,0,0,0,0,0,0,0,
0,0,0,0,0,0,0,1483,1483,1483,1483,1483,1483,0,0,0,0,0,0,0,
0,1483,1483,1483,1483,1483,1483,1483,1483,1483,1483,1483,1483,1483,1483,1483,1483,1483,1483,0,
0,1483,1483,1483,1483,1483,1483,1483,1483,1483,1483,1483,1483,1483,1483,1483,1483,1483,1483,0,
0,1483,1483,1483,1483,1483,1483,1483,1483,1483,1483,1483,1483,1483,1483,1483,1483,1483,1483,0,
0,1483,1483,1483,1483,1483,1483,1483,1483,1483,1483,1483,1483,1483,1483,1483,1483,1483,1483,0,
0,1483,1483,1483,1483,1483,1483,1483,1483,1483,1483,1483,1483,1483,1483,1483,1483,1483,1483,0,
0,1483,1483,1483,1483,1483,1483,1483,1483,1483,1483,1483,1483,1483,1483,1483,1483,1483,1483,0,
0,1483,1483,1483,1483,1483,1483,1483,1483,1483,1483,1483,1483,1483,1483,1483,1483,1483,1483,0,
0,1483,1483,1483,1483,1483,1483,1483,1483,1483,1483,1483,1483,1483,1483,1483,1483,1483,1483,0,
0,1483,1483,1483,1483,1483,1483,1483,1483,1483,1483,1483,1483,1483,1483,1483,1483,1483,1483,0,
0,1483,1483,1483,1483,1483,1483,1483,1483,1483,1483,1483,1483,1483,1483,1483,1483,1483,1483,0,
0,1483,1483,1483,1483,1483,1483,1483,1483,1483,1483,1483,1483,1483,1483,1483,1483,1483,1483,0,
0,1483,1483,1483,1483,1483,1483,1483,1483,1483,1483,1483,1483,1483,1483,1483,1483,1483,1483,0,
0,1483,1483,1483,1483,1483,1483,1483,1483,1483,1483,1483,1483,1483,1483,1483,1483,1483,1483,0,
0,1483,1483,1483,1483,1483,1483,1483,1483,1483,1483,1483,1483,1483,1483,1483,1483,1483,1483,0,
0,1483,1483,1483,1483,1483,1483,1483,1483,1483,1483,1483,1483,1483,1483,1483,1483,1483,1483,0,
0,1483,1483,1483,1483,1483,1483,1483,1483,1483,1483,1483,1483,1483,1483,1483,1483,1483,1483,0,
0,1483,1483,1483,1483,1483,1483,1483,1483,1483,1483,1483,1483,1483,1483,1483,1483,1483,1483,0,
0,1483,1483,1483,1483,1483,1483,1483,1483,1483,1483,1483,1483,1483,1483,1483,1483,1483,1483,0,
0,1483,1483,1483,1483,1483,1483,1483,1483,1483,1483,1483,1483,1483,1483,1483,1483,1483,1483,0,
0,1483,1483,1483,1483,1483,1483,1483,1483,1483,1483,1483,1483,1483,1483,1483,1483,1483,1483,0,
0,1483,1483,1483,1483,1483,1483,1483,1483,1483,1483,1483,1483,1483,1483,1483,1483,1483,1483,0,
0,1483,1483,1483,1483,1483,1483,1483,1483,1483,1483,1483,1483,1483,1483,1483,1483,1483,1483,0,
0,1483,1483,1483,1483,1483,1483,1483,1483,1483,1483,1483,1483,1483,1483,1483,1483,1483,1483,0,
0,1483,1483,1483,1483,1483,1483,1483,1483,1483,1483,1483,1483,1483,1483,1483,1483,1483,1483,0,
0,1483,1483,1483,1483,1483,1483,1483,1483,1483,1483,1483,1483,1483,1483,1483,1483,1483,1483,0,
0,1483,1483,1483,1483,1483,1483,1483,1483,1483,1483,1483,1483,1483,1483,1483,1483,1483,1483,0,
0,1483,1483,1483,1483,1483,1483,1483,1483,1483,1483,1483,1483,1483,1483,1483,1483,1483,1483,0,
0,1483,1483,1483,1483,1483,1483,1483,1483,1483,1483,1483,1483,1483,1483,1483,1483,1483,1483,0,
0,1483,1483,1483,1483,1483,1483,1483,1483,1483,1483,1483,1483,1483,1483,1483,1483,1483,1483,0,
0,1483,1483,1483,1483,1483,1483,1483,1483,1483,1483,1483,1483,1483,1483,1483,1483,1483,1483,0,
0,1483,1483,1483,1483,1483,1483,1483,1483,1483,1483,1483,1483,1483,1483,1483,1483,1483,1483,0,
0,1483,1483,1483,1483,1483,1483,1483,1483,1483,1483,1483,1483,1483,1483,1483,1483,1483,1483,0,
0,1483,1483,1483,1483,1483,1483,1483,1483,1483,1483,1483,1483,1483,1483,1483,1483,1483,1483,0,
0,1483,1483,1483,1483,1483,1483,1483,1483,1483,1483,1483,1483,1483,1483,1483,1483,1483,1483,0,
0,1483,1483,1483,1483,1483,1483,1483,1483,1483,1483,1483,1483,1483,1483,1483,1483,1483,1483,0,
0,1483,1483,1483,1483,1483,1483,1483,1483,1483,1483,1483,1483,1483,1483,1483,1483,1483,1483,0,
0,1483,1483,1483,1483,1483,1483,1483,1483,1483,1483,1483,1483,1483,1483,1483,1483,1483,1483,0,
0,1483,1483,1483,1483,1483,1483,1483,1483,1483,1483,1483,1483,1483,1483,1483,1483,1483,1483,0,
0,1483,1483,1483,1483,1483,1483,1483,1483,1483,1483,1483,1483,1483,1483,1483,1483,1483,1483,0,
0,1483,1483,1483,1483,1483,1483,1483,1483,1483,1483,1483,1483,1483,1483,1483,1483,1483,1483,0,
0,1483,1483,1483,1483,1483,1483,1483,1483,1483,1483,1483,1483,1483,1483,1483,1483,1483,1483,0,
0,1483,1483,1483,1483,1483,1483,1483,1483,1483,1483,1483,1483,1483,1483,1483,1483,1483,1483,0,
0,1483,1483,1483,1483,1483,1483,1483,1483,1483,1483,1483,1483,1483,1483,1483,1483,1483,1483,0,
0,1483,1483,1483,1483,1483,1483,1483,1483,1483,1483,1483,1483,1483,1483,1483,1483,1483,1483,0,
0,1483,1483,1483,1483,1483,1483,1483,1483,1483,1483,1483,1483,1483,1483,1483,1483,1483,1483,0,
0,1483,1483,1483,1483,1483,1483,1483,1483,1483,1483,1483,1483,1483,1483,1483,1483,1483,1483,0,
0,1483,1483,1483,1483,1483,1483,1483,1483,1483,1483,1483,1483,1483,1483,1483,1483,1483,1483,0,
0,1483,1483,1483,1483,1483,1483,1483,1483,1483,1483,1483,1483,1483,1483,1483,1483,1483,1483,0,
0,1483,1483,1483,1483,1483,1483,1483,1483,1483,1483,1483,1483,1483,1483,1483,1483,1483,1483,0,
0,1483,1483,1483,1483,1483,1483,1483,1483,1483,1483,1483,1483,1483,1483,1483,1483,1483,1483,0,
0,1483,1483,1483,1483,1483,1483,1483,1483,1483,1483,1483,1483,1483,1483,1483,1483,1483,1483,0,
0,1483,1483,1483,1483,1483,1483,1483,1483,1483,1483,1483,1483,1483,1483,1483,1483,1483,1483,0,
0,1483,1483,1483,1483,1483,1483,1483,1483,1483,1483,1483,1483,1483,1483,1483,1483,1483,1483,0,
0,1483,1483,1483,1483,1483,1483,1483,1483,1483,1483,1483,1483,1483,1483,1483,1483,1483,1483,0,
0,1483,1483,1483,1483,1483,1483,1483,1483,1483,1483,1483,1483,1483,1483,1483,1483,1483,1483,0,
0,1483,1483,1483,1483,1483,1483,1483,1483,1483,1483,1483,1483,1483,1483,1483,1483,1483,1483,0,
0,0,0,0,0,0,0,0,1483,1483,1483,1483,0,0,0,0,0,0,0,0,
0,1483,1483,1483,1483,1483,1483,1483,1483,1483,1483,1483,1483,1483,1483,1483,1483,1483,1483,0,
0,1483,1483,1483,1483,1483,1483,1483,1483,1483,1483,1483,1483,1483,1483,1483,1483,1483,1483,0,
0,1483,1483,1483,1483,1483,1483,1483,1483,1483,1483,1483,1483,1483,1483,1483,1483,1483,1483,0,
0,1483,1483,1483,1483,1483,1483,1483,0,0,0,0,1483,1483,1483,1483,1483,1483,1483,0,
0,1483,1483,1483,1483,1483,1483,1483,0,0,0,0,1483,1483,1483,1483,1483,1483,1483,0,
0,1483,1483,1483,1483,1483,1483,1483,0,0,0,0,1483,1483,1483,1483,1483,1483,1483,0,
0,1483,1483,1483,1483,1483,1483,1483,0,0,0,0,1483,1483,1483,1483,1483,1483,1483,0,
0,1483,1483,1483,1483,1483,1483,1483,0,0,0,0,1483,1483,1483,1483,1483,1483,1483,0,
0,1483,1483,1483,1483,1483,1483,1483,0,0,0,0,1483,1483,1483,1483,1483,1483,1483,0
</data>
 </layer>
 <objectgroup color="#93ffed" id="9" name="objects_osc">
  <object id="32" name="texturescroller" x="80" y="0">
   <properties>
    <property name="base_tex" value="backgrounds/glow_purple_tile_oscillate"/>
    <property name="scroll_tex" value="backgrounds/perlin_noise_purple_looping"/>
    <property name="type" value="library"/>
   </properties>
   <point/>
  </object>
  <object id="250" name="tile_oscillate" x="40" y="240" width="720" height="2560">
   <properties>
    <property name="type" value="library"/>
   </properties>
  </object>
 </objectgroup>
 <layer id="7" name="tiles_2" width="20" height="70">
  <data encoding="csv">
0,0,0,0,0,0,0,0,0,0,0,0,0,0,0,0,0,0,0,0,
0,0,0,0,0,0,0,0,0,0,0,0,0,0,0,0,0,0,0,0,
0,0,0,0,0,0,0,0,0,0,0,0,0,0,0,0,0,0,0,0,
0,0,0,0,0,0,0,0,0,0,0,0,0,0,0,0,0,0,0,0,
0,0,0,0,0,0,0,0,0,0,0,0,0,0,0,0,0,0,0,0,
0,0,0,0,0,0,0,0,0,0,0,0,0,0,0,0,0,0,0,0,
0,0,0,0,0,0,0,1454,1455,1455,1455,1455,1456,0,0,0,0,0,0,0,
0,0,0,0,0,0,0,1464,1465,1465,1465,1465,1466,0,0,0,0,0,0,0,
0,0,0,0,0,0,0,1464,1465,1465,1465,1465,1466,0,0,0,0,0,0,0,
0,0,0,0,0,0,0,1464,1465,1465,1465,1465,1466,0,0,0,0,0,0,0,
0,0,0,0,0,0,0,1464,1465,1465,1465,1465,1466,0,0,0,0,0,0,0,
0,0,0,0,0,0,0,1464,1465,1465,1465,1465,1466,0,0,0,0,0,0,0,
0,0,0,0,0,0,0,1464,1465,1465,1465,1465,1466,0,0,0,0,0,0,0,
0,0,0,0,0,0,0,1464,1465,1465,1465,1465,1466,0,0,0,0,0,0,0,
0,0,0,0,0,0,0,1464,1465,1465,1465,1465,1466,0,0,0,0,0,0,0,
0,0,0,0,0,0,0,1464,1465,1465,1465,1465,1466,0,0,0,0,0,0,0,
0,0,0,0,0,0,0,1464,1465,1465,1465,1465,1466,0,0,0,0,0,0,0,
0,0,0,0,0,0,0,1464,1465,1465,1465,1465,1466,0,0,0,0,0,0,0,
0,0,0,0,0,0,0,1464,1465,1465,1465,1465,1466,0,0,0,0,0,0,0,
0,0,0,0,0,0,0,1464,1465,1465,1465,1465,1466,0,0,0,0,0,0,0,
0,0,0,0,0,0,0,1464,1465,1465,1465,1465,1466,0,0,0,0,0,0,0,
0,0,0,0,0,0,0,1464,1465,1465,1465,1465,1466,0,0,0,0,0,0,0,
0,0,0,0,0,0,0,1464,1465,1465,1465,1465,1466,0,0,0,0,0,0,0,
0,0,0,0,0,0,0,1464,1465,1465,1465,1465,1466,0,0,0,0,0,0,0,
0,0,0,0,0,0,0,1464,1465,1465,1465,1465,1466,0,0,0,0,0,0,0,
0,0,0,0,0,0,0,1464,1465,1465,1465,1465,1466,0,0,0,0,0,0,0,
0,0,0,0,0,0,0,1464,1465,1465,1465,1465,1466,0,0,0,0,0,0,0,
0,0,0,0,0,0,0,1464,1465,1465,1465,1465,1466,0,0,0,0,0,0,0,
0,0,0,0,0,0,0,1464,1465,1465,1465,1465,1466,0,0,0,0,0,0,0,
0,0,0,0,0,0,0,1464,1465,1465,1465,1465,1466,0,0,0,0,0,0,0,
0,0,0,0,0,0,0,1464,1465,1465,1465,1465,1466,0,0,0,0,0,0,0,
0,0,0,0,0,0,0,1464,1465,1465,1465,1465,1466,0,0,0,0,0,0,0,
0,0,0,0,0,0,0,1464,1465,1465,1465,1465,1466,0,0,0,0,0,0,0,
0,0,0,0,0,0,0,1464,1465,1465,1465,1465,1466,0,0,0,0,0,0,0,
0,0,0,0,0,0,0,1464,1465,1465,1465,1465,1466,0,0,0,0,0,0,0,
0,0,0,0,0,0,0,1464,1465,1465,1465,1465,1466,0,0,0,0,0,0,0,
0,0,0,0,0,0,0,1464,1465,1465,1465,1465,1466,0,0,0,0,0,0,0,
0,0,0,0,0,0,0,1464,1465,1465,1465,1465,1466,0,0,0,0,0,0,0,
0,0,0,0,0,0,0,1464,1465,1465,1465,1465,1466,0,0,0,0,0,0,0,
0,0,0,0,0,0,0,1464,1465,1465,1465,1465,1466,0,0,0,0,0,0,0,
0,0,0,0,0,0,0,1464,1465,1465,1465,1465,1466,0,0,0,0,0,0,0,
0,0,0,0,0,0,0,1464,1465,1465,1465,1465,1466,0,0,0,0,0,0,0,
0,0,0,0,0,0,0,1464,1465,1465,1465,1465,1466,0,0,0,0,0,0,0,
0,0,0,0,0,0,0,1464,1465,1465,1465,1465,1466,0,0,0,0,0,0,0,
0,0,0,0,0,0,0,1464,1465,1465,1465,1465,1466,0,0,0,0,0,0,0,
0,0,0,0,0,0,0,1464,1465,1465,1465,1465,1466,0,0,0,0,0,0,0,
0,0,0,0,0,0,0,1464,1465,1465,1465,1465,1466,0,0,0,0,0,0,0,
0,0,0,0,0,0,0,1464,1465,1465,1465,1465,1466,0,0,0,0,0,0,0,
0,0,0,0,0,0,0,1464,1465,1465,1465,1465,1466,0,0,0,0,0,0,0,
0,0,0,0,0,0,0,1464,1465,1465,1465,1465,1466,0,0,0,0,0,0,0,
0,0,0,0,0,0,0,1464,1465,1465,1465,1465,1466,0,0,0,0,0,0,0,
0,0,0,0,0,0,0,1464,1465,1465,1465,1465,1466,0,0,0,0,0,0,0,
0,0,0,0,0,0,0,1464,1465,1465,1465,1465,1466,0,0,0,0,0,0,0,
0,0,0,0,0,0,0,1464,1465,1465,1465,1465,1466,0,0,0,0,0,0,0,
0,0,0,0,0,0,0,1464,1465,1465,1465,1465,1466,0,0,0,0,0,0,0,
0,0,0,0,0,0,0,1474,1475,1475,1475,1475,1476,0,0,0,0,0,0,0,
0,0,0,0,0,0,1396,1395,1405,1386,1415,1395,1405,1405,0,0,0,0,0,0,
0,0,0,0,0,0,0,0,0,0,0,0,0,0,0,0,0,0,0,0,
0,0,0,0,0,0,0,0,0,0,0,0,0,0,0,0,0,0,0,0,
0,0,0,0,0,0,0,0,0,0,0,0,0,0,0,0,0,0,0,0,
0,0,0,0,0,0,0,0,0,0,0,0,0,0,0,0,0,0,0,0,
0,0,0,0,0,0,0,0,0,0,0,0,0,0,0,0,0,0,0,0,
0,0,0,0,0,0,0,0,0,0,0,0,0,0,0,0,0,0,0,0,
0,0,0,0,0,0,0,0,0,0,0,0,0,0,0,0,0,0,0,0,
0,0,0,0,0,0,0,0,0,0,0,0,0,0,0,0,0,0,0,0,
0,0,0,0,0,0,0,0,0,0,0,0,0,0,0,0,0,0,0,0,
0,0,0,0,0,0,0,0,0,0,0,0,0,0,0,0,0,0,0,0,
0,0,0,0,0,0,0,0,0,0,0,0,0,0,0,0,0,0,0,0,
0,0,0,0,0,0,0,0,0,0,0,0,0,0,0,0,0,0,0,0,
0,0,0,0,0,0,0,0,0,0,0,0,0,0,0,0,0,0,0,0
</data>
 </layer>
 <layer id="1" name="tiles_1" width="20" height="70">
  <data encoding="csv">
0,0,0,0,0,0,0,0,0,1414,1417,0,0,0,0,0,0,0,0,0,
0,0,0,0,0,0,0,0,0,1404,1417,0,0,0,0,0,0,0,0,0,
0,0,0,0,0,0,0,0,0,1414,1407,0,0,0,0,0,0,0,0,0,
0,0,0,0,0,0,0,1270,1272,1271,1271,1271,1273,0,0,0,0,0,0,0,
0,1270,1272,1271,1271,1271,1273,1290,1281,1291,1292,1292,1293,1270,1272,1272,1271,1271,1273,0,
0,1280,1282,1282,1282,1282,1283,1280,1282,1282,1282,1282,1283,1280,1282,1282,1282,1282,1283,0,
0,1235,1455,1236,1455,1455,1456,1176,1177,1177,1177,1177,1178,1238,1236,1236,1455,1455,1456,0,
0,1245,1246,1246,1249,1249,1250,1203,1204,1204,1204,1204,1205,1248,1246,1246,1249,1246,1466,0,
0,1248,1249,1246,1246,1246,1250,1203,1204,1204,1204,1204,1205,1464,1246,1246,1246,1465,1250,0,
0,1248,1246,1249,1246,1246,1250,1203,1204,1204,1204,1204,1205,1245,1465,1465,1465,1249,1247,0,
0,1464,1246,1246,1249,1249,1466,1203,1204,1204,1204,1204,1205,1248,1249,1249,1249,1249,1247,0,
0,1248,1249,1249,1246,1246,1250,1203,1204,1204,1204,1204,1205,1245,1246,1246,1246,1249,1250,0,
0,1464,1246,1465,1246,1246,1250,1203,1204,1204,1204,1204,1205,1464,1246,1246,1246,1465,1247,0,
0,1464,1249,1249,1246,1246,1466,1203,1204,1204,1204,1204,1205,1245,1249,1249,1249,1249,1250,0,
0,1248,1246,1249,1465,1465,1250,1203,1204,1204,1204,1204,1205,1248,1249,1249,1246,1465,1250,0,
0,1245,1249,1246,1465,1465,1250,1203,1204,1204,1204,1204,1205,1464,1249,1249,1249,1246,1247,0,
0,1464,1465,1249,1249,1249,1247,1203,1204,1204,1204,1204,1205,1248,1249,1249,1246,1246,1250,0,
0,1245,1465,1465,1249,1249,1250,1203,1204,1204,1204,1204,1205,1248,1249,1249,1246,1465,1247,0,
0,1245,1465,1249,1246,1246,1250,1203,1204,1204,1204,1204,1205,1245,1249,1249,1465,1249,1250,0,
0,1245,1249,1246,1249,1249,1466,1203,1204,1204,1204,1204,1205,1245,1465,1465,1249,1465,1250,0,
0,1245,1246,1249,1246,1246,1250,1203,1204,1204,1204,1204,1205,1464,1246,1246,1249,1249,1247,0,
0,1245,1246,1465,1249,1249,1250,1203,1204,1204,1204,1204,1205,1245,1246,1246,1249,1246,1247,0,
0,1248,1249,1246,1246,1246,1247,1203,1204,1204,1204,1204,1205,1464,1246,1246,1246,1246,1466,0,
0,1464,1465,1465,1246,1246,1250,1203,1204,1204,1204,1204,1205,1248,1246,1246,1465,1249,1250,0,
0,1245,1465,1465,1465,1465,1247,1203,1204,1204,1204,1204,1205,1248,1465,1465,1249,1246,1250,0,
0,1248,1249,1246,1246,1246,1466,1203,1204,1204,1204,1204,1205,1464,1246,1246,1246,1249,1466,0,
0,1245,1249,1246,1249,1249,1250,1203,1204,1204,1204,1204,1205,1245,1249,1249,1249,1465,1247,0,
0,1248,1465,1249,1465,1465,1250,1203,1204,1204,1204,1204,1205,1248,1246,1246,1246,1249,1247,0,
0,1248,1465,1249,1465,1465,1247,1203,1204,1204,1204,1204,1205,1464,1249,1249,1246,1249,1250,0,
0,1245,1465,1246,1246,1246,1247,1203,1204,1204,1204,1204,1205,1245,1465,1465,1465,1246,1250,0,
0,1248,1249,1249,1465,1465,1250,1203,1204,1204,1204,1204,1205,1464,1465,1465,1246,1249,1250,0,
0,1245,1246,1246,1249,1249,1250,1203,1204,1204,1204,1204,1205,1248,1246,1246,1249,1246,1466,0,
0,1248,1249,1246,1246,1246,1250,1203,1204,1204,1204,1204,1205,1464,1246,1246,1246,1465,1250,0,
0,1248,1246,1249,1246,1246,1250,1203,1204,1204,1204,1204,1205,1245,1465,1465,1465,1249,1247,0,
0,1464,1246,1246,1249,1249,1466,1203,1204,1204,1204,1204,1205,1248,1249,1249,1249,1249,1247,0,
0,1248,1249,1249,1246,1246,1250,1203,1204,1204,1204,1204,1205,1245,1246,1246,1246,1249,1250,0,
0,1464,1246,1465,1246,1246,1250,1203,1204,1204,1204,1204,1205,1464,1246,1246,1246,1465,1247,0,
0,1464,1249,1249,1246,1246,1466,1203,1204,1204,1204,1204,1205,1245,1249,1249,1249,1249,1250,0,
0,1248,1246,1249,1465,1465,1250,1203,1204,1204,1204,1204,1205,1248,1249,1249,1246,1465,1250,0,
0,1245,1249,1246,1465,1465,1250,1203,1204,1204,1204,1204,1205,1464,1249,1249,1249,1246,1247,0,
0,1464,1465,1249,1249,1249,1247,1203,1204,1204,1204,1204,1205,1248,1249,1249,1246,1246,1250,0,
0,1245,1465,1465,1249,1249,1250,1203,1204,1204,1204,1204,1205,1248,1249,1249,1246,1465,1247,0,
0,1245,1465,1249,1246,1246,1250,1203,1204,1204,1204,1204,1205,1245,1249,1249,1465,1249,1250,0,
0,1245,1249,1246,1249,1249,1466,1203,1204,1204,1204,1204,1205,1245,1465,1465,1249,1465,1250,0,
0,1245,1246,1249,1246,1246,1250,1203,1204,1204,1204,1204,1205,1464,1246,1246,1249,1249,1247,0,
0,1245,1246,1465,1249,1249,1250,1203,1204,1204,1204,1204,1205,1245,1246,1246,1249,1246,1247,0,
0,1248,1249,1246,1246,1246,1247,1203,1204,1204,1204,1204,1205,1464,1246,1246,1246,1246,1466,0,
0,1464,1465,1465,1246,1246,1250,1203,1204,1204,1204,1204,1205,1248,1246,1246,1465,1249,1250,0,
0,1245,1465,1465,1465,1465,1247,1203,1204,1204,1204,1204,1205,1248,1465,1465,1249,1246,1250,0,
0,1248,1249,1246,1246,1246,1466,1203,1204,1204,1204,1204,1205,1464,1246,1246,1246,1249,1466,0,
0,1245,1249,1246,1249,1249,1250,1203,1204,1204,1204,1204,1205,1245,1249,1249,1249,1465,1247,0,
0,1248,1465,1249,1465,1465,1250,1203,1204,1204,1204,1204,1205,1248,1246,1246,1246,1249,1247,0,
0,1248,1465,1249,1465,1465,1247,1203,1204,1204,1204,1204,1205,1464,1249,1249,1246,1249,1250,0,
0,1245,1465,1246,1246,1246,1247,1203,1204,1204,1204,1204,1205,1245,1465,1465,1465,1246,1250,0,
0,1248,1249,1249,1465,1465,1250,1203,1204,1204,1204,1204,1205,1464,1465,1465,1246,1249,1250,0,
0,1248,1465,1246,1246,1246,1247,1212,1213,1213,1213,1213,1214,1464,1246,1246,1465,1246,1250,0,
0,1258,1475,1259,1256,1256,1476,1221,1222,1222,1222,1222,1223,1258,1475,1475,1259,1256,1257,0,
0,1394,1405,1422,1412,1431,1421,1396,1421,1442,1431,1415,1396,1406,1386,1405,1406,1406,1407,0,
0,1404,1406,1421,1432,1441,1442,1405,1431,1422,1411,1396,1405,1396,1405,1396,1396,1386,1407,0,
0,1404,1386,1415,1386,1396,1406,1395,1395,1395,1386,1396,1442,1441,1411,1395,1406,1386,1397,0,
0,1444,1445,1445,1445,1445,1445,1446,1404,1415,1405,1407,1444,1445,1445,1445,1445,1445,1446,0,
0,1454,1455,1455,1455,1455,1455,1456,1414,1415,1396,1397,1454,1455,1455,1455,1455,1455,1456,0,
0,1464,1465,1465,1465,1465,1465,1466,1414,1386,1405,1417,1464,1465,1465,1465,1465,1465,1466,0,
0,1464,1465,1465,1465,1465,1465,1466,1404,1386,1406,1397,1464,1465,1465,1465,1465,1465,1466,0,
0,1464,1465,1465,1465,1465,1465,1466,1414,1396,1396,1417,1464,1465,1465,1465,1465,1465,1466,0,
0,1464,1465,1465,1465,1465,1465,1466,1414,1405,1406,1417,1464,1465,1465,1465,1465,1465,1466,0,
0,1464,1465,1465,1465,1465,1465,1466,1414,1386,1405,1417,1464,1465,1465,1465,1465,1465,1466,0,
0,1464,1465,1465,1465,1465,1465,1466,1404,1386,1406,1397,1464,1465,1465,1465,1465,1465,1466,0,
0,1464,1465,1465,1465,1465,1465,1466,1414,1386,1405,1417,1464,1465,1465,1465,1465,1465,1466,0,
0,1464,1465,1465,1465,1465,1465,1466,1404,1386,1406,1397,1464,1465,1465,1465,1465,1465,1466,0
</data>
 </layer>
 <layer id="12" name="props" width="20" height="70">
  <data encoding="csv">
0,0,0,0,0,0,0,0,0,0,0,0,0,0,0,0,0,0,0,0,
0,0,0,0,0,0,0,0,0,0,0,0,0,0,0,0,0,0,0,0,
0,0,0,0,0,0,0,0,0,0,0,0,0,0,0,0,0,0,0,0,
0,0,0,0,0,0,0,0,0,0,0,0,0,0,0,0,0,0,0,0,
0,0,0,0,0,0,0,0,0,0,0,0,0,0,0,0,0,0,0,0,
0,0,0,0,0,0,0,0,0,0,0,0,0,0,0,0,0,0,0,0,
0,0,0,0,0,0,0,0,0,0,0,0,0,0,0,0,0,0,0,0,
0,0,0,0,0,0,0,0,0,0,0,0,0,0,0,0,0,0,0,0,
0,0,0,0,0,0,0,0,0,0,0,0,0,0,0,0,0,0,0,0,
0,0,0,0,0,0,0,0,0,0,0,0,0,0,0,0,0,0,0,0,
0,0,0,0,0,0,0,0,0,0,0,0,0,0,0,0,0,0,0,0,
0,0,0,0,0,0,0,0,0,0,0,0,0,0,0,0,0,0,0,0,
0,0,0,0,0,0,0,0,0,0,0,0,0,0,0,0,0,0,0,0,
0,0,0,0,0,0,0,0,0,0,0,0,0,0,0,0,0,0,0,0,
0,0,0,0,0,0,0,0,0,0,0,0,0,0,0,0,0,0,0,0,
0,0,0,0,0,0,0,0,0,0,0,0,0,0,0,0,0,0,0,0,
0,0,0,0,0,0,0,0,0,0,0,0,0,0,0,0,0,0,0,0,
0,0,0,0,0,0,0,0,0,0,0,0,0,0,0,0,0,0,0,0,
0,0,0,0,0,0,0,0,0,0,0,0,0,0,0,0,0,0,0,0,
0,0,0,0,0,0,0,0,0,0,0,0,0,0,0,0,0,0,0,0,
0,0,0,0,0,0,0,0,0,0,0,0,0,0,0,0,0,0,0,0,
0,0,0,0,0,0,0,0,0,0,0,0,0,0,0,0,0,0,0,0,
0,0,0,0,0,0,0,0,0,0,0,0,0,0,0,0,0,0,0,0,
0,0,0,0,0,0,0,0,0,0,0,0,0,0,0,0,0,0,0,0,
0,0,0,0,0,0,0,0,0,0,0,0,0,0,0,0,0,0,0,0,
0,0,0,0,0,0,0,0,0,0,0,0,0,0,0,0,0,0,0,0,
0,0,0,0,0,0,0,0,0,0,0,0,0,0,0,0,0,0,0,0,
0,0,0,0,0,0,0,0,0,0,0,0,0,0,0,0,0,0,0,0,
0,0,0,0,0,0,0,0,0,0,0,0,0,0,0,0,0,0,0,0,
0,0,0,0,0,0,0,0,0,0,0,0,0,0,0,0,0,0,0,0,
0,0,0,0,0,0,0,0,0,0,0,0,0,0,0,0,0,0,0,0,
0,0,0,0,0,0,0,0,0,0,0,0,0,0,0,0,0,0,0,0,
0,0,0,0,0,0,0,0,0,0,0,0,0,0,0,0,0,0,0,0,
0,0,0,0,0,0,0,0,0,0,0,0,0,0,0,0,0,0,0,0,
0,0,0,0,0,0,0,0,0,0,0,0,0,0,0,0,0,0,0,0,
0,0,0,0,0,0,0,0,0,0,0,0,0,0,0,0,0,0,0,0,
0,0,0,0,0,0,0,0,0,0,0,0,0,0,0,0,0,0,0,0,
0,0,0,0,0,0,0,0,0,0,0,0,0,0,0,0,0,0,0,0,
0,0,0,0,0,0,0,0,0,0,0,0,0,0,0,0,0,0,0,0,
0,0,0,0,0,0,0,0,0,0,0,0,0,0,0,0,0,0,0,0,
0,0,0,0,0,0,0,0,0,0,0,0,0,0,0,0,0,0,0,0,
0,0,0,0,0,0,0,0,0,0,0,0,0,0,0,0,0,0,0,0,
0,0,0,0,0,0,0,0,0,0,0,0,0,0,0,0,0,0,0,0,
0,0,0,0,0,0,0,0,0,0,0,0,0,0,0,0,0,0,0,0,
0,0,0,0,0,0,0,0,0,0,0,0,0,0,0,0,0,0,0,0,
0,0,0,0,0,0,0,0,0,0,0,0,0,0,0,0,0,0,0,0,
0,0,0,0,0,0,0,0,0,0,0,0,0,0,0,0,0,0,0,0,
0,0,0,0,0,0,0,0,0,0,0,0,0,0,0,0,0,0,0,0,
0,0,0,0,0,0,0,0,0,0,0,0,0,0,0,0,0,0,0,0,
0,0,0,0,0,0,0,0,0,0,0,0,0,0,0,0,0,0,0,0,
0,0,0,0,0,0,0,0,0,0,0,0,0,0,0,0,0,0,0,0,
0,0,0,0,0,0,0,0,0,0,0,0,0,0,0,0,0,0,0,0,
0,0,0,0,0,0,0,0,0,0,0,0,0,0,0,0,0,0,0,0,
0,0,0,0,0,0,0,0,0,0,0,0,0,0,0,0,0,0,0,0,
0,0,0,0,0,0,0,0,0,0,0,0,0,0,0,0,0,0,0,0,
0,0,0,0,0,0,0,0,0,0,0,0,0,0,0,0,0,0,0,0,
0,0,0,0,0,0,0,0,0,0,0,0,0,0,0,0,0,0,0,0,
0,1304,0,1306,0,0,0,0,0,0,0,0,0,0,1324,0,0,1305,0,0,
0,0,0,1316,0,0,1334,0,0,0,0,0,0,0,0,0,1315,0,0,0,
0,0,1305,0,0,0,0,0,0,0,0,0,0,0,0,0,0,1314,0,0,
0,0,0,0,0,0,0,0,0,0,0,0,0,0,0,0,0,0,0,0,
0,0,0,0,0,0,0,0,1305,0,0,0,0,0,0,0,0,0,0,0,
0,0,0,0,0,0,0,0,0,0,0,0,0,0,0,0,0,0,0,0,
0,0,0,0,0,0,0,0,0,0,0,0,0,0,0,0,0,0,0,0,
0,0,0,0,0,0,0,0,0,0,0,0,0,0,0,0,0,0,0,0,
0,0,0,0,0,0,0,0,0,0,0,0,0,0,0,0,0,0,0,0,
0,0,0,0,0,0,0,0,0,0,0,0,0,0,0,0,0,0,0,0,
0,0,0,0,0,0,0,0,0,0,0,0,0,0,0,0,0,0,0,0,
0,0,0,0,0,0,0,0,0,0,0,0,0,0,0,0,0,0,0,0,
0,0,0,0,0,0,0,0,0,0,0,0,0,0,0,0,0,0,0,0
</data>
 </layer>
 <objectgroup id="4" name="collision">
  <object id="231" x="40" y="240" width="238" height="2040"/>
  <object id="232" x="522" y="240" width="238" height="2040"/>
  <object id="234" x="0" y="2280" width="40" height="120"/>
  <object id="235" x="40" y="2400" width="280" height="40"/>
  <object id="236" x="280" y="2440" width="40" height="360"/>
  <object id="237" x="480" y="2440" width="40" height="360"/>
  <object id="238" x="480" y="2400" width="280" height="40"/>
  <object id="239" x="760" y="2280" width="40" height="120"/>
  <object id="240" x="0" y="120" width="40" height="120"/>
  <object id="241" x="40" y="120" width="240" height="40"/>
  <object id="243" x="320" y="0" width="40" height="120"/>
  <object id="244" x="440" y="0" width="40" height="120"/>
  <object id="246" x="520" y="120" width="240" height="40"/>
  <object id="247" x="760" y="120" width="40" height="120"/>
  <object id="253" x="120" y="2314" width="40" height="46"/>
  <object id="269" x="480" y="80" width="40" height="40"/>
  <object id="270" x="280" y="80" width="40" height="40"/>
  <object id="283" name="collision_slidearea_a" x="280" y="480" width="240" height="40"/>
  <object id="284" name="collision_slidearea_b" x="280" y="880" width="240" height="40"/>
 </objectgroup>
 <objectgroup id="6" name="objects"/>
 <objectgroup id="5" name="markers">
  <object id="22" name="entry" x="400" y="80">
   <point/>
  </object>
  <object id="230" name="spawn" x="400" y="200">
   <point/>
  </object>
  <object id="263" name="entry2" x="400" y="2780">
   <point/>
  </object>
 </objectgroup>
 <objectgroup id="11" name="objects_shadow">
  <object id="261" gid="9" x="320" y="2800" width="320" height="280" rotation="270"/>
  <object id="262" gid="9" x="760" y="2800" width="320" height="280" rotation="270"/>
 </objectgroup>
 <objectgroup id="3" name="objects_party">
  <object id="18" name="transition" x="360" y="-40" width="80" height="40">
   <properties>
    <property name="map" value="1_2nd_sanctuary/second_sanctum_6"/>
    <property name="marker" value="entry2"/>
   </properties>
  </object>
  <object id="233" name="slidearea" x="280" y="240" width="240" height="2010"/>
  <object id="264" name="transition" x="320" y="2800" width="160" height="40">
   <properties>
    <property name="map" value="1_2nd_sanctuary/second_sanctum_8"/>
    <property name="marker" value="entry"/>
   </properties>
  </object>
  <object id="266" name="cameratarget" x="280" y="240" width="240" height="2010">
   <properties>
    <property name="lockx" type="bool" value="true"/>
    <property name="locky" type="bool" value="false"/>
    <property name="time" type="float" value="1"/>
   </properties>
  </object>
 </objectgroup>
 <objectgroup id="10" name="objects_fog">
  <object id="1" name="churchfog" x="40" y="0">
   <point/>
  </object>
 </objectgroup>
 <objectgroup id="2" name="objects_top">
  <object id="2" name="filter" x="0" y="0">
   <properties>
    <property name="type" value="hsv"/>
   </properties>
   <point/>
  </object>
 </objectgroup>
</map>
