<?xml version="1.0" encoding="UTF-8"?>
<map version="1.10" tiledversion="1.12.1" orientation="orthogonal" renderorder="right-down" width="20" height="50" tilewidth="40" tileheight="40" infinite="0" nextlayerid="10" nextobjectid="22">
 <editorsettings>
  <export target="data.lua" format="lua"/>
 </editorsettings>
 <properties>
  <property name="border" value="church_b"/>
  <property name="music" value="second_church"/>
 </properties>
 <tileset firstgid="1" source="../../../tilesets/bg_dw_church_2_tileset.tsx"/>
 <tileset firstgid="199" source="../../../tilesets/bg_dw_dither_overlay_tileset.tsx"/>
 <tileset firstgid="245" source="../../../tilesets/bg_dw_library_tileset_new.tsx"/>
 <tileset firstgid="1075" source="../../../tilesets/longslides.tsx"/>
 <layer id="1" name="Tile Layer 1" width="20" height="50">
  <data encoding="csv">
0,0,0,0,0,0,0,0,0,0,0,0,0,0,0,0,0,0,0,0,
0,0,0,0,0,0,0,0,0,0,0,0,0,0,0,0,0,0,0,0,
0,0,0,0,0,0,0,0,0,0,0,0,0,0,0,0,0,0,0,0,
0,0,0,0,0,0,0,0,0,0,0,0,0,0,0,0,0,0,0,0,
0,0,0,0,0,0,0,0,0,0,0,0,0,0,0,0,0,0,0,0,
0,0,0,0,0,0,0,0,0,0,0,0,0,0,0,0,0,0,0,0,
0,0,0,0,0,0,0,0,0,0,0,0,0,0,0,0,0,0,0,0,
0,0,0,0,0,0,0,0,0,0,0,0,0,0,0,0,0,0,0,0,
10,10,10,10,10,10,10,10,10,10,10,10,10,10,10,10,10,10,0,0,
10,10,10,10,10,10,10,10,10,10,10,10,10,10,10,10,10,10,0,0,
10,10,10,10,10,10,10,10,10,10,10,10,10,10,10,10,10,10,0,0,
28,28,28,28,10,10,10,10,10,10,10,10,10,10,10,10,10,10,0,0,
131,131,131,131,10,10,10,10,10,10,10,10,10,10,10,10,10,10,0,0,
0,0,0,0,28,28,28,0,0,248,248,248,248,0,0,28,28,28,0,0,
0,0,0,0,131,131,131,0,0,258,258,258,258,0,0,131,131,131,0,0,
0,0,0,0,0,0,0,0,0,268,268,268,268,0,0,0,0,0,0,0,
0,0,0,0,0,0,0,0,0,0,0,0,0,0,0,0,0,0,0,0,
0,0,0,0,0,0,0,0,0,0,0,0,0,0,0,0,0,0,0,0,
0,0,0,0,0,0,0,0,0,0,0,0,0,0,0,0,0,0,0,0,
0,0,0,0,0,0,0,0,0,0,0,0,0,0,0,0,0,0,0,0,
0,0,0,0,0,0,0,0,0,0,0,0,0,0,0,0,0,0,0,0,
0,0,0,0,0,0,0,0,0,0,0,0,0,0,0,0,0,0,0,0,
0,0,0,0,0,0,0,0,0,0,0,0,0,0,0,0,0,0,0,0,
0,0,0,0,0,0,0,0,0,0,0,0,0,0,0,0,0,0,0,0,
0,0,0,0,0,0,0,0,0,0,0,0,0,0,0,0,0,0,0,0,
0,0,0,0,0,0,0,0,0,0,0,0,0,0,0,0,0,0,0,0,
0,0,0,0,0,0,0,0,0,0,0,0,0,0,0,0,0,0,0,0,
0,0,0,0,0,0,0,0,0,0,0,0,0,0,0,0,0,0,0,0,
0,0,0,0,0,0,0,0,0,0,0,0,0,0,0,0,0,0,0,0,
0,0,0,0,0,0,0,0,0,0,0,0,0,0,0,0,0,0,0,0,
0,0,0,0,0,0,0,0,0,0,0,0,0,0,0,0,0,0,0,0,
0,0,0,0,0,0,0,0,0,0,0,0,0,0,0,0,0,0,0,0,
0,0,0,0,0,0,0,0,0,0,0,0,0,0,0,0,0,0,0,0,
0,0,0,0,0,0,0,0,0,0,0,0,0,0,0,0,0,0,0,0,
0,0,0,0,0,0,0,0,0,0,0,0,0,0,0,0,0,0,0,0,
0,0,0,0,0,0,0,0,0,0,0,0,0,0,0,0,0,0,0,0,
0,0,0,0,0,0,0,0,0,0,0,0,0,0,0,0,0,0,0,0,
0,0,0,0,0,0,0,0,0,0,0,0,0,0,0,0,0,0,0,0,
0,0,0,0,0,0,0,0,0,0,0,0,0,0,0,0,0,0,0,0,
0,0,0,0,0,0,0,0,0,0,0,0,0,0,0,0,0,0,0,0,
0,0,0,0,0,0,0,0,0,0,0,0,0,0,0,0,0,0,0,0,
0,0,0,0,0,0,0,0,0,0,0,0,0,0,0,0,0,0,0,0,
0,0,0,0,0,0,0,0,246,0,248,0,246,0,0,0,0,0,0,0,
0,0,0,0,0,0,0,0,256,0,258,0,256,0,248,0,0,0,0,0,
0,0,0,0,0,0,0,246,266,248,268,246,266,247,258,0,0,0,0,0,
0,0,0,0,0,0,0,256,246,258,247,256,248,257,268,0,0,0,0,0,
0,0,0,0,0,0,0,266,256,268,257,266,258,267,246,0,0,0,0,0,
0,0,0,0,0,0,0,845,266,845,267,845,268,845,256,0,0,0,0,0,
0,0,0,0,0,0,0,338,339,339,339,339,339,339,340,0,0,0,0,0,
0,0,0,0,0,0,0,348,349,349,349,349,349,349,350,0,0,0,0,0
</data>
 </layer>
 <layer id="2" name="Tile Layer 2" width="20" height="50">
  <data encoding="csv">
0,0,0,0,0,0,0,0,0,0,0,0,0,0,0,0,0,0,0,0,
0,0,0,0,0,0,0,0,0,0,0,0,0,0,0,0,0,0,0,0,
0,0,0,0,0,0,0,0,0,0,0,0,0,0,0,0,0,0,0,0,
0,0,0,0,0,0,0,0,0,0,0,0,0,0,0,0,0,0,0,0,
0,0,0,0,0,0,0,0,0,0,0,0,0,0,0,0,0,0,0,0,
0,0,0,0,0,0,0,0,0,0,0,0,0,0,0,0,0,0,0,0,
0,0,0,0,0,0,0,0,0,0,0,0,0,0,0,0,0,0,0,0,
0,0,0,0,0,0,0,0,0,0,0,0,0,0,0,0,0,0,0,0,
0,0,0,0,0,0,0,0,0,0,0,0,0,0,0,0,0,0,0,0,
0,0,0,0,0,0,0,0,0,0,0,0,0,0,0,0,0,0,0,0,
0,0,0,0,0,0,0,0,0,0,0,0,0,0,0,0,0,0,0,0,
0,0,0,0,0,0,0,0,0,0,0,0,0,0,0,0,0,0,0,0,
208,208,208,208,0,0,0,0,0,0,0,0,0,0,0,0,0,0,0,0,
0,0,0,0,0,0,0,651,653,1078,1079,1079,1080,651,653,0,0,0,0,0,
0,0,0,0,208,208,208,661,663,1087,1088,1088,1089,661,663,208,208,208,0,0,
0,0,0,0,0,0,0,671,673,1096,1097,1097,1098,671,673,0,0,0,0,0,
0,0,0,0,0,0,0,671,673,1096,1097,1097,1098,671,673,0,0,0,0,0,
0,0,0,0,0,0,0,671,673,1096,1097,1097,1098,671,673,0,0,0,0,0,
0,0,0,0,0,0,0,671,673,1096,1097,1097,1098,671,673,0,0,0,0,0,
0,0,0,0,0,0,0,671,673,1096,1097,1097,1098,671,673,0,0,0,0,0,
0,0,0,0,0,0,0,671,673,1096,1097,1097,1098,671,673,0,0,0,0,0,
0,0,0,0,0,0,0,671,673,1096,1097,1097,1098,671,673,0,0,0,0,0,
0,0,0,0,0,0,0,671,673,1096,1097,1097,1098,671,673,0,0,0,0,0,
0,0,0,0,0,0,0,671,673,1096,1097,1097,1098,671,673,0,0,0,0,0,
0,0,0,0,0,0,0,671,673,1096,1097,1097,1098,671,673,0,0,0,0,0,
0,0,0,0,0,0,0,671,673,1096,1097,1097,1098,671,673,0,0,0,0,0,
0,0,0,0,0,0,0,671,673,1096,1097,1097,1098,671,673,0,0,0,0,0,
0,0,0,0,0,0,0,671,673,1096,1097,1097,1098,671,673,0,0,0,0,0,
0,0,0,0,0,0,0,671,673,1096,1097,1097,1098,671,673,0,0,0,0,0,
0,0,0,0,0,0,0,671,673,1096,1097,1097,1098,671,673,0,0,0,0,0,
0,0,0,0,0,0,0,671,673,1096,1097,1097,1098,671,673,0,0,0,0,0,
0,0,0,0,0,0,0,671,673,1096,1097,1097,1098,671,673,0,0,0,0,0,
0,0,0,0,0,0,0,671,673,1096,1097,1097,1098,671,673,0,0,0,0,0,
0,0,0,0,0,0,0,671,673,1096,1097,1097,1098,671,673,0,0,0,0,0,
0,0,0,0,0,0,0,671,673,1096,1097,1097,1098,671,673,0,0,0,0,0,
0,0,0,0,0,0,0,671,673,1096,1097,1097,1098,671,673,0,0,0,0,0,
0,0,0,0,0,0,0,671,673,1096,1097,1097,1098,671,673,0,0,0,0,0,
0,0,0,0,0,0,0,671,673,1096,1097,1097,1098,671,673,0,0,0,0,0,
0,0,0,0,0,0,0,671,673,1096,1097,1097,1098,671,673,0,0,0,0,0,
0,0,0,0,0,0,0,671,673,1096,1097,1097,1098,671,673,0,0,0,0,0,
0,0,0,0,0,0,0,671,673,1096,1097,1097,1098,671,673,0,0,0,0,0,
0,0,0,0,0,0,0,671,673,1096,1097,1097,1098,671,673,0,0,0,0,0,
0,0,0,0,0,0,0,671,673,1096,1097,1097,1098,671,673,0,0,0,0,0,
0,0,0,0,0,0,0,351,353,1114,1115,1115,1116,351,353,0,0,0,0,0,
0,0,0,0,0,0,0,0,0,1123,1124,1124,1125,0,0,0,0,0,0,0,
0,0,0,0,0,0,0,0,0,0,0,0,0,0,0,0,0,0,0,0,
0,0,0,0,0,0,0,0,0,0,0,0,0,0,0,0,0,0,0,0,
0,0,0,0,0,0,0,0,0,0,0,0,0,0,0,0,0,0,0,0,
0,0,0,0,0,0,0,0,0,0,0,0,0,0,0,0,0,0,0,0,
0,0,0,0,0,0,0,208,208,208,208,208,208,208,208,0,0,0,0,0
</data>
 </layer>
 <objectgroup id="8" name="objects_osc">
  <object id="19" name="texturescroller" x="80" y="0">
   <properties>
    <property name="base_tex" value="backgrounds/glow_purple_tile_oscillate"/>
    <property name="scroll_tex" value="backgrounds/perlin_noise_purple_looping"/>
    <property name="type" value="library"/>
   </properties>
   <point/>
  </object>
  <object id="20" name="texturescroller" x="120" y="0">
   <properties>
    <property name="type" value="hsv"/>
   </properties>
   <point/>
  </object>
 </objectgroup>
 <objectgroup id="3" name="objects">
  <object id="9" name="script" x="280" y="1840" width="320" height="40">
   <properties>
    <property name="cutscene" value="events.travel_unlock"/>
   </properties>
  </object>
  <object id="15" name="transition" x="-40" y="320" width="40" height="120">
   <properties>
    <property name="map" value="2_2nd_sanctuary/second_sanctum_12"/>
    <property name="marker" value="entry2"/>
   </properties>
  </object>
  <object id="16" name="slidearea" x="360" y="520" width="160" height="1240"/>
 </objectgroup>
 <objectgroup id="4" name="markers">
  <object id="10" name="kristo" x="408" y="1880">
   <point/>
  </object>
  <object id="11" name="susieto" x="472" y="1880">
   <point/>
  </object>
  <object id="12" name="ralseito" x="534" y="1840">
   <point/>
  </object>
  <object id="13" name="jammto" x="346" y="1840">
   <point/>
  </object>
  <object id="14" name="entry" x="40" y="380">
   <point/>
  </object>
 </objectgroup>
 <objectgroup id="5" name="collision">
  <object id="1" x="0" y="440" width="160" height="1560"/>
  <object id="2" x="160" y="520" width="120" height="1480"/>
  <object id="3" x="280" y="1920" width="320" height="80"/>
  <object id="4" x="600" y="520" width="200" height="1480"/>
  <object id="5" x="520" y="520" width="80" height="1240"/>
  <object id="6" x="280" y="520" width="80" height="1240"/>
  <object id="7" x="720" y="320" width="80" height="200"/>
  <object id="8" x="0" y="0" width="800" height="320"/>
 </objectgroup>
 <objectgroup id="9" name="objects_darkness">
  <object id="21" name="darkness" x="160" y="0">
   <properties>
    <property name="alpha" type="float" value="0.23"/>
    <property name="highlight" type="bool" value="true"/>
   </properties>
   <point/>
  </object>
 </objectgroup>
 <objectgroup id="7" name="objects_fog">
  <object id="18" name="churchfog" x="40" y="0">
   <point/>
  </object>
 </objectgroup>
 <objectgroup id="6" name="objects_top">
  <object id="17" name="filter" x="0" y="0">
   <properties>
    <property name="type" value="hsv"/>
   </properties>
   <point/>
  </object>
 </objectgroup>
</map>
