<?xml version="1.0" encoding="UTF-8"?>
<map version="1.11" tiledversion="1.12.2" orientation="orthogonal" renderorder="right-down" width="26" height="16" tilewidth="40" tileheight="40" infinite="0" nextlayerid="13" nextobjectid="53">
 <editorsettings>
  <export target="data.lua" format="lua"/>
 </editorsettings>
 <properties>
  <property name="border" value="church_d"/>
  <property name="music" value="tiling"/>
 </properties>
 <tileset firstgid="1" source="../../../tilesets/bg_dw_library_tileset_new.tsx"/>
 <tileset firstgid="831" source="../../../tilesets/bg_dw_dither_overlay_tileset.tsx"/>
 <tileset firstgid="877" source="../../../tilesets/church_objects.tsx"/>
 <tileset firstgid="986" source="../../../tilesets/bg_dw_church_tileset_new.tsx"/>
 <objectgroup id="12" name="objects_bg2" parallaxx="0.2">
  <object id="44" gid="881" x="200" y="1280" width="640" height="1600">
   <properties>
    <property name="color" type="color" value="#ffc927ff"/>
   </properties>
  </object>
  <object id="45" gid="878" x="560" y="1280" width="200" height="1240">
   <properties>
    <property name="color" type="color" value="#ffc927ff"/>
   </properties>
  </object>
 </objectgroup>
 <objectgroup id="10" name="objects_bg1" parallaxx="0.5">
  <object id="39" gid="877" x="-240" y="1000" width="400" height="578"/>
  <object id="40" gid="877" x="160" y="1000" width="400" height="578"/>
  <object id="41" gid="877" x="560" y="1000" width="400" height="578"/>
 </objectgroup>
 <layer id="2" name="Tile Layer 2" width="26" height="16">
  <data encoding="csv">
0,0,0,0,0,0,0,0,0,0,0,0,0,0,0,0,0,0,0,0,0,0,0,0,0,0,
0,0,0,0,0,0,0,0,0,0,0,0,0,0,0,0,0,0,0,0,0,0,0,0,0,0,
0,0,0,0,0,0,0,0,0,0,0,0,0,0,0,0,0,0,0,0,0,0,0,0,0,0,
0,0,0,0,0,0,0,769,770,769,770,769,770,769,770,769,770,769,770,0,0,0,0,0,0,0,
0,0,0,0,0,0,0,789,790,789,790,789,790,789,790,789,790,789,790,0,0,0,0,0,0,0,
0,0,0,0,0,0,0,819,820,819,820,819,820,819,820,819,820,819,820,0,0,0,0,0,0,0,
779,780,779,780,779,780,0,829,830,829,830,829,830,829,830,829,830,829,830,0,0,0,0,0,0,0,
779,780,779,780,779,780,748,748,748,748,748,748,748,748,748,748,748,748,748,0,0,0,0,0,0,0,
779,780,779,780,779,780,0,748,748,748,748,748,748,748,748,748,748,748,748,0,0,0,0,0,0,0,
789,789,789,790,789,790,0,748,748,748,748,748,748,748,748,748,748,748,748,0,0,0,0,0,0,0,
0,0,0,0,0,0,0,0,0,0,0,0,0,0,0,0,0,0,0,0,0,0,0,0,0,0,
0,0,0,0,0,0,0,0,0,0,0,0,0,0,0,0,0,0,0,0,0,0,0,0,0,0,
0,0,0,0,0,0,0,0,0,0,0,0,0,0,0,0,0,0,0,0,0,0,0,0,0,0,
0,0,0,0,0,0,0,0,0,0,0,0,0,0,0,0,0,0,0,0,0,0,0,0,0,0,
0,0,0,0,0,0,0,0,0,0,0,0,0,0,0,0,0,0,0,0,0,0,0,0,0,0,
0,0,0,0,0,0,0,0,0,0,0,0,0,0,0,0,0,0,0,0,0,0,0,0,0,0
</data>
 </layer>
 <layer id="1" name="Tile Layer 1" width="26" height="16">
  <data encoding="csv">
0,0,0,0,0,0,0,0,0,0,0,0,0,0,0,0,0,0,0,0,0,0,0,0,0,0,
0,0,0,0,0,0,0,0,0,0,0,0,0,0,0,0,0,0,0,0,0,0,0,0,0,0,
0,0,0,0,0,0,0,0,0,0,0,0,0,0,0,0,0,0,0,0,0,0,0,0,0,0,
0,0,0,0,0,0,0,0,0,0,0,0,0,0,0,0,0,0,0,0,0,0,0,0,0,0,
0,0,0,0,0,0,0,0,0,0,0,0,0,0,0,0,0,0,0,0,0,0,0,0,0,0,
0,0,0,0,0,0,0,0,0,0,0,0,0,0,0,0,0,0,0,0,0,0,0,0,0,0,
0,0,0,0,0,0,781,0,0,0,0,0,0,0,0,0,0,0,0,781,0,0,0,0,0,0,
0,0,0,0,0,0,791,0,0,0,0,0,0,0,0,0,0,0,0,791,0,0,0,0,0,0,
0,0,0,0,0,0,801,0,0,0,0,0,0,0,748,748,748,748,748,801,0,0,0,0,0,0,
745,746,746,746,746,747,811,748,748,748,748,748,748,748,748,748,748,748,748,811,745,746,746,746,0,0,
748,748,748,748,748,748,748,748,748,748,748,748,748,748,748,748,748,748,748,748,748,748,748,728,0,0,
748,748,748,748,748,748,748,748,748,748,748,748,748,748,748,748,748,748,748,748,748,748,748,738,0,0,
765,766,766,766,766,766,766,748,748,748,748,748,748,748,748,748,748,748,748,766,766,766,766,766,0,0,
0,0,0,0,0,0,0,766,766,748,748,748,748,748,748,748,748,766,766,0,0,0,0,0,0,0,
0,0,0,0,0,0,0,0,0,766,766,766,766,766,766,766,766,0,0,0,0,0,0,0,0,0,
0,0,0,0,0,0,0,0,0,0,0,0,0,0,0,0,0,0,0,0,0,0,0,0,0,0
</data>
 </layer>
 <objectgroup id="8" name="collision">
  <object id="2" x="240" y="240" width="40" height="160"/>
  <object id="4" x="760" y="240" width="40" height="160"/>
  <object id="5" x="280" y="240" width="520" height="40"/>
  <object id="6" x="0" y="360" width="240" height="40"/>
  <object id="7" x="0" y="480" width="280" height="80"/>
  <object id="8" x="280" y="520" width="80" height="120"/>
  <object id="9" x="360" y="560" width="320" height="80"/>
  <object id="10" x="680" y="520" width="80" height="120"/>
  <object id="11" x="760" y="480" width="280" height="160"/>
  <object id="12" x="800" y="320" width="240" height="80"/>
  <object id="17" x="960" y="320" width="80" height="200"/>
  <object id="46" x="623" y="190" width="110" height="110"/>
  <object id="47" x="400" y="440">
   <point/>
  </object>
  <object id="48" x="480" y="440">
   <point/>
  </object>
  <object id="49" x="560" y="440">
   <point/>
  </object>
  <object id="50" x="640" y="440">
   <point/>
  </object>
 </objectgroup>
 <objectgroup id="7" name="objects_under_party"/>
 <objectgroup id="6" name="objects_party">
  <object id="24" gid="917" x="451" y="280" width="140" height="68"/>
  <object id="26" gid="962" x="590" y="240" width="26" height="36"/>
  <object id="35" name="interactable" gid="980" x="600" y="300" width="156" height="80">
   <properties>
    <property name="color" type="color" value="#ffffe100"/>
    <property name="cutscene" value="breaks.one"/>
    <property name="solid" type="bool" value="true"/>
    <property name="usetile" type="bool" value="true"/>
   </properties>
  </object>
  <object id="52" name="interactable" x="960" y="280" width="80" height="240">
   <properties>
    <property name="cutscene" value="finale.demoend"/>
   </properties>
  </object>
 </objectgroup>
 <layer id="5" name="Tile Layer 4" width="26" height="16">
  <data encoding="csv">
0,0,0,0,0,0,0,0,0,0,0,0,0,0,0,0,0,0,0,0,0,0,0,0,0,0,
0,0,0,0,0,0,745,746,746,746,747,745,746,746,747,745,746,746,746,747,0,0,0,0,0,0,
0,0,0,0,0,0,755,756,756,756,757,755,756,756,757,755,756,756,756,757,0,0,0,0,0,0,
745,746,746,746,746,747,765,766,766,766,767,765,766,766,767,765,766,766,766,767,0,0,0,0,0,0,
755,756,756,756,756,757,771,1401,1402,1402,1402,1402,1402,1402,1402,1402,1402,1402,1403,771,0,0,0,0,0,0,
765,766,766,766,766,767,781,1407,1408,0,0,0,0,0,0,0,0,783,1409,781,0,0,0,0,0,0,
772,773,774,772,773,774,0,1413,1414,0,0,0,0,0,0,0,0,0,1415,0,0,0,0,0,0,0,
782,783,784,782,783,784,0,0,803,0,0,0,0,0,0,0,0,0,0,0,0,0,0,0,0,0,
792,793,794,792,793,794,0,0,813,0,0,0,0,0,0,0,0,0,0,0,0,0,0,0,0,0,
802,803,804,802,803,804,0,0,0,0,0,0,0,0,0,0,0,0,0,0,0,0,0,0,0,0,
812,813,814,812,813,814,0,0,0,0,0,0,0,0,0,0,0,0,0,0,0,0,0,0,0,0,
822,823,824,822,823,824,0,0,0,0,0,0,0,0,0,0,0,0,0,0,0,0,0,0,0,0,
0,0,0,0,0,0,0,0,0,0,0,0,0,0,0,0,0,0,0,0,0,0,0,0,0,0,
0,0,0,0,0,0,0,0,0,0,0,0,0,0,0,0,0,0,0,0,0,0,0,0,0,0,
0,0,0,0,0,0,0,0,0,0,0,0,0,0,0,0,0,0,0,0,0,0,0,0,0,0,
0,0,0,0,0,0,0,0,0,0,0,0,0,0,0,0,0,0,0,0,0,0,0,0,0,0
</data>
 </layer>
 <layer id="3" name="Tile Layer 3" width="26" height="16">
  <data encoding="csv">
0,0,0,0,0,0,0,0,0,0,0,0,0,0,0,0,0,0,0,0,0,0,0,0,0,0,
0,0,0,0,0,0,0,0,0,0,0,0,0,0,0,0,0,0,0,0,0,0,0,0,0,0,
0,0,0,0,0,0,0,0,0,0,0,0,0,0,0,0,0,0,0,0,0,0,0,0,0,0,
0,0,0,0,0,0,0,0,0,0,0,0,0,0,0,0,0,0,0,0,0,0,0,0,0,0,
0,0,0,0,0,0,0,358,359,358,359,0,0,0,0,358,359,358,359,0,0,0,0,0,0,0,
0,0,0,0,0,0,0,368,369,368,369,0,0,0,0,368,369,368,369,0,0,0,0,0,0,0,
0,0,0,0,0,0,0,0,0,0,0,0,0,0,0,0,0,0,0,0,0,0,0,0,0,0,
0,0,0,0,0,0,0,0,0,0,0,0,0,0,0,0,0,0,0,0,0,0,0,0,0,0,
0,0,0,0,0,0,0,0,0,0,0,0,0,0,0,0,0,0,0,0,0,0,0,0,0,0,
0,0,0,0,0,0,0,0,0,0,0,0,0,0,0,0,0,0,0,0,0,0,0,0,0,0,
0,0,0,0,0,0,0,0,0,0,0,0,0,0,0,0,0,0,0,0,0,0,0,0,0,0,
0,0,0,0,0,0,0,0,0,0,0,0,0,0,0,0,0,0,0,0,0,0,0,0,0,0,
0,0,0,0,0,0,0,0,0,0,0,0,0,0,0,0,0,0,0,0,0,0,0,0,0,0,
0,0,0,0,0,0,0,0,0,0,0,0,0,0,0,0,0,0,0,0,0,0,0,0,0,0,
0,0,0,0,0,0,0,0,0,0,0,0,0,0,0,0,0,0,0,0,0,0,0,0,0,0,
0,0,0,0,0,0,0,0,0,0,0,0,0,0,0,0,0,0,0,0,0,0,0,0,0,0
</data>
 </layer>
 <objectgroup id="9" name="objects_top">
  <object id="13" name="churchfog" x="-155.333" y="16">
   <point/>
  </object>
  <object id="14" name="filter" x="-115.333" y="16">
   <properties>
    <property name="type" value="hsv3"/>
   </properties>
   <point/>
  </object>
 </objectgroup>
</map>
