<?xml version="1.0" encoding="UTF-8"?>
<map version="1.11" tiledversion="1.12.2" orientation="orthogonal" renderorder="right-down" width="20" height="40" tilewidth="40" tileheight="40" infinite="0" nextlayerid="17" nextobjectid="89">
 <editorsettings>
  <export target="data.lua" format="lua"/>
 </editorsettings>
 <properties>
  <property name="border" value="church_d"/>
  <property name="music" value="fourth_church"/>
 </properties>
 <tileset firstgid="1" source="../../../tilesets/bg_dw_church_2_tileset.tsx"/>
 <tileset firstgid="199" source="../../../tilesets/bg_dw_church_tileset_new.tsx"/>
 <tileset firstgid="781" source="../../../tilesets/church_objects.tsx"/>
 <tileset firstgid="890" source="../../../tilesets/bg_dw_library_tileset_new.tsx"/>
 <objectgroup id="14" name="objects_bg_higher" parallaxx="0.1" parallaxy="0.4">
  <object id="81" gid="781" x="-360" y="840" width="400" height="578">
   <properties>
    <property name="color" type="color" value="#ff686868"/>
   </properties>
  </object>
  <object id="82" gid="781" x="40" y="840" width="400" height="578">
   <properties>
    <property name="color" type="color" value="#ff686868"/>
   </properties>
  </object>
  <object id="83" gid="781" x="440" y="840" width="400" height="578">
   <properties>
    <property name="color" type="color" value="#ff686868"/>
   </properties>
  </object>
 </objectgroup>
 <objectgroup id="15" name="objects_bg_2" parallaxx="0.2" parallaxy="0.4">
  <object id="85" gid="813" x="-120" y="40" width="960" height="100" rotation="30"/>
 </objectgroup>
 <objectgroup id="12" name="objects_bg" parallaxx="0.3" parallaxy="0.6">
  <object id="80" gid="785" x="120" y="1320" width="640" height="1600">
   <properties>
    <property name="color" type="color" value="#ff838383"/>
   </properties>
  </object>
 </objectgroup>
 <layer id="16" name="Tile Layer 4" width="20" height="40">
  <data encoding="csv">
0,0,0,0,0,0,0,0,0,0,0,0,0,0,0,0,0,0,0,0,
0,0,0,0,0,0,0,0,0,0,0,0,0,0,0,0,0,0,0,0,
0,0,0,0,0,0,0,0,0,0,0,0,0,0,0,0,0,0,0,0,
0,0,0,0,0,0,0,0,0,0,0,0,0,0,0,0,0,0,0,0,
0,0,0,0,0,0,0,0,0,1660,314,1660,0,0,0,0,0,0,0,0,
0,0,0,0,0,0,0,0,0,1670,0,1670,0,0,0,0,0,0,0,0,
0,0,0,0,0,0,0,0,0,1680,0,1690,0,0,0,0,0,0,0,0,
0,0,0,0,0,0,0,0,0,1690,0,1690,0,0,0,0,0,0,0,0,
0,0,0,0,0,0,0,0,0,1690,0,1690,0,0,0,0,0,0,0,0,
0,0,0,0,0,0,0,0,0,1690,0,1690,0,0,0,0,0,0,0,0,
0,0,0,0,0,0,0,0,0,1690,0,1690,0,0,0,0,0,0,0,0,
0,0,0,0,0,0,0,0,0,1690,0,1690,0,0,0,0,0,0,0,0,
0,0,0,0,0,0,0,0,0,1700,0,1690,0,0,0,0,0,0,0,0,
0,0,0,0,0,0,0,0,0,0,0,1690,0,0,0,0,0,0,0,0,
0,0,0,0,0,0,0,0,0,0,0,1690,0,0,0,0,0,0,0,0,
0,0,0,0,0,0,0,0,0,0,0,1690,0,0,0,0,0,0,0,0,
0,0,0,0,0,0,0,0,0,0,0,1690,0,0,0,0,0,0,0,0,
0,0,0,0,0,0,0,0,0,0,0,1690,0,0,0,0,0,0,0,0,
0,0,0,0,0,0,0,0,0,0,0,1690,0,0,0,0,0,0,0,0,
0,0,0,0,0,0,0,0,0,0,0,1690,0,0,0,0,0,0,0,0,
0,0,0,0,0,0,0,0,0,0,0,1700,0,0,0,0,0,0,0,0,
0,0,0,0,0,0,0,0,0,0,0,0,0,0,0,0,0,0,0,0,
0,0,0,0,0,0,0,0,0,0,0,0,0,0,0,0,0,0,0,0,
0,0,0,0,0,0,0,0,0,0,0,0,0,0,0,0,0,0,0,0,
0,0,0,0,0,0,0,0,0,0,0,0,0,0,0,0,0,0,0,0,
0,0,0,0,0,0,0,0,0,0,0,0,0,0,0,0,0,0,0,0,
0,0,0,0,0,0,0,0,0,0,0,0,0,0,0,0,0,0,0,0,
0,0,0,0,0,0,0,0,0,0,0,0,0,0,0,0,0,0,0,0,
0,0,0,0,0,0,0,0,0,0,0,0,0,0,0,0,0,0,0,0,
0,0,0,0,0,0,0,0,0,0,0,0,0,0,0,0,0,0,0,0,
0,0,0,0,0,0,0,0,0,0,0,0,0,0,0,0,0,0,0,0,
0,0,0,0,0,0,0,0,0,0,0,0,0,0,0,0,0,0,0,0,
0,0,0,0,0,0,0,0,0,0,0,0,0,0,0,0,0,0,0,0,
0,0,0,0,0,0,0,0,0,0,0,0,0,0,0,0,0,0,0,0,
0,0,0,0,0,0,0,0,0,0,0,0,0,0,0,0,0,0,0,0,
0,0,0,0,0,0,0,0,0,0,0,0,0,0,0,0,0,0,0,0,
0,0,0,0,0,0,0,0,0,0,0,0,0,0,0,0,0,0,0,0,
0,0,0,0,0,0,0,0,0,0,0,0,0,0,0,0,0,0,0,0,
0,0,0,0,0,0,0,0,0,0,0,0,0,0,0,0,0,0,0,0,
0,0,0,0,0,0,0,0,0,0,0,0,0,0,0,0,0,0,0,0
</data>
 </layer>
 <layer id="2" name="Tile Layer 2" width="20" height="40">
  <data encoding="csv">
0,0,0,0,0,0,0,0,0,1644,1645,1646,0,0,0,0,0,0,0,0,
0,0,0,0,0,0,0,0,0,1644,1645,1646,0,0,0,0,0,0,0,0,
0,0,0,0,0,0,0,0,0,1644,1645,1646,0,0,0,0,0,0,0,0,
0,0,0,0,0,0,0,0,0,1654,1655,1656,0,0,0,0,0,0,0,0,
0,0,0,0,0,0,0,0,0,730,737,732,0,0,0,0,0,0,0,0,
0,0,0,0,0,0,0,0,0,736,737,738,0,0,0,0,0,0,0,0,
0,0,0,0,0,0,0,0,0,736,737,738,0,0,0,0,0,0,0,0,
0,0,0,0,0,0,0,0,0,736,737,738,0,0,0,0,0,0,0,0,
0,0,0,0,0,0,0,0,0,736,737,738,0,0,0,0,0,0,0,0,
0,0,0,0,0,0,0,0,0,736,737,738,0,0,0,0,0,0,0,0,
0,0,0,0,0,0,0,0,0,736,737,738,0,0,0,0,0,0,0,0,
0,0,0,0,0,0,0,0,730,737,731,738,0,0,0,0,0,0,0,0,
0,0,0,0,0,0,0,0,736,737,737,738,0,0,0,0,0,0,0,0,
0,0,0,0,0,0,0,0,736,737,737,738,0,0,0,0,0,0,0,0,
0,0,0,0,0,0,0,0,736,737,737,738,0,0,0,0,0,0,0,0,
0,0,0,0,0,0,0,0,736,737,737,738,0,0,0,0,0,0,0,0,
0,0,0,0,0,0,0,0,736,737,737,738,0,0,0,0,0,0,0,0,
0,0,0,0,0,0,0,0,736,737,737,738,0,0,0,0,0,0,0,0,
0,0,0,0,0,0,0,0,736,737,737,738,0,0,0,0,0,0,0,0,
0,0,0,0,0,0,0,0,742,743,743,744,0,0,0,0,0,0,0,0,
0,0,0,0,0,0,0,730,731,737,737,731,732,0,0,0,0,0,0,0,
0,0,0,0,0,0,0,736,737,737,737,737,738,0,0,0,0,0,0,0,
0,0,0,0,0,0,736,737,737,737,737,743,744,0,0,0,0,0,0,0,
0,0,0,0,0,730,737,737,737,732,0,0,0,0,0,0,0,0,0,0,
0,0,0,0,0,730,737,737,737,737,731,732,0,0,0,0,0,0,0,0,
0,0,0,0,730,737,737,737,737,737,737,731,731,731,731,731,732,0,0,0,
0,0,0,0,736,737,737,737,737,737,737,737,737,737,737,737,738,0,0,0,
0,0,0,0,0,737,737,737,737,737,737,737,737,737,737,737,737,0,0,0,
10,10,10,10,10,10,10,10,10,737,737,737,10,10,10,10,10,10,10,10,
10,10,10,10,10,10,10,10,10,742,743,744,10,10,10,10,10,10,10,10,
28,28,28,28,28,28,28,28,28,730,731,732,28,28,28,28,28,28,28,28,
737,737,737,737,737,737,737,737,737,737,737,737,737,737,737,737,737,737,737,737,
737,737,737,737,737,737,737,737,737,737,737,737,737,737,737,737,737,737,737,737,
737,737,737,737,737,737,737,737,737,737,737,737,737,737,737,737,737,737,737,737,
737,737,737,737,737,737,737,737,737,737,737,737,737,737,737,737,737,737,737,737,
737,10,10,10,10,10,10,10,10,10,10,10,10,10,10,10,10,10,10,10,
737,10,10,10,10,10,10,10,10,10,10,10,10,10,10,10,10,10,10,10,
28,28,28,28,28,28,28,28,28,28,28,28,28,28,28,28,28,28,28,28,
0,0,0,0,0,0,0,0,0,0,0,0,0,0,0,0,0,0,0,0,
0,0,0,0,0,0,0,0,0,0,0,0,0,0,0,0,0,0,0,0
</data>
 </layer>
 <layer id="3" name="tiles-climb" width="20" height="40">
  <data encoding="csv">
0,0,0,0,0,0,0,0,0,0,0,0,0,0,0,0,0,0,0,0,
0,0,0,0,0,0,0,0,0,0,0,0,0,0,0,0,0,0,0,0,
0,0,0,0,0,0,0,0,0,0,0,0,0,0,0,0,0,0,0,0,
0,0,0,0,0,0,0,0,0,0,0,0,0,0,0,0,0,0,0,0,
0,0,0,0,0,0,0,0,0,0,751,0,0,0,0,0,0,0,0,0,
0,0,0,0,0,0,0,0,0,0,751,0,0,0,0,0,0,0,0,0,
0,0,0,0,0,0,0,0,0,0,0,0,0,0,0,0,0,0,0,0,
0,0,0,0,0,0,0,0,0,0,0,0,0,0,0,0,0,0,0,0,
0,0,0,0,0,0,0,0,0,0,751,0,0,0,0,0,0,0,0,0,
0,0,0,0,0,0,0,0,0,0,0,0,0,0,0,0,0,0,0,0,
0,0,0,0,0,0,0,0,0,0,0,0,0,0,0,0,0,0,0,0,
0,0,0,0,0,0,0,0,0,0,751,0,0,0,0,0,0,0,0,0,
0,0,0,0,0,0,0,0,0,0,751,0,0,0,0,0,0,0,0,0,
0,0,0,0,0,0,0,0,0,0,751,0,0,0,0,0,0,0,0,0,
0,0,0,0,0,0,0,0,0,0,751,0,0,0,0,0,0,0,0,0,
0,0,0,0,0,0,0,0,0,0,751,0,0,0,0,0,0,0,0,0,
0,0,0,0,0,0,0,0,0,0,0,0,0,0,0,0,0,0,0,0,
0,0,0,0,0,0,0,0,0,0,0,0,0,0,0,0,0,0,0,0,
0,0,0,0,0,0,0,0,0,0,0,0,0,0,0,0,0,0,0,0,
0,0,0,0,0,0,0,0,0,0,0,0,0,0,0,0,0,0,0,0,
0,0,0,0,0,0,0,0,0,751,0,0,0,0,0,0,0,0,0,0,
0,0,0,0,0,0,0,0,751,751,0,751,0,0,0,0,0,0,0,0,
0,0,0,0,0,0,0,0,0,0,0,0,0,0,0,0,0,0,0,0,
0,0,0,0,0,0,0,0,0,0,0,0,0,0,0,0,0,0,0,0,
0,0,0,0,0,0,0,751,751,0,0,0,0,0,0,0,0,0,0,0,
0,0,0,0,0,0,0,0,0,0,0,0,0,0,0,0,0,0,0,0,
0,0,0,0,0,0,751,751,0,0,751,0,0,751,751,0,0,0,0,0,
0,0,0,0,0,0,751,0,0,0,0,0,0,0,751,0,0,0,0,0,
0,0,0,0,0,0,0,0,0,0,751,0,0,0,0,0,0,0,0,0,
0,0,0,0,0,0,0,0,0,0,0,0,0,0,0,0,0,0,0,0,
0,0,0,0,0,0,0,0,0,0,0,0,0,0,0,0,0,0,0,0,
0,0,0,0,0,0,0,0,0,0,751,0,0,0,0,0,0,0,0,0,
0,0,0,0,0,0,0,0,0,0,0,0,0,0,0,0,0,0,0,0,
0,0,0,0,0,0,0,0,0,0,751,0,0,0,0,0,0,0,0,0,
0,0,0,0,0,0,0,0,0,0,751,0,0,0,0,0,0,0,0,0,
0,0,0,0,0,0,0,0,0,0,0,0,0,0,0,0,0,0,0,0,
0,0,0,0,0,0,0,0,0,0,0,0,0,0,0,0,0,0,0,0,
0,0,0,0,0,0,0,0,0,0,0,0,0,0,0,0,0,0,0,0,
0,0,0,0,0,0,0,0,0,0,0,0,0,0,0,0,0,0,0,0,
0,0,0,0,0,0,0,0,0,0,0,0,0,0,0,0,0,0,0,0
</data>
 </layer>
 <objectgroup id="11" name="markers">
  <object id="37" x="580" y="1160">
   <point/>
  </object>
  <object id="38" x="260" y="1160">
   <point/>
  </object>
  <object id="39" x="420" y="80">
   <point/>
  </object>
  <object id="56" x="420" y="1440">
   <point/>
  </object>
  <object id="74" name="spawn" x="750" y="1440">
   <point/>
  </object>
  <object id="88" name="entry" x="760" y="1440">
   <point/>
  </object>
 </objectgroup>
 <objectgroup color="#55ffff" id="9" name="climbing" class="objects">
  <object id="20" type="climbarea" x="400" y="440" width="40" height="200"/>
  <object id="21" type="climbarea" x="400" y="320" width="40" height="40"/>
  <object id="23" type="climbarea" x="400" y="160" width="40" height="80"/>
  <object id="24" type="climbarea" x="440" y="840" width="40" height="40"/>
  <object id="25" type="climbarea" x="360" y="800" width="40" height="80"/>
  <object id="26" type="climbarea" x="320" y="840" width="40" height="40"/>
  <object id="27" type="climbarea" x="280" y="960" width="80" height="40"/>
  <object id="28" type="climbarea" x="400" y="1040" width="40" height="40"/>
  <object id="29" type="climbarea" x="520" y="1040" width="80" height="40"/>
  <object id="30" type="climbarea" x="560" y="1080" width="40" height="40"/>
  <object id="31" type="climbarea" x="240" y="1040" width="80" height="40"/>
  <object id="32" type="climbarea" x="240" y="1080" width="40" height="40"/>
  <object id="33" type="climbarea" x="400" y="1120" width="40" height="40"/>
  <object id="34" type="climbarea" x="400" y="1240" width="40" height="40"/>
  <object id="63" type="climbarea" x="400" y="1320" width="40" height="80"/>
 </objectgroup>
 <objectgroup id="4" name="objects_party">
  <object id="1" name="destructableclimbarea" x="360" y="720" width="40" height="40">
   <properties>
    <property name="sprite" value="world/events/climbtiles/brittlebrick"/>
   </properties>
  </object>
  <object id="2" name="destructableclimbarea" x="360" y="680" width="40" height="40">
   <properties>
    <property name="sprite" value="world/events/climbtiles/brittlebrick"/>
   </properties>
  </object>
  <object id="3" name="destructableclimbarea" x="360" y="640" width="40" height="40">
   <properties>
    <property name="sprite" value="world/events/climbtiles/brittlebrick"/>
   </properties>
  </object>
  <object id="4" name="destructableclimbarea" x="360" y="600" width="40" height="40">
   <properties>
    <property name="sprite" value="world/events/climbtiles/brittlebrick"/>
   </properties>
  </object>
  <object id="42" name="climbexit" x="560" y="1040" width="40" height="40">
   <properties>
    <property name="target" type="object" value="37"/>
   </properties>
  </object>
  <object id="43" name="climbentry" x="560" y="1080" width="40" height="40">
   <properties>
    <property name="target" type="object" value="42"/>
   </properties>
  </object>
  <object id="44" name="climbexit" x="240" y="1040" width="40" height="40">
   <properties>
    <property name="target" type="object" value="38"/>
   </properties>
  </object>
  <object id="45" name="climbentry" x="240" y="1080" width="40" height="40">
   <properties>
    <property name="target" type="object" value="44"/>
   </properties>
  </object>
  <object id="47" name="transition" x="800" y="1400" width="40" height="80">
   <properties>
    <property name="map" value="4_4th_sanctuary/fourth_sanctum_9"/>
    <property name="marker" value="entry2"/>
   </properties>
  </object>
  <object id="61" name="climbentry" x="400" y="1360" width="40" height="40">
   <properties>
    <property name="target" type="object" value="62"/>
   </properties>
  </object>
  <object id="62" name="climbexit" x="400" y="1320" width="40" height="40">
   <properties>
    <property name="target" type="object" value="56"/>
   </properties>
  </object>
  <object id="64" name="climbexit" x="400" y="160" width="40" height="40">
   <properties>
    <property name="target" type="object" value="39"/>
   </properties>
  </object>
  <object id="86" name="gueienemy" x="720" y="1160" width="40" height="40">
   <properties>
    <property name="actor" value="pewdinn"/>
    <property name="animation" value="chase"/>
    <property name="chase" type="bool" value="true"/>
    <property name="chase_once" type="bool" value="true"/>
    <property name="chaseaccel" type="float" value="1.05"/>
    <property name="chasemax" type="float" value="120"/>
    <property name="chasespeed" type="float" value="1"/>
    <property name="chasetype" value="multiplier"/>
    <property name="encounter" value="pewdinn3"/>
    <property name="pacetype" value="horizontalswing"/>
    <property name="swinglength" type="float" value="100"/>
   </properties>
  </object>
  <object id="87" name="transition" x="360" y="-40" width="120" height="40">
   <properties>
    <property name="map" value="4_4th_sanctuary/fouth_sanctum_11"/>
    <property name="marker" value="entry"/>
   </properties>
  </object>
 </objectgroup>
 <layer id="13" name="tiles_above_party" width="20" height="40">
  <data encoding="csv">
0,0,0,0,0,0,0,0,0,0,0,0,0,0,0,0,0,0,0,0,
0,0,0,0,0,0,0,0,0,0,0,0,0,0,0,0,0,0,0,0,
0,0,0,0,0,0,0,0,0,0,0,0,0,0,0,0,0,0,0,0,
0,0,0,0,0,0,0,0,0,0,0,0,0,0,0,0,0,0,0,0,
0,0,0,0,0,0,0,0,0,0,0,0,0,0,0,0,0,0,0,0,
0,0,0,0,0,0,0,0,0,0,0,0,0,0,0,0,0,0,0,0,
0,0,0,0,0,0,0,0,0,0,0,0,0,0,0,0,0,0,0,0,
0,0,0,0,0,0,0,0,0,0,0,0,0,0,0,0,0,0,0,0,
0,0,0,0,0,0,0,0,0,0,0,0,0,0,0,0,0,0,0,0,
0,0,0,0,0,0,0,0,0,0,0,0,0,0,0,0,0,0,0,0,
0,0,0,0,0,0,0,0,0,0,0,0,0,0,0,0,0,0,0,0,
0,0,0,0,0,0,0,0,0,0,0,0,0,0,0,0,0,0,0,0,
0,0,0,0,0,0,0,0,0,0,0,0,0,0,0,0,0,0,0,0,
0,0,0,0,0,0,0,0,0,0,0,0,0,0,0,0,0,0,0,0,
0,0,0,0,0,0,0,0,0,0,0,0,0,0,0,0,0,0,0,0,
0,0,0,0,0,0,0,0,0,0,0,0,0,0,0,0,0,0,0,0,
0,0,0,0,0,0,0,0,0,0,0,0,0,0,0,0,0,0,0,0,
0,0,0,0,0,0,0,0,0,0,0,0,0,0,0,0,0,0,0,0,
0,0,0,0,0,0,0,0,0,0,0,0,0,0,0,0,0,0,0,0,
0,0,0,0,0,0,0,0,0,0,0,0,0,0,0,0,0,0,0,0,
0,0,0,0,0,0,0,0,0,0,0,0,0,0,0,0,0,0,0,0,
0,0,0,0,0,0,0,0,0,0,0,0,0,0,0,0,0,0,0,0,
0,0,0,0,0,0,0,0,0,0,0,0,0,0,0,0,0,0,0,0,
0,0,0,0,0,0,0,0,0,0,0,0,0,0,0,0,0,0,0,0,
0,0,0,0,0,0,0,0,0,0,0,0,0,0,0,0,0,0,0,0,
0,0,0,0,0,0,0,0,0,0,0,0,0,0,0,0,0,0,0,0,
0,0,0,0,0,0,0,0,0,0,0,0,0,0,0,0,0,0,0,0,
0,0,0,0,0,0,0,0,0,0,0,0,0,0,0,0,0,0,0,0,
0,0,0,0,0,0,0,0,0,0,0,0,0,0,0,0,0,0,0,0,
0,0,0,0,0,0,0,0,0,0,0,0,0,0,0,0,0,0,0,0,
0,0,0,0,0,0,0,0,0,0,0,0,0,0,0,0,0,0,0,0,
541,580,581,582,541,580,581,582,541,0,0,0,541,580,581,582,541,580,581,582,
547,586,587,588,547,586,587,588,547,0,0,0,547,586,587,588,547,586,587,588,
553,592,593,594,553,592,593,594,553,0,0,0,553,592,593,594,553,592,593,594,
553,598,599,600,553,598,599,600,553,0,0,0,553,598,599,600,553,598,599,600,
559,604,605,606,559,604,605,606,559,0,0,0,559,604,605,606,559,604,605,606,
565,610,611,612,565,610,611,612,565,0,0,0,565,610,611,612,565,610,611,612,
0,0,0,0,0,0,0,0,0,0,0,0,0,0,0,0,0,0,0,0,
0,0,0,0,0,0,0,0,0,0,0,0,0,0,0,0,0,0,0,0,
0,0,0,0,0,0,0,0,0,0,0,0,0,0,0,0,0,0,0,0
</data>
 </layer>
 <objectgroup color="#ff0000" id="8" name="collision">
  <object id="7" x="0" y="1480" width="800" height="40"/>
  <object id="11" x="0" y="1400" width="40" height="80"/>
  <object id="12" x="0" y="1200" width="360" height="40"/>
  <object id="13" x="480" y="1200" width="320" height="40"/>
  <object id="15" x="480" y="1080" width="320" height="40"/>
  <object id="17" x="0" y="1080" width="360" height="40"/>
  <object id="18" x="320" y="0" width="40" height="160"/>
  <object id="19" x="480" y="0" width="40" height="160"/>
  <object id="65" x="360" y="120" width="120" height="40"/>
  <object id="69" x="800" y="1080" width="40" height="160"/>
  <object id="70" x="-40" y="1080" width="40" height="160"/>
  <object id="71" x="0" y="1363" width="810" height="37"/>
  <object id="72" x="360" y="1080" width="40" height="160"/>
  <object id="73" x="440" y="1080" width="40" height="160"/>
 </objectgroup>
 <objectgroup id="7" name="objects_fog">
  <object id="6" name="churchfog" x="764" y="1580">
   <point/>
  </object>
 </objectgroup>
 <objectgroup id="6" name="objects_top">
  <object id="5" name="filter" x="812.667" y="1534.67">
   <properties>
    <property name="type" value="hsv3"/>
   </properties>
   <point/>
  </object>
  <object id="75" name="highlight" x="160" y="1240" width="40" height="240"/>
  <object id="76" name="highlight" x="320" y="1240" width="40" height="240"/>
  <object id="77" name="highlight" x="0" y="1240" width="40" height="240"/>
  <object id="78" name="highlight" x="480" y="1240" width="40" height="240"/>
  <object id="79" name="highlight" x="640" y="1240" width="40" height="240"/>
 </objectgroup>
</map>
