<?xml version="1.0" encoding="UTF-8"?>
<map version="1.11" tiledversion="1.12.1" orientation="orthogonal" renderorder="right-down" width="42" height="32" tilewidth="40" tileheight="40" infinite="0" nextlayerid="34" nextobjectid="378">
 <editorsettings>
  <export target="data.lua" format="lua"/>
 </editorsettings>
 <properties>
  <property name="border" value="church_flooded_dynamic"/>
  <property name="music" value="floodedsanctuary"/>
 </properties>
 <tileset firstgid="1" source="../../../tilesets/bg_dw_church_watertileset.tsx"/>
 <tileset firstgid="151" source="../../../tilesets/bg_dw_church_2_tileset.tsx"/>
 <tileset firstgid="349" source="../../../tilesets/bg_dw_church_tileset_new.tsx"/>
 <tileset firstgid="931" source="../../../tilesets/flooded_sanctuary_extra.tsx"/>
 <tileset firstgid="994" source="../../../tilesets/ExtraClimbingTiles.tsx"/>
 <tileset firstgid="1003" source="../../../tilesets/ClimbableBrickTilesSilhouette.tsx"/>
 <tileset firstgid="1024" source="../../../tilesets/bg_dw_mansion_battle_tileset.tsx"/>
 <tileset firstgid="1654" source="../../../tilesets/church_objects.tsx"/>
 <objectgroup id="12" name="objects_bg">
  <object id="114" name="lavawaverbg" x="0" y="0">
   <point/>
  </object>
 </objectgroup>
 <layer id="1" name="tile6" width="42" height="32" tintcolor="#535a84">
  <data encoding="csv">
30,30,30,30,30,30,30,30,30,30,30,30,30,30,30,30,30,30,30,30,30,30,30,30,30,30,30,30,30,30,30,30,30,30,30,30,30,30,30,30,30,30,
30,30,30,30,30,30,30,30,30,30,30,30,30,30,30,30,30,30,30,30,30,30,30,30,30,30,30,30,30,30,30,30,30,30,30,30,30,30,30,30,30,30,
30,30,30,30,30,30,30,30,30,30,30,30,30,30,30,30,30,30,30,30,30,30,30,30,30,30,30,30,30,30,30,30,30,30,30,30,30,30,30,30,30,30,
30,30,30,30,30,30,30,30,30,30,30,30,30,30,30,30,30,30,30,30,30,30,30,30,30,30,30,30,30,30,30,30,30,30,30,30,30,30,30,30,30,30,
30,30,30,30,30,30,30,30,30,30,30,30,30,30,30,30,30,30,30,30,30,30,30,30,30,30,30,30,30,30,30,30,30,30,30,30,30,30,30,30,30,30,
30,30,30,30,30,30,30,30,30,30,30,30,30,30,30,30,30,30,30,30,30,30,30,30,30,30,30,30,30,30,30,30,30,30,30,30,30,30,30,30,30,30,
30,30,30,30,30,30,30,30,30,30,30,30,30,30,30,30,30,30,30,30,30,30,30,30,30,30,30,30,30,30,30,30,30,30,30,30,30,30,30,30,30,30,
30,30,30,30,30,30,30,30,30,30,30,30,30,30,30,30,30,30,30,30,30,30,30,30,30,30,30,30,30,30,30,30,30,30,30,30,30,30,30,30,30,30,
30,30,30,30,30,30,30,30,30,30,30,30,30,30,30,30,30,30,30,30,30,30,30,30,30,30,30,30,30,30,30,30,30,30,30,30,30,30,30,30,30,30,
30,30,30,30,30,30,30,30,30,30,30,30,30,30,30,30,30,30,30,30,30,30,30,30,30,30,30,30,30,30,30,30,30,30,30,30,30,30,30,30,30,30,
30,30,30,30,30,30,30,30,30,30,30,30,30,30,30,30,30,30,30,30,30,30,30,30,30,30,30,30,30,30,30,30,30,30,30,30,30,30,30,30,30,30,
30,30,30,30,30,30,30,30,30,30,30,30,30,30,30,30,30,30,30,30,30,30,30,30,30,30,30,30,30,30,30,30,30,30,30,30,30,30,30,30,30,30,
30,30,30,30,30,30,30,30,30,30,30,30,30,30,30,30,30,30,30,30,30,30,30,30,30,30,30,30,30,30,30,30,30,30,30,30,30,30,30,30,30,30,
30,30,30,30,30,30,30,30,30,30,30,30,30,30,30,30,30,30,30,30,30,30,30,30,30,30,30,30,30,30,30,30,30,30,30,30,30,30,30,30,30,30,
30,30,30,30,30,30,30,30,30,30,30,30,30,30,30,30,30,30,30,30,30,30,30,30,30,30,30,30,30,30,30,30,30,30,30,30,30,30,30,30,30,30,
30,30,30,30,30,30,30,30,30,30,30,30,30,30,30,30,30,30,30,30,30,30,30,30,30,30,30,30,30,30,30,30,30,30,30,30,30,30,30,30,30,30,
967,967,967,967,967,967,967,967,967,967,967,967,967,967,967,967,967,967,967,967,967,967,967,967,967,967,967,967,967,967,967,967,967,967,967,967,967,967,967,967,967,967,
0,0,0,0,0,0,0,0,0,0,0,0,0,0,0,0,0,0,0,0,0,0,0,0,0,0,0,0,0,0,0,0,0,0,0,0,0,0,0,0,0,0,
0,0,0,0,0,0,0,0,0,0,0,0,0,0,0,0,0,0,0,0,0,0,0,0,0,0,0,0,0,0,0,0,0,0,0,0,0,0,0,0,0,0,
0,0,0,0,0,0,0,0,0,0,0,0,0,0,0,0,0,0,0,0,0,0,0,0,0,0,0,0,0,0,0,0,0,0,0,0,0,0,0,0,0,0,
0,0,0,0,0,0,0,0,0,0,0,0,0,0,0,0,0,0,0,0,0,0,0,0,0,0,0,0,0,0,0,0,0,0,0,0,0,0,0,0,0,0,
0,0,0,0,0,0,0,0,0,0,0,0,0,0,0,0,0,0,0,0,0,0,0,0,0,0,0,0,0,0,0,0,0,0,0,0,0,0,0,0,0,0,
0,0,0,0,0,0,0,0,0,0,0,0,0,0,0,0,0,0,0,0,0,0,0,0,0,0,0,0,0,0,0,0,0,0,0,0,0,0,0,0,0,0,
0,0,0,0,0,0,0,0,0,0,0,0,0,0,0,0,0,0,0,0,0,0,0,0,0,0,0,0,0,0,0,0,0,0,0,0,0,0,0,0,0,0,
0,0,0,0,0,0,0,0,0,0,0,0,0,0,0,0,0,0,0,0,0,0,0,0,0,0,0,0,0,0,0,0,0,0,0,0,0,0,0,0,0,0,
0,0,0,0,0,0,0,0,0,0,0,0,0,0,0,0,0,0,0,0,0,0,0,0,0,0,0,0,0,0,0,0,0,0,0,0,0,0,0,0,0,0,
0,0,0,0,0,0,0,0,0,0,0,0,0,0,0,0,0,0,0,0,0,0,0,0,0,0,0,0,0,0,0,0,0,0,0,0,0,0,0,0,0,0,
0,0,0,0,0,0,0,0,0,0,0,0,0,0,0,0,0,0,0,0,0,0,0,0,0,0,0,0,0,0,0,0,0,0,0,0,0,0,0,0,0,0,
0,0,0,0,0,0,0,0,0,0,0,0,0,0,0,0,0,0,0,0,0,0,0,0,0,0,0,0,0,0,0,0,0,0,0,0,0,0,0,0,0,0,
0,0,0,0,0,0,0,0,0,0,0,0,0,0,0,0,0,0,0,0,0,0,0,0,0,0,0,0,0,0,0,0,0,0,0,0,0,0,0,0,0,0,
0,0,0,0,0,0,0,0,0,0,0,0,0,0,0,0,0,0,0,0,0,0,0,0,0,0,0,0,0,0,0,0,0,0,0,0,0,0,0,0,0,0,
0,0,0,0,0,0,0,0,0,0,0,0,0,0,0,0,0,0,0,0,0,0,0,0,0,0,0,0,0,0,0,0,0,0,0,0,0,0,0,0,0,0
</data>
 </layer>
 <objectgroup id="29" name="objects_water_optimization" visible="0">
  <object id="353" name="wateranimator" x="40" y="0">
   <properties>
    <property name="color" type="color" value="#ff535a84"/>
   </properties>
   <point/>
  </object>
  <object id="354" name="tile_oscillate" x="0" y="680" width="2560" height="600">
   <properties>
    <property name="type" value="water"/>
   </properties>
  </object>
 </objectgroup>
 <layer id="16" name="tile5" width="42" height="32" tintcolor="#535a84">
  <data encoding="csv">
0,0,0,0,0,0,0,0,0,0,0,0,0,0,0,0,0,0,0,0,0,0,0,0,0,0,0,0,0,0,0,0,0,0,0,0,0,0,0,0,0,0,
0,0,0,0,0,0,0,0,0,0,0,0,0,0,0,0,0,0,0,0,0,0,0,0,0,0,0,0,0,0,0,0,0,0,0,0,0,0,0,0,0,0,
0,0,0,0,0,0,0,0,0,0,0,0,0,0,0,0,0,0,0,0,0,0,0,0,0,0,0,0,0,0,0,0,0,0,0,0,0,0,0,0,0,0,
0,0,0,0,0,0,0,0,0,0,0,0,0,0,0,0,0,0,0,0,0,0,0,0,0,0,0,0,0,0,0,0,0,0,0,0,0,0,0,0,0,0,
0,0,0,0,0,0,0,0,0,0,0,0,0,0,0,0,0,0,0,0,0,0,0,0,0,0,0,0,0,0,0,0,0,0,0,0,0,0,0,0,0,0,
0,0,0,0,0,0,0,0,0,0,0,0,0,0,0,0,0,0,0,0,0,0,0,0,0,0,0,0,0,0,0,0,0,0,0,0,0,0,0,0,0,0,
0,0,0,0,0,0,0,0,0,0,0,0,0,0,0,0,0,0,0,0,0,0,0,0,0,0,0,0,0,0,0,0,0,0,0,0,0,0,0,0,0,0,
0,0,0,0,0,0,0,0,0,0,0,0,0,0,0,0,0,0,0,0,0,0,0,0,0,0,0,0,0,0,0,0,0,0,0,0,0,0,0,0,0,0,
0,0,0,0,0,0,0,0,0,0,0,0,0,0,0,0,0,0,0,0,0,0,0,0,0,0,0,0,0,0,0,0,0,0,0,0,0,0,0,0,0,0,
0,0,0,0,0,0,0,0,0,0,0,0,0,0,0,0,0,0,0,0,0,0,0,0,0,0,0,0,0,0,0,0,0,0,0,0,0,0,0,0,0,0,
0,0,0,0,0,0,0,0,0,0,0,0,0,0,0,0,0,0,0,0,0,0,0,0,0,0,0,0,0,0,0,0,0,0,0,0,0,0,0,0,0,0,
0,0,0,0,0,0,0,0,0,0,0,0,0,0,0,0,0,0,0,0,0,0,0,0,0,0,0,0,0,0,0,0,0,0,0,0,0,0,0,0,0,0,
0,0,0,0,0,0,0,0,0,0,0,0,0,0,0,0,0,0,0,0,0,0,0,0,0,0,0,0,0,0,0,0,0,0,0,0,0,0,0,0,0,0,
956,956,956,956,956,956,956,956,956,956,956,956,956,956,956,956,956,956,956,956,956,956,956,956,956,956,956,956,956,956,956,956,956,956,956,956,956,956,956,956,956,956,
421,421,421,421,421,421,421,421,421,421,421,421,421,421,421,421,421,421,421,421,421,421,421,421,421,421,421,421,421,421,421,421,421,421,421,421,421,421,421,421,421,421,
421,421,421,421,421,421,421,421,421,421,421,421,421,421,421,421,421,421,421,421,421,421,421,421,421,421,421,421,421,421,421,421,421,421,421,421,421,421,421,421,421,421,
983,983,983,983,983,983,983,983,983,983,983,983,983,983,983,983,983,983,983,983,983,983,983,983,983,983,983,983,983,983,983,983,983,983,983,983,983,983,983,983,983,983,
0,0,0,0,0,0,0,0,0,0,0,0,0,0,0,0,0,0,0,0,0,0,0,0,0,0,0,0,0,0,0,0,0,0,0,0,0,0,0,0,0,0,
0,0,0,0,0,0,0,0,0,0,0,0,0,0,0,0,0,0,0,0,0,0,0,0,0,0,0,0,0,0,0,0,0,0,0,0,0,0,0,0,0,0,
0,0,0,0,0,0,0,0,0,0,0,0,0,0,0,0,0,0,0,0,0,0,0,0,0,0,0,0,0,0,0,0,0,0,0,0,0,0,0,0,0,0,
0,0,0,0,0,0,0,0,0,0,0,0,0,0,0,0,0,0,0,0,0,0,0,0,0,0,0,0,0,0,0,0,0,0,0,0,0,0,0,0,0,0,
0,0,0,0,0,0,0,0,0,0,0,0,0,0,0,0,0,0,0,0,0,0,0,0,0,0,0,0,0,0,0,0,0,0,0,0,0,0,0,0,0,0,
0,0,0,0,0,0,0,0,0,0,0,0,0,0,0,0,0,0,0,0,0,0,0,0,0,0,0,0,0,0,0,0,0,0,0,0,0,0,0,0,0,0,
0,0,0,0,0,0,0,0,0,0,0,0,0,0,0,0,0,0,0,0,0,0,0,0,0,0,0,0,0,0,0,0,0,0,0,0,0,0,0,0,0,0,
0,0,0,0,0,0,0,0,0,0,0,0,0,0,0,0,0,0,0,0,0,0,0,0,0,0,0,0,0,0,0,0,0,0,0,0,0,0,0,0,0,0,
0,0,0,0,0,0,0,0,0,0,0,0,0,0,0,0,0,0,0,0,0,0,0,0,0,0,0,0,0,0,0,0,0,0,0,0,0,0,0,0,0,0,
0,0,0,0,0,0,0,0,0,0,0,0,0,0,0,0,0,0,0,0,0,0,0,0,0,0,0,0,0,0,0,0,0,0,0,0,0,0,0,0,0,0,
0,0,0,0,0,0,0,0,0,0,0,0,0,0,0,0,0,0,0,0,0,0,0,0,0,0,0,0,0,0,0,0,0,0,0,0,0,0,0,0,0,0,
0,0,0,0,0,0,0,0,0,0,0,0,0,0,0,0,0,0,0,0,0,0,0,0,0,0,0,0,0,0,0,0,0,0,0,0,0,0,0,0,0,0,
0,0,0,0,0,0,0,0,0,0,0,0,0,0,0,0,0,0,0,0,0,0,0,0,0,0,0,0,0,0,0,0,0,0,0,0,0,0,0,0,0,0,
0,0,0,0,0,0,0,0,0,0,0,0,0,0,0,0,0,0,0,0,0,0,0,0,0,0,0,0,0,0,0,0,0,0,0,0,0,0,0,0,0,0,
0,0,0,0,0,0,0,0,0,0,0,0,0,0,0,0,0,0,0,0,0,0,0,0,0,0,0,0,0,0,0,0,0,0,0,0,0,0,0,0,0,0
</data>
 </layer>
 <layer id="17" name="tile4" width="42" height="32" tintcolor="#535a84">
  <data encoding="csv">
0,0,0,0,0,0,0,0,0,0,0,0,0,0,0,0,0,0,0,0,0,0,0,0,0,0,0,0,0,0,0,0,0,0,0,0,0,0,0,0,0,0,
0,0,0,0,0,0,0,0,0,0,0,0,0,0,0,0,0,0,0,0,0,0,0,0,0,0,0,0,0,0,0,0,0,0,0,0,0,0,0,0,0,0,
0,0,0,0,0,0,0,0,0,0,0,0,0,0,0,0,0,0,0,0,0,0,0,0,0,0,0,0,0,0,0,0,0,0,0,0,0,0,0,0,0,0,
0,0,0,0,0,0,0,0,0,0,0,0,0,0,0,0,0,0,0,0,0,0,0,0,0,0,0,0,0,0,0,0,0,0,0,0,0,0,0,0,0,0,
0,0,0,0,0,0,0,0,0,0,0,0,0,0,0,0,0,0,0,0,0,0,0,0,0,0,0,0,0,0,0,0,0,0,0,0,0,0,0,0,0,0,
0,0,0,0,0,0,0,0,0,0,0,0,0,0,0,0,0,0,0,0,0,0,0,0,0,0,0,0,0,0,0,0,0,0,0,0,0,0,0,0,0,0,
0,0,0,0,0,0,0,0,0,0,0,0,0,0,0,0,0,0,0,0,0,0,0,0,0,0,0,0,0,0,0,0,0,0,0,0,0,0,0,0,0,0,
0,0,0,0,0,0,0,0,0,0,0,0,0,0,0,0,0,0,0,0,0,0,0,0,0,0,0,0,0,0,0,0,0,0,0,0,0,0,0,0,0,0,
0,0,0,0,0,0,0,0,0,0,0,0,0,0,0,0,0,0,0,0,0,0,0,0,0,0,0,0,0,0,0,0,0,0,0,0,0,0,0,0,0,0,
0,0,0,0,0,0,0,0,0,0,0,0,0,0,0,0,0,0,0,0,0,0,0,0,0,0,0,0,0,0,0,0,0,0,0,0,0,0,0,0,0,0,
0,0,0,0,0,0,0,0,0,0,0,0,0,0,0,0,0,0,0,0,0,0,0,0,0,0,0,0,0,0,0,0,0,0,0,0,0,0,0,0,0,0,
0,0,0,0,0,0,0,0,0,0,0,0,0,0,0,0,0,0,0,0,0,0,0,0,0,0,0,0,0,0,0,0,0,0,0,0,0,0,0,0,0,0,
0,0,0,0,0,0,0,0,0,0,0,0,0,0,0,0,0,0,0,0,0,0,0,0,0,0,0,0,0,0,0,0,0,0,0,0,0,0,0,0,0,0,
0,0,0,0,0,0,0,0,0,0,0,0,0,0,0,0,0,0,0,0,0,0,0,0,0,0,0,0,0,0,0,0,0,0,0,0,0,0,0,0,0,0,
0,0,0,0,0,0,0,0,0,0,0,0,0,0,0,0,0,0,0,0,0,0,0,0,0,0,0,0,0,0,0,0,0,0,0,0,0,0,0,0,0,0,
0,0,0,0,0,0,0,0,0,0,0,0,0,0,0,0,0,0,0,0,0,0,0,0,0,0,0,0,0,0,0,0,0,0,0,0,0,0,0,0,0,0,
967,967,967,967,967,967,967,967,967,967,967,967,967,967,967,967,967,967,967,967,967,967,967,967,967,967,967,967,967,967,967,967,967,967,967,967,967,967,967,967,967,967,
0,0,0,0,0,0,0,0,0,0,0,0,0,0,0,0,0,0,0,0,0,0,0,0,0,0,0,0,0,0,0,0,0,0,0,0,0,0,0,0,0,0,
0,0,0,0,0,0,0,0,0,0,0,0,0,0,0,0,0,0,0,0,0,0,0,0,0,0,0,0,0,0,0,0,0,0,0,0,0,0,0,0,0,0,
0,0,0,0,0,0,0,0,0,0,0,0,0,0,0,0,0,0,0,0,0,0,0,0,0,0,0,0,0,0,0,0,0,0,0,0,0,0,0,0,0,0,
0,0,0,0,0,0,0,0,0,0,0,0,0,0,0,0,0,0,0,0,0,0,0,0,0,0,0,0,0,0,0,0,0,0,0,0,0,0,0,0,0,0,
0,0,0,0,0,0,0,0,0,0,0,0,0,0,0,0,0,0,0,0,0,0,0,0,0,0,0,0,0,0,0,0,0,0,0,0,0,0,0,0,0,0,
0,0,0,0,0,0,0,0,0,0,0,0,0,0,0,0,0,0,0,0,0,0,0,0,0,0,0,0,0,0,0,0,0,0,0,0,0,0,0,0,0,0,
0,0,0,0,0,0,0,0,0,0,0,0,0,0,0,0,0,0,0,0,0,0,0,0,0,0,0,0,0,0,0,0,0,0,0,0,0,0,0,0,0,0,
0,0,0,0,0,0,0,0,0,0,0,0,0,0,0,0,0,0,0,0,0,0,0,0,0,0,0,0,0,0,0,0,0,0,0,0,0,0,0,0,0,0,
0,0,0,0,0,0,0,0,0,0,0,0,0,0,0,0,0,0,0,0,0,0,0,0,0,0,0,0,0,0,0,0,0,0,0,0,0,0,0,0,0,0,
0,0,0,0,0,0,0,0,0,0,0,0,0,0,0,0,0,0,0,0,0,0,0,0,0,0,0,0,0,0,0,0,0,0,0,0,0,0,0,0,0,0,
0,0,0,0,0,0,0,0,0,0,0,0,0,0,0,0,0,0,0,0,0,0,0,0,0,0,0,0,0,0,0,0,0,0,0,0,0,0,0,0,0,0,
0,0,0,0,0,0,0,0,0,0,0,0,0,0,0,0,0,0,0,0,0,0,0,0,0,0,0,0,0,0,0,0,0,0,0,0,0,0,0,0,0,0,
0,0,0,0,0,0,0,0,0,0,0,0,0,0,0,0,0,0,0,0,0,0,0,0,0,0,0,0,0,0,0,0,0,0,0,0,0,0,0,0,0,0,
0,0,0,0,0,0,0,0,0,0,0,0,0,0,0,0,0,0,0,0,0,0,0,0,0,0,0,0,0,0,0,0,0,0,0,0,0,0,0,0,0,0,
0,0,0,0,0,0,0,0,0,0,0,0,0,0,0,0,0,0,0,0,0,0,0,0,0,0,0,0,0,0,0,0,0,0,0,0,0,0,0,0,0,0
</data>
 </layer>
 <layer id="11" name="tile3" width="42" height="32">
  <data encoding="csv">
0,0,0,0,0,0,0,0,0,0,0,0,0,0,0,0,0,0,0,0,0,0,0,0,0,0,0,0,0,0,0,0,0,0,0,0,0,0,0,0,0,0,
0,0,0,0,0,0,0,0,0,0,0,0,0,0,0,0,0,0,0,0,0,0,0,0,0,0,0,0,0,0,0,0,0,0,0,0,0,0,0,0,0,0,
0,0,0,0,0,0,0,0,0,0,0,0,0,0,0,0,0,0,0,0,0,0,0,0,0,0,0,0,0,0,0,0,0,0,0,0,0,0,0,0,0,0,
0,0,0,0,0,0,0,0,0,0,0,0,0,0,0,0,0,0,0,0,0,0,0,880,881,881,881,881,882,0,0,0,880,881,882,0,0,0,0,0,0,0,
0,0,0,0,0,0,0,0,0,0,0,0,0,0,0,0,0,0,880,881,882,0,0,886,887,887,887,887,887,881,881,881,886,880,888,0,0,0,0,0,0,0,
0,0,0,0,0,0,0,0,0,0,0,0,0,0,0,0,0,0,886,887,887,0,0,892,893,893,893,893,887,887,887,880,881,886,894,0,0,0,0,0,0,0,
0,0,0,0,0,0,0,0,0,0,0,0,0,0,0,0,0,0,892,893,893,881,881,881,882,0,0,0,893,893,893,886,887,892,881,882,0,0,0,0,0,0,
0,0,0,0,0,0,0,0,0,0,0,0,0,0,0,0,0,0,0,886,887,887,887,887,888,0,0,0,0,0,0,886,887,892,887,888,0,0,0,0,0,0,
0,0,0,0,0,0,0,0,0,0,0,0,0,0,0,0,0,0,0,892,893,893,893,893,894,0,0,0,0,0,0,886,887,892,893,894,0,0,0,0,0,0,
0,0,0,0,0,0,0,0,0,0,0,0,0,0,0,0,0,0,0,0,0,0,880,881,881,881,881,882,0,0,0,892,893,894,0,0,0,0,0,0,0,0,
0,0,0,0,0,0,0,0,0,0,0,0,0,0,0,0,0,0,0,0,0,0,886,887,887,887,887,888,0,0,0,0,0,886,887,887,893,888,893,893,893,893,
0,0,0,0,0,0,0,0,0,0,0,0,0,0,0,0,0,0,0,0,0,0,892,893,893,893,893,894,0,0,0,0,0,892,893,894,0,0,0,0,0,0,
0,0,0,0,0,0,0,0,0,0,0,0,0,0,0,0,0,0,0,0,880,881,882,0,880,881,881,882,0,0,0,0,0,0,0,0,0,0,0,0,0,0,
0,0,0,0,0,0,0,0,0,0,0,0,0,0,0,0,880,881,882,0,886,887,888,0,892,893,893,894,0,880,881,882,0,0,0,0,0,0,0,0,0,0,
0,0,0,0,0,0,0,0,0,0,0,0,0,0,0,0,886,887,888,0,892,893,894,0,0,0,880,881,882,886,887,888,0,0,0,0,0,0,0,0,0,0,
0,0,0,0,0,0,0,0,0,0,0,0,0,0,0,0,886,887,888,0,0,880,881,882,880,881,887,887,888,892,893,894,0,0,0,0,0,0,0,0,0,0,
0,0,0,0,0,0,0,0,0,0,0,0,0,0,0,0,0,0,0,0,0,886,887,888,886,887,887,887,888,0,0,0,0,0,0,0,0,0,0,0,0,0,
0,0,0,0,0,880,881,881,882,0,0,0,880,882,0,880,887,888,0,0,0,892,893,894,886,887,887,893,894,0,0,0,0,0,0,0,0,0,0,0,0,0,
0,0,0,0,0,886,887,887,894,0,0,0,886,888,0,886,887,888,0,0,0,0,0,0,886,887,888,0,0,0,0,0,0,0,0,0,0,0,0,0,0,0,
0,0,0,0,0,886,887,888,880,881,882,0,892,894,0,886,887,888,0,0,0,880,881,882,892,893,894,0,0,0,0,0,0,0,0,0,0,0,0,0,0,0,
0,0,0,0,0,886,887,894,886,887,888,0,0,0,0,892,893,894,0,0,0,886,887,888,0,0,0,0,0,0,0,0,0,0,0,0,0,0,0,0,0,0,
0,0,0,0,0,886,888,0,892,893,894,0,0,880,881,882,0,0,0,0,0,892,893,894,0,0,0,0,0,880,881,882,0,0,0,0,0,0,0,0,0,0,
0,0,0,0,0,892,894,0,0,0,0,0,0,886,887,888,0,0,0,0,0,0,0,0,0,880,881,882,0,892,887,888,0,0,0,0,0,0,0,0,0,0,
0,0,0,0,0,0,0,0,0,0,0,0,0,892,893,887,881,882,0,0,0,0,0,0,0,886,887,888,0,0,886,887,882,0,0,0,0,0,0,0,0,0,
0,0,0,0,0,0,0,0,0,0,0,0,0,0,0,886,887,888,0,0,0,0,880,881,882,886,887,887,882,0,886,887,894,0,0,0,0,0,0,0,0,0,
0,0,0,0,0,0,0,0,0,0,0,0,0,0,0,892,893,894,0,0,0,0,886,887,888,886,887,887,888,0,892,894,0,0,0,0,0,0,0,0,0,0,
0,0,0,0,0,0,0,0,0,0,880,881,882,0,0,0,0,0,0,0,0,0,892,893,894,886,887,887,888,0,0,0,0,0,0,0,0,0,0,0,0,0,
0,0,0,0,0,0,0,0,0,0,886,887,888,0,880,881,882,0,0,0,0,0,0,0,0,886,887,887,888,0,0,0,0,0,0,0,0,0,0,0,0,0,
0,0,0,0,0,880,881,882,0,0,892,893,894,0,886,887,888,0,0,0,0,0,0,0,0,892,893,893,894,0,0,0,0,0,0,0,0,0,0,0,0,0,
0,0,0,0,0,886,887,887,882,0,0,0,880,881,887,887,888,0,0,0,0,0,0,0,0,0,0,0,0,0,0,0,0,0,0,0,0,0,0,0,0,0,
0,0,0,0,0,892,893,887,888,0,0,0,892,893,893,893,894,0,0,0,0,0,0,0,0,0,0,0,0,0,0,0,0,0,0,0,0,0,0,0,0,0,
0,0,0,0,0,0,0,892,894,0,0,0,0,0,0,0,0,0,0,0,0,0,0,0,0,0,0,0,0,0,0,0,0,0,0,0,0,0,0,0,0,0
</data>
 </layer>
 <layer id="10" name="tile2" width="42" height="32">
  <data encoding="csv">
0,0,0,0,0,0,0,0,0,0,0,0,0,0,0,0,0,0,0,0,0,0,0,0,0,0,0,0,0,0,0,0,0,0,0,0,0,0,0,0,0,0,
0,0,0,0,0,0,0,0,0,0,0,0,0,0,0,0,0,0,0,0,0,0,0,0,0,0,0,0,0,0,0,0,0,0,0,0,0,0,0,0,0,0,
0,0,0,0,0,0,0,0,0,0,0,0,0,0,0,0,0,0,0,0,0,0,0,0,0,0,0,0,0,0,0,0,0,0,0,0,0,0,0,0,0,0,
0,0,0,0,0,0,0,0,0,0,0,0,0,0,0,0,0,0,0,0,0,0,0,0,0,0,0,0,0,0,0,0,0,0,0,0,0,0,0,0,0,0,
0,0,0,0,0,0,0,0,0,0,0,0,0,0,0,0,0,0,0,0,0,0,0,0,0,0,0,0,0,0,0,877,878,879,0,0,0,0,0,0,0,0,
0,0,0,0,0,0,0,0,0,0,0,0,0,0,0,0,0,0,0,994,878,995,878,995,878,995,878,995,996,0,0,997,998,998,879,0,0,0,0,0,0,0,
0,0,0,0,0,0,0,0,0,0,0,0,0,0,0,0,0,0,0,997,884,890,890,890,890,890,890,890,891,0,0,889,884,998,885,0,0,0,0,0,0,0,
0,0,0,0,0,0,0,0,0,0,0,0,0,0,0,0,0,0,0,883,885,0,0,0,0,0,0,0,0,0,0,0,883,998,885,0,0,0,0,0,0,0,
0,0,0,0,0,0,0,0,0,0,0,0,0,0,0,0,0,0,0,997,885,0,0,0,0,0,0,0,0,0,0,0,883,998,885,0,0,0,0,0,0,0,
0,0,0,0,0,0,0,0,0,0,0,0,0,0,0,0,0,0,0,883,884,879,0,0,0,0,0,0,0,0,0,0,883,628,885,0,0,0,0,0,0,0,
0,0,0,0,0,0,0,0,0,0,0,0,0,0,0,0,0,0,0,997,884,884,878,878,878,878,878,878,878,879,0,0,884,998,884,891,0,0,0,0,0,0,
0,0,0,0,0,0,0,0,0,0,0,0,0,0,0,0,0,0,0,997,884,884,998,998,998,998,998,884,998,885,0,0,884,998,885,0,0,0,0,0,0,0,
0,0,0,0,0,0,0,0,0,0,0,0,0,0,0,0,0,0,0,889,890,890,890,890,890,890,890,890,1001,891,0,0,884,998,885,0,0,0,0,0,0,0,
0,0,0,0,0,0,0,0,0,0,0,0,0,0,0,0,0,0,0,0,0,0,0,0,0,0,0,0,0,0,0,0,889,890,891,0,0,0,0,0,0,0,
0,0,0,0,0,0,0,0,0,0,877,878,879,0,0,0,0,877,878,878,878,879,877,878,878,878,878,878,878,878,879,0,0,0,0,0,0,0,0,0,0,0,
0,0,0,0,0,0,0,0,0,0,883,998,884,995,995,996,0,883,998,998,998,885,1000,1001,1001,1001,998,998,998,998,885,0,0,0,0,0,0,0,0,0,0,0,
0,0,0,0,0,0,0,0,883,878,884,884,884,884,884,885,0,889,890,890,890,891,0,0,0,0,889,890,890,890,891,0,0,0,0,0,0,0,0,0,0,0,
0,0,0,0,0,0,0,0,883,998,884,998,884,998,884,885,0,0,0,0,0,0,0,0,0,0,0,0,0,0,0,0,0,0,0,0,0,0,0,0,0,0,
0,0,0,0,0,0,883,878,884,884,884,884,884,884,884,884,879,877,878,878,878,879,877,878,878,878,878,878,878,879,0,0,0,0,0,0,0,0,0,0,0,0,
0,0,0,0,0,0,883,998,884,998,884,998,884,884,998,998,885,883,998,998,998,885,883,998,998,998,998,998,998,885,0,0,0,0,0,0,0,0,0,0,0,0,
0,0,0,0,0,0,883,998,884,890,890,890,890,890,884,998,885,889,890,890,890,891,889,890,890,890,890,890,890,891,0,0,0,0,0,0,0,0,0,0,0,0,
0,0,0,0,0,0,883,998,885,0,0,0,0,0,883,884,885,0,0,0,0,0,0,0,0,880,881,882,0,0,0,0,0,0,0,0,0,0,0,0,0,0,
0,0,0,0,0,0,883,628,885,0,0,0,0,0,883,884,885,0,0,0,0,0,0,0,877,878,878,995,995,878,878,879,0,0,0,0,0,0,0,0,0,0,
0,0,0,0,0,0,0,0,0,0,0,0,0,0,883,998,885,0,0,0,0,0,0,0,883,998,998,998,998,998,998,998,0,0,0,0,0,0,0,0,0,0,
0,0,0,0,0,0,0,0,0,0,0,0,0,0,889,890,891,0,0,0,0,0,0,0,889,890,890,1001,890,890,890,891,0,0,0,0,0,0,0,0,0,0,
0,0,0,0,0,0,0,0,0,0,0,0,0,0,0,0,0,877,878,878,878,879,877,878,878,879,877,878,878,879,0,0,0,0,0,0,0,0,0,0,0,0,
0,0,0,0,0,0,0,0,0,0,0,0,0,0,877,996,0,883,998,998,998,885,883,998,998,885,883,998,998,885,0,0,0,0,0,0,0,0,0,0,0,0,
0,0,0,0,0,0,877,878,878,878,878,878,878,878,884,999,0,889,890,890,890,891,889,890,890,891,889,890,890,891,0,0,0,0,0,0,0,0,0,0,0,0,
0,0,0,0,0,0,883,884,884,998,884,998,998,998,884,999,0,0,0,0,0,0,0,0,0,0,0,0,0,0,0,0,0,0,0,0,0,0,0,0,0,0,
0,0,0,0,0,0,889,890,884,884,884,884,884,890,890,891,0,0,0,0,0,0,0,0,0,0,0,0,0,0,0,0,0,0,0,0,0,0,0,0,0,0,
0,0,0,0,0,0,0,0,883,884,884,884,879,0,0,0,0,0,0,0,0,0,0,0,0,0,0,0,0,0,0,0,0,0,0,0,0,0,0,0,0,0,
0,0,0,0,0,0,0,0,889,890,884,884,885,0,0,0,0,0,0,0,0,0,0,0,0,0,0,0,0,0,0,0,0,0,0,0,0,0,0,0,0,0
</data>
 </layer>
 <layer id="23" name="tile9" width="42" height="32" tintcolor="#535a84">
  <data encoding="csv">
0,0,0,0,0,0,0,0,0,0,0,0,0,0,0,0,0,0,0,0,0,0,0,0,0,0,0,0,0,0,0,0,0,0,0,0,0,0,0,0,0,0,
0,0,0,0,0,0,0,0,0,0,0,0,0,0,0,0,0,0,0,0,0,0,0,0,0,0,0,0,0,0,0,0,0,0,0,0,0,0,0,0,0,0,
0,0,0,0,0,0,0,0,0,0,0,0,0,0,0,0,0,0,0,0,0,0,0,0,0,0,0,0,0,0,0,0,0,0,0,0,0,0,0,0,0,0,
0,0,0,0,0,0,0,0,0,0,0,0,0,0,0,0,0,0,0,0,0,0,0,0,0,0,0,0,0,0,0,0,0,0,0,0,0,0,0,0,0,0,
0,0,0,0,0,0,0,0,0,0,0,0,0,0,0,0,0,0,0,0,0,0,0,0,0,0,0,0,0,0,0,0,0,0,0,0,0,0,0,0,0,0,
0,0,0,0,0,0,0,0,0,0,0,0,0,0,0,0,0,0,0,0,0,0,0,0,0,0,0,0,0,0,0,0,0,0,0,0,0,0,0,0,0,0,
0,0,0,0,0,0,0,0,0,0,0,0,0,0,0,0,0,0,0,0,0,0,0,0,0,0,0,0,0,0,0,0,0,0,0,0,0,0,0,0,0,0,
0,0,0,0,0,0,0,0,0,0,0,0,0,0,0,0,0,0,0,0,0,0,0,0,0,0,0,0,0,0,0,0,0,0,0,0,0,0,0,0,0,0,
0,0,0,0,0,0,0,0,0,0,0,0,0,0,0,0,0,0,0,0,0,0,0,0,0,0,0,0,0,0,0,0,0,0,0,0,0,0,0,0,0,0,
0,0,0,0,0,0,0,0,0,0,0,0,0,0,0,0,0,0,0,0,0,0,0,0,0,0,0,0,0,0,0,0,0,0,0,0,0,0,0,0,0,0,
0,0,0,0,0,0,0,0,0,0,0,0,0,0,0,0,0,0,0,0,0,0,0,0,0,0,0,0,0,0,0,0,0,0,0,0,0,0,0,0,0,0,
0,0,0,0,0,0,0,0,0,0,0,0,0,0,0,0,0,0,0,0,0,0,0,0,0,0,0,0,0,0,0,0,0,0,0,0,0,0,0,0,0,0,
0,0,0,0,0,0,0,0,0,0,0,0,0,0,0,0,0,0,0,0,0,0,0,0,0,0,0,0,0,0,0,0,0,0,0,0,0,0,0,0,0,0,
0,0,0,0,0,0,0,0,0,0,0,0,0,0,0,0,0,0,0,0,0,0,0,0,0,0,0,0,0,0,0,0,0,0,0,0,0,0,0,0,0,0,
0,0,0,0,0,0,0,0,0,0,0,0,0,0,0,0,0,0,0,0,0,0,0,0,0,0,0,0,0,0,0,0,0,0,0,0,0,0,0,0,0,0,
0,0,0,0,0,0,0,0,0,0,0,0,0,0,0,0,0,0,0,0,0,0,0,0,0,0,0,0,0,0,0,0,0,0,0,0,0,0,0,0,0,0,
0,0,0,0,0,0,0,0,0,0,0,0,0,0,0,0,0,0,0,0,0,0,0,0,0,0,0,0,0,0,0,0,0,0,0,0,0,0,0,0,0,0,
0,0,0,0,0,0,0,0,0,0,0,0,0,0,0,0,0,0,0,0,0,0,0,0,0,0,0,0,0,0,0,0,0,0,0,0,0,0,0,0,0,0,
0,0,0,0,0,0,0,0,0,0,0,0,0,0,0,0,0,0,0,0,0,0,0,0,0,0,0,0,0,0,0,0,0,0,0,0,0,0,0,0,0,0,
0,0,0,0,0,0,0,0,0,0,0,0,0,0,0,0,0,0,0,0,0,0,0,0,0,0,0,0,0,0,0,0,0,0,0,0,0,0,0,0,0,0,
0,0,0,0,0,0,0,0,0,0,0,0,0,0,0,0,0,0,0,0,0,0,0,0,0,0,0,0,0,0,0,0,0,0,0,0,0,0,0,0,0,0,
0,0,0,0,0,0,0,0,0,0,0,0,0,0,0,0,0,0,0,0,0,0,0,0,0,0,0,0,0,0,0,0,0,0,0,0,0,0,0,0,0,0,
0,0,0,0,0,0,0,0,0,0,0,0,0,0,0,0,0,0,0,0,0,0,0,0,0,0,0,0,0,0,0,0,0,0,0,0,0,0,0,0,0,0,
0,0,0,0,0,0,0,0,0,0,0,0,0,0,0,0,0,0,0,0,0,0,0,0,0,0,0,0,0,0,0,0,0,0,0,0,0,0,0,0,0,0,
0,0,0,0,0,0,0,0,0,0,0,0,0,0,0,0,0,0,0,0,0,0,0,0,0,0,0,0,0,0,0,0,0,0,0,0,0,0,0,0,0,0,
0,0,0,0,0,0,0,0,0,0,0,0,0,0,0,0,0,0,0,0,0,0,0,0,0,0,0,0,0,0,0,0,0,0,0,0,0,0,0,0,0,0,
0,0,0,0,0,0,0,0,0,0,0,0,0,0,0,0,0,0,0,0,0,0,0,0,0,0,0,0,0,0,0,0,0,0,0,0,0,0,0,0,0,0,
0,0,0,0,0,0,0,0,0,0,0,0,0,0,0,0,0,0,0,0,0,0,0,0,0,0,0,0,0,0,0,0,0,0,0,0,0,0,0,0,0,0,
0,0,0,0,0,0,0,0,0,0,0,0,0,0,0,0,0,0,0,0,0,0,0,0,0,0,0,0,0,0,0,0,0,0,0,0,0,0,0,0,0,0,
0,0,0,0,0,0,0,0,0,0,0,0,0,0,0,0,0,0,0,0,0,0,0,0,0,0,0,0,0,0,0,0,0,0,0,0,0,0,0,0,0,0,
0,0,0,0,0,0,0,0,0,0,0,0,0,0,0,0,0,0,0,0,0,0,0,0,0,0,0,0,0,0,0,0,0,0,0,0,0,0,0,0,0,0,
0,0,0,0,0,0,0,0,0,0,0,0,0,0,0,0,0,0,0,0,0,0,0,0,0,0,0,0,0,0,0,0,0,0,0,0,0,0,0,0,0,0
</data>
 </layer>
 <layer id="8" name="tile1" width="42" height="32">
  <data encoding="csv">
0,0,0,0,0,0,0,0,0,0,0,0,0,0,0,0,0,0,0,0,0,0,0,0,0,0,0,0,0,0,0,0,0,0,0,0,0,0,0,0,0,0,
0,0,0,0,0,0,0,0,0,0,0,0,0,0,0,0,0,0,0,0,0,0,0,0,0,0,0,0,0,0,0,0,0,0,0,0,0,0,0,0,0,0,
0,0,0,0,0,0,0,0,0,0,0,0,0,0,0,0,0,0,0,0,0,0,0,0,0,0,0,0,0,0,0,0,0,0,0,0,0,0,0,0,0,0,
0,0,0,0,0,0,0,0,0,0,0,0,0,0,0,0,0,0,0,0,0,0,0,0,0,0,0,0,0,0,0,0,0,0,0,0,0,0,0,0,0,0,
0,0,0,0,0,0,0,0,0,0,0,0,0,0,0,0,0,0,0,0,0,0,0,0,0,0,0,0,0,0,0,0,0,0,0,0,0,0,0,0,0,0,
0,0,0,0,0,0,0,0,0,0,0,0,0,0,0,0,0,0,0,0,0,0,0,0,0,0,0,0,0,0,0,0,0,0,0,0,0,0,0,0,0,0,
0,0,0,0,0,0,0,0,0,0,0,0,0,0,0,0,0,0,0,0,0,0,0,0,0,0,0,0,0,0,0,0,0,0,0,0,0,0,0,0,0,0,
0,0,0,0,0,0,0,0,0,0,0,0,0,0,0,0,0,0,0,0,0,0,0,0,0,0,0,0,0,0,0,0,0,0,0,0,0,0,0,0,0,0,
0,0,0,0,0,0,0,0,0,0,0,0,0,0,0,0,0,0,0,0,0,0,0,0,0,0,0,0,0,0,0,0,0,0,0,0,0,0,0,0,0,0,
0,0,0,0,0,0,0,0,0,0,0,0,0,0,0,0,0,0,0,0,0,0,0,0,0,0,0,0,0,0,0,0,761,0,761,924,924,924,924,924,924,924,
0,0,0,0,0,0,0,0,0,0,0,0,0,0,0,0,0,0,0,0,0,0,0,0,0,0,0,0,0,0,0,0,421,936,945,945,421,421,421,936,945,945,
0,0,0,0,0,0,0,0,0,0,0,0,0,0,0,0,0,0,0,0,0,0,0,0,0,0,0,0,0,0,0,0,931,933,934,944,421,931,931,933,934,944,
0,0,0,0,0,0,0,0,0,0,0,0,0,0,0,0,0,0,0,0,0,0,0,0,0,0,0,0,0,0,0,0,940,942,943,945,421,940,940,942,943,945,
0,0,0,0,0,0,0,0,0,0,0,0,0,0,0,0,0,0,0,0,0,0,0,0,0,0,0,0,0,0,0,0,433,433,433,433,433,433,433,433,433,433,
0,0,0,0,0,0,0,0,0,0,0,0,0,0,0,0,0,0,0,0,0,0,0,0,0,0,0,0,0,0,0,0,0,0,0,0,0,0,0,0,0,0,
0,0,0,0,0,0,0,0,0,0,0,0,0,0,0,0,0,0,0,0,0,0,0,0,0,0,0,0,0,0,0,0,0,0,0,0,0,0,0,0,0,0,
0,0,0,0,0,0,0,0,0,0,0,0,0,0,0,0,0,0,0,0,0,0,0,0,0,0,0,0,0,0,0,0,0,0,0,0,0,0,0,0,0,0,
0,0,0,0,0,0,0,0,0,0,0,0,0,0,0,0,0,0,0,0,0,0,0,0,0,0,0,0,0,0,0,0,0,0,0,0,0,0,0,0,0,0,
0,0,0,0,0,0,0,0,0,0,0,0,0,0,0,0,0,0,0,0,0,0,0,0,0,0,0,0,0,0,0,0,0,0,0,0,0,0,0,0,0,0,
0,0,0,0,0,0,0,0,0,0,0,0,0,0,0,0,0,0,0,0,0,0,0,0,0,0,0,0,0,0,0,0,0,0,0,0,0,0,0,0,0,0,
0,0,0,0,0,0,0,0,0,0,0,0,0,0,0,0,0,0,0,0,0,0,0,0,0,0,0,0,0,0,0,0,0,0,0,0,0,0,0,0,0,0,
0,0,0,0,0,0,0,0,0,0,0,0,0,0,0,0,0,0,0,0,0,0,0,0,0,0,0,0,0,0,0,0,0,0,0,0,0,0,0,0,0,0,
924,924,924,924,924,924,761,0,761,0,0,0,0,0,0,0,0,0,0,0,0,0,0,0,0,0,0,0,0,0,0,0,0,0,0,0,0,0,0,0,0,0,
421,421,936,945,421,421,421,936,945,0,0,0,0,0,0,0,0,0,0,0,0,0,0,0,0,0,0,0,0,0,0,0,0,0,0,0,0,0,0,0,0,0,
421,931,933,934,421,931,931,933,934,0,0,0,0,0,0,0,0,0,0,0,0,0,0,0,0,0,0,0,0,0,0,0,0,0,0,0,0,0,0,0,0,0,
421,940,942,943,421,940,940,942,943,0,0,0,0,0,0,0,0,0,0,0,0,0,0,0,0,0,0,0,0,0,0,0,0,0,0,0,0,0,0,0,0,0,
433,433,433,433,433,433,433,433,433,0,0,0,0,0,0,0,0,0,0,0,0,0,0,0,0,0,0,0,0,0,0,0,0,0,0,0,0,0,0,0,0,0,
0,0,0,0,0,0,0,0,0,0,0,0,0,0,0,0,0,0,0,0,0,0,0,0,0,0,0,0,0,0,0,0,0,0,0,0,0,0,0,0,0,0,
0,0,0,0,0,0,0,0,0,0,0,0,0,0,0,0,0,0,0,0,0,0,0,0,0,0,0,0,0,0,0,0,0,0,0,0,0,0,0,0,0,0,
0,0,0,0,0,0,0,0,0,0,0,0,0,0,0,0,0,0,0,0,0,0,0,0,0,0,0,0,0,0,0,0,0,0,0,0,0,0,0,0,0,0,
0,0,0,0,0,0,0,0,0,0,0,0,0,0,0,0,0,0,0,0,0,0,0,0,0,0,0,0,0,0,0,0,0,0,0,0,0,0,0,0,0,0,
0,0,0,0,0,0,0,0,0,0,0,0,0,0,0,0,0,0,0,0,0,0,0,0,0,0,0,0,0,0,0,0,0,0,0,0,0,0,0,0,0,0
</data>
 </layer>
 <layer id="19" name="tile0" width="42" height="32">
  <data encoding="csv">
0,0,0,0,0,0,0,0,0,0,0,0,0,0,0,0,0,0,0,0,0,0,0,0,0,0,0,0,0,0,0,0,0,0,0,0,0,0,0,0,0,0,
0,0,0,0,0,0,0,0,0,0,0,0,0,0,0,0,0,0,0,0,0,0,0,0,0,0,0,0,0,0,0,0,0,0,0,0,0,0,0,0,0,0,
0,0,0,0,0,0,0,0,0,0,0,0,0,0,0,0,0,0,0,0,0,0,0,0,0,0,0,0,0,0,0,0,0,0,0,0,0,0,0,0,0,0,
0,0,0,0,0,0,0,0,0,0,0,0,0,0,0,0,0,0,0,0,0,0,0,0,0,0,0,0,0,0,0,0,0,0,0,0,0,0,0,0,0,0,
0,0,0,0,0,0,0,0,0,0,0,0,0,0,0,0,0,0,0,0,0,0,0,0,0,0,0,0,0,0,0,0,0,0,0,0,0,0,0,0,0,0,
0,0,0,0,0,0,0,0,0,0,0,0,0,0,0,0,0,0,0,0,0,0,0,0,0,0,0,0,0,0,0,0,0,0,0,0,0,0,0,0,0,0,
0,0,0,0,0,0,0,0,0,0,0,0,0,0,0,0,0,0,0,0,0,0,0,0,0,0,0,0,0,0,0,0,0,0,0,0,0,0,0,0,0,0,
0,0,0,0,0,0,0,0,0,0,0,0,0,0,0,0,0,0,0,0,0,0,0,0,0,0,0,0,0,0,0,0,0,0,0,0,0,0,0,0,0,0,
0,0,0,0,0,0,0,0,0,0,0,0,0,0,0,0,0,0,0,0,0,0,0,0,0,0,0,0,0,0,0,0,0,0,0,0,0,0,0,0,0,0,
0,0,0,0,0,0,0,0,0,0,0,0,0,0,0,0,0,0,0,0,0,0,0,0,0,0,0,0,0,0,0,0,0,0,0,0,0,0,0,0,0,0,
0,0,0,0,0,0,0,0,0,0,0,0,0,0,0,0,0,0,0,0,0,0,0,0,0,0,0,0,0,0,0,0,0,0,0,0,0,0,0,0,0,0,
0,0,0,0,0,0,0,0,0,0,0,0,0,0,0,0,0,0,0,0,0,0,0,0,0,0,0,0,0,0,0,0,0,0,0,0,0,0,0,0,0,0,
0,0,0,0,0,0,0,0,0,0,0,0,0,0,0,0,0,0,0,0,0,0,0,0,0,0,0,0,0,0,0,0,0,0,0,0,0,0,0,0,0,0,
0,0,0,0,0,0,0,0,0,0,0,0,0,0,0,0,0,0,0,0,0,0,0,0,0,0,0,0,0,0,0,0,0,0,0,0,0,0,0,0,0,0,
0,0,0,0,0,0,0,0,0,0,0,0,0,0,0,0,0,0,0,0,0,0,0,0,0,0,0,0,0,0,0,0,0,0,0,0,0,0,0,0,0,0,
0,0,0,0,0,0,0,0,0,0,0,0,0,0,0,0,0,0,0,0,0,0,0,0,0,0,0,0,0,0,0,0,0,0,0,0,0,0,0,0,0,0,
0,0,0,0,0,0,0,0,0,0,0,0,0,0,0,0,0,0,0,0,0,0,0,0,0,0,0,0,0,0,0,0,0,0,0,0,0,0,0,0,0,0,
0,0,0,0,0,0,0,0,0,0,0,0,0,0,0,0,0,0,0,0,0,0,0,0,0,0,0,0,0,0,0,0,0,0,0,0,0,0,0,0,0,0,
0,0,0,0,0,0,0,0,0,0,0,0,0,0,0,0,0,0,0,0,0,0,0,0,0,0,0,0,0,0,0,0,0,0,0,0,0,0,0,0,0,0,
0,0,0,0,0,0,0,0,0,0,0,0,0,0,0,0,0,0,0,0,0,0,0,0,0,0,0,0,0,0,0,0,0,0,0,0,0,0,0,0,0,0,
0,0,0,0,0,0,0,0,0,0,0,0,0,0,0,0,0,0,0,0,0,0,0,0,0,0,0,0,0,0,0,0,0,0,0,0,0,0,0,0,0,0,
0,0,0,0,0,0,0,0,0,0,0,0,0,0,0,0,0,0,0,0,0,0,0,0,0,0,0,0,0,0,0,0,0,0,0,0,0,0,0,0,0,0,
0,0,0,0,0,0,0,0,0,0,0,0,0,0,0,0,0,0,0,0,0,0,0,0,0,0,0,0,0,0,0,0,0,0,0,0,0,0,0,0,0,0,
0,0,0,0,0,0,0,0,0,0,0,0,0,0,0,0,0,0,0,0,0,0,0,0,0,0,0,0,0,0,0,0,0,0,0,0,0,0,0,0,0,0,
0,0,0,0,0,0,0,0,0,0,0,0,0,0,0,0,0,0,0,0,0,0,0,0,0,0,0,0,0,0,0,0,0,0,0,0,0,0,0,0,0,0,
0,0,0,0,0,0,0,0,0,0,0,0,0,0,0,0,0,0,0,0,0,0,0,0,0,0,0,0,0,0,0,0,0,0,0,0,0,0,0,0,0,0,
0,0,0,0,0,0,0,0,0,0,0,0,0,0,0,0,0,0,0,0,0,0,0,0,0,0,0,0,0,0,0,0,0,0,0,0,0,0,0,0,0,0,
0,0,0,0,0,0,0,0,0,0,0,0,0,0,0,0,0,0,0,0,0,0,0,0,0,0,0,0,0,0,0,0,0,0,0,0,0,0,0,0,0,0,
0,0,0,0,0,0,0,0,0,0,0,0,0,0,0,0,0,0,0,0,0,0,0,0,0,0,0,0,0,0,0,0,0,0,0,0,0,0,0,0,0,0,
0,0,0,0,0,0,0,0,0,0,0,0,0,0,0,0,0,0,0,0,0,0,0,0,0,0,0,0,0,0,0,0,0,0,0,0,0,0,0,0,0,0,
0,0,0,0,0,0,0,0,0,0,0,0,0,0,0,0,0,0,0,0,0,0,0,0,0,0,0,0,0,0,0,0,0,0,0,0,0,0,0,0,0,0,
0,0,0,0,0,0,0,0,0,0,0,0,0,0,0,0,0,0,0,0,0,0,0,0,0,0,0,0,0,0,0,0,0,0,0,0,0,0,0,0,0,0
</data>
 </layer>
 <layer id="18" name="tile_silhouette" width="42" height="32">
  <data encoding="csv">
0,0,0,0,0,0,0,0,0,0,0,0,0,0,0,0,0,0,0,0,0,0,0,0,0,0,0,0,0,0,0,0,0,0,0,0,0,0,0,0,0,0,
0,0,0,0,0,0,0,0,0,0,0,0,0,0,0,0,0,0,0,0,0,0,0,0,0,0,0,0,0,0,0,0,0,0,0,0,0,0,0,0,0,0,
0,0,0,0,0,0,0,0,0,0,0,0,0,0,0,0,0,0,0,0,0,0,0,0,0,0,0,0,0,0,0,0,0,0,0,0,0,0,0,0,0,0,
0,0,0,0,0,0,0,0,0,0,0,0,0,0,0,0,0,0,0,0,0,0,0,0,0,0,0,0,0,0,0,0,0,0,0,0,0,0,0,0,0,0,
0,0,0,0,0,0,0,0,0,0,0,0,0,0,0,0,0,0,0,0,0,0,0,0,0,0,0,0,0,0,0,0,0,0,0,0,0,0,0,0,0,0,
0,0,0,0,0,0,0,0,0,0,0,0,0,0,0,0,0,0,0,1003,0,1004,0,1004,0,1004,0,1004,1005,0,0,1010,1011,1011,0,0,0,0,0,0,0,0,
0,0,0,0,0,0,0,0,0,0,0,0,0,0,0,0,0,0,0,1010,0,0,0,0,0,0,0,0,0,0,0,0,0,1011,0,0,0,0,0,0,0,0,
0,0,0,0,0,0,0,0,0,0,0,0,0,0,0,0,0,0,0,0,0,0,0,0,0,0,0,0,0,0,0,0,0,1011,0,0,0,0,0,0,0,0,
0,0,0,0,0,0,0,0,0,0,0,0,0,0,0,0,0,0,0,1010,0,0,0,0,0,0,0,0,0,0,0,0,0,1011,0,0,0,0,0,0,0,0,
0,0,0,0,0,0,0,0,0,0,0,0,0,0,0,0,0,0,0,0,0,0,0,0,0,0,0,0,0,0,0,0,0,1021,0,0,0,0,0,0,0,0,
0,0,0,0,0,0,0,0,0,0,0,0,0,0,0,0,0,0,0,1010,0,0,0,0,0,0,0,0,0,0,0,0,0,0,0,0,0,0,0,0,0,0,
0,0,0,0,0,0,0,0,0,0,0,0,0,0,0,0,0,0,0,1010,0,0,1011,1011,1011,1011,1011,0,1011,0,0,0,0,0,0,0,0,0,0,0,0,0,
0,0,0,0,0,0,0,0,0,0,0,0,0,0,0,0,0,0,0,0,0,0,0,0,0,0,0,0,1018,0,0,0,0,0,0,0,0,0,0,0,0,0,
0,0,0,0,0,0,0,0,0,0,0,0,0,0,0,0,0,0,0,0,0,0,0,0,0,0,0,0,0,0,0,0,0,0,0,0,0,0,0,0,0,0,
0,0,0,0,0,0,0,0,0,0,0,0,0,0,0,0,0,0,0,0,0,0,0,0,0,0,0,0,0,0,0,0,0,0,0,0,0,0,0,0,0,0,
0,0,0,0,0,0,0,0,0,0,0,1011,0,1004,1004,1005,0,0,1011,1011,1011,0,1017,1018,1018,1018,1011,1011,1011,1011,0,0,0,0,0,0,0,0,0,0,0,0,
0,0,0,0,0,0,0,0,0,0,0,0,0,0,0,0,0,0,0,0,0,0,0,0,0,0,0,0,0,0,0,0,0,0,0,0,0,0,0,0,0,0,
0,0,0,0,0,0,0,0,0,1011,0,1011,0,1011,0,0,0,0,0,0,0,0,0,0,0,0,0,0,0,0,0,0,0,0,0,0,0,0,0,0,0,0,
0,0,0,0,0,0,0,0,0,0,0,0,0,0,0,0,0,0,0,0,0,0,0,0,0,0,0,0,0,0,0,0,0,0,0,0,0,0,0,0,0,0,
0,0,0,0,0,0,0,1011,0,1011,0,1011,0,0,1011,1011,0,0,1011,1011,1011,0,0,1011,1011,1011,1011,1011,1011,0,0,0,0,0,0,0,0,0,0,0,0,0,
0,0,0,0,0,0,0,1011,0,0,0,0,0,0,0,1011,0,0,0,0,0,0,0,0,0,0,0,0,0,0,0,0,0,0,0,0,0,0,0,0,0,0,
0,0,0,0,0,0,0,1011,0,0,0,0,0,0,0,0,0,0,0,0,0,0,0,0,0,0,0,0,0,0,0,0,0,0,0,0,0,0,0,0,0,0,
0,0,0,0,0,0,0,1021,0,0,0,0,0,0,0,0,0,0,0,0,0,0,0,0,0,0,0,1003,1003,0,0,0,0,0,0,0,0,0,0,0,0,0,
0,0,0,0,0,0,0,0,0,0,0,0,0,0,0,1020,0,0,0,0,0,0,0,0,0,1011,1011,1011,1011,1011,1011,1011,0,0,0,0,0,0,0,0,0,0,
0,0,0,0,0,0,0,0,0,0,0,0,0,0,0,0,0,0,0,0,0,0,0,0,0,0,0,1018,0,0,0,0,0,0,0,0,0,0,0,0,0,0,
0,0,0,0,0,0,0,0,0,0,0,0,0,0,0,0,0,0,0,0,0,0,0,0,0,0,0,0,0,0,0,0,0,0,0,0,0,0,0,0,0,0,
0,0,0,0,0,0,0,0,0,0,0,0,0,0,0,1005,0,0,1011,1011,1011,0,0,1011,1011,0,0,1011,1011,0,0,0,0,0,0,0,0,0,0,0,0,0,
0,0,0,0,0,0,0,0,0,0,0,0,0,0,0,1012,0,0,0,0,0,0,0,0,0,0,0,0,0,0,0,0,0,0,0,0,0,0,0,0,0,0,
0,0,0,0,0,0,0,0,0,1011,0,1011,1011,1011,0,1012,0,0,0,0,0,0,0,0,0,0,0,0,0,0,0,0,0,0,0,0,0,0,0,0,0,0,
0,0,0,0,0,0,0,0,0,0,0,0,0,0,0,0,0,0,0,0,0,0,0,0,0,0,0,0,0,0,0,0,0,0,0,0,0,0,0,0,0,0,
0,0,0,0,0,0,0,0,0,0,0,0,0,0,0,0,0,0,0,0,0,0,0,0,0,0,0,0,0,0,0,0,0,0,0,0,0,0,0,0,0,0,
0,0,0,0,0,0,0,0,0,0,0,0,0,0,0,0,0,0,0,0,0,0,0,0,0,0,0,0,0,0,0,0,0,0,0,0,0,0,0,0,0,0
</data>
 </layer>
 <objectgroup id="22" name="battleareas"/>
 <objectgroup color="#00ffff" id="3" name="climbing" class="objects">
  <object id="20" type="climbarea" x="280" y="760" width="40" height="120"/>
  <object id="22" type="climbarea" x="360" y="760" width="40" height="40"/>
  <object id="23" type="climbarea" x="440" y="760" width="40" height="40"/>
  <object id="24" type="climbarea" x="360" y="680" width="40" height="40"/>
  <object id="25" type="climbarea" x="440" y="680" width="40" height="40"/>
  <object id="26" type="climbarea" x="440" y="600" width="40" height="40"/>
  <object id="31" type="climbarea" x="360" y="1120" width="40" height="40"/>
  <object id="32" type="climbarea" x="440" y="1120" width="120" height="40"/>
  <object id="45" type="climbarea" x="600" y="1040" width="40" height="120"/>
  <object id="46" type="climbarea" x="600" y="920" width="40" height="40"/>
  <object id="48" type="climbarea" x="600" y="760" width="40" height="80"/>
  <object id="49" type="climbarea" x="560" y="760" width="40" height="40"/>
  <object id="54" type="climbarea" x="520" y="680" width="40" height="40"/>
  <object id="57" type="climbarea" x="720" y="600" width="120" height="40"/>
  <object id="61" type="climbarea" x="720" y="760" width="120" height="40"/>
  <object id="63" type="climbarea" x="720" y="1040" width="120" height="40"/>
  <object id="65" type="climbarea" x="520" y="600" width="120" height="40"/>
  <object id="78" type="climbarea" x="1080" y="1040" width="80" height="40"/>
  <object id="79" type="climbarea" x="1080" y="920" width="40" height="80"/>
  <object id="80" type="climbarea" x="1120" y="920" width="160" height="40"/>
  <object id="81" type="climbarea" x="880" y="600" width="320" height="40"/>
  <object id="82" type="climbarea" x="1120" y="440" width="40" height="80"/>
  <object id="84" type="climbarea" x="760" y="200" width="40" height="80"/>
  <object id="85" type="climbarea" x="760" y="320" width="40" height="40"/>
  <object id="86" type="climbarea" x="760" y="400" width="40" height="80"/>
  <object id="92" type="climbarea" x="920" y="1040" width="80" height="40"/>
  <object id="96" type="climbarea" x="1000" y="920" width="80" height="40"/>
  <object id="103" type="climbarea" x="880" y="440" width="200" height="40"/>
  <object id="106" type="climbarea" x="1080" y="200" width="80" height="40"/>
  <object id="172" type="climbarea" x="1000" y="200" width="40" height="40"/>
  <object id="173" type="climbarea" x="920" y="200" width="40" height="40"/>
  <object id="174" type="climbarea" x="840" y="200" width="40" height="40"/>
  <object id="107" type="climbarea" x="920" y="760" width="240" height="40"/>
  <object id="121" type="climbarea" x="1240" y="200" width="120" height="40"/>
  <object id="170" type="climbarea" x="1080" y="880" width="80" height="40"/>
  <object id="192" type="climbarea" x="1320" y="240" width="40" height="160"/>
 </objectgroup>
 <objectgroup color="#7f00ff" id="6" name="markers">
  <object id="3" name="entry" x="40" y="980">
   <point/>
  </object>
  <object id="6" name="spawn" x="120" y="980">
   <point/>
  </object>
  <object id="161" x="260" y="780">
   <point/>
  </object>
  <object id="259" x="1340" y="460">
   <point/>
  </object>
  <object id="327" x="300" y="980">
   <point/>
  </object>
 </objectgroup>
 <objectgroup color="#0000ff" id="2" name="collision">
  <object id="15" x="0" y="880" width="360" height="40"/>
  <object id="16" x="360" y="920" width="40" height="120"/>
  <object id="17" x="0" y="1040" width="360" height="40"/>
  <object id="154" x="1280" y="360" width="400" height="40"/>
  <object id="155" x="1280" y="520" width="400" height="40"/>
  <object id="156" x="1240" y="400" width="40" height="120"/>
 </objectgroup>
 <objectgroup color="#ff55ff" id="4" name="objects_buckets">
  <object id="28" name="climbwaterbucket" x="360" y="640" width="40" height="40">
   <properties>
    <property name="activetime" type="float" value="60"/>
    <property name="generate" type="bool" value="true"/>
    <property name="spawnrate" type="float" value="25"/>
    <property name="timelimit" type="float" value="5"/>
    <property name="timer" type="float" value="75"/>
    <property name="waittime" type="float" value="30"/>
    <property name="waterfallingtimer" type="int" value="12"/>
    <property name="watermoverate" type="float" value="6"/>
    <property name="watertilelimit" type="int" value="32"/>
   </properties>
  </object>
  <object id="30" name="climbwaterbucket" x="440" y="560" width="40" height="40">
   <properties>
    <property name="activetime" type="float" value="60"/>
    <property name="generate" type="bool" value="true"/>
    <property name="spawnrate" type="float" value="25"/>
    <property name="timelimit" type="float" value="5"/>
    <property name="timer" type="float" value="37"/>
    <property name="waittime" type="float" value="30"/>
    <property name="waterfallingtimer" type="int" value="12"/>
    <property name="watermoverate" type="float" value="6"/>
    <property name="watertilelimit" type="int" value="32"/>
   </properties>
  </object>
  <object id="43" name="climbwaterbucket" x="360" y="800" width="40" height="40">
   <properties>
    <property name="generate" type="bool" value="false"/>
   </properties>
  </object>
  <object id="44" name="climbwaterbucket" x="440" y="720" width="40" height="40">
   <properties>
    <property name="generate" type="bool" value="false"/>
   </properties>
  </object>
  <object id="62" name="climbwaterbucket" x="760" y="800" width="40" height="40">
   <properties>
    <property name="generate" type="bool" value="false"/>
    <property name="watertype" type="int" value="3"/>
   </properties>
  </object>
  <object id="58" name="climbwaterbucket" x="760" y="560" width="40" height="40">
   <properties>
    <property name="activetime" type="float" value="80"/>
    <property name="generate" type="bool" value="true"/>
    <property name="spawnrate" type="float" value="12.5"/>
    <property name="timelimit" type="float" value="5"/>
    <property name="timer" type="float" value="24"/>
    <property name="waittime" type="float" value="8"/>
    <property name="waterbad" type="bool" value="true"/>
    <property name="waterdmg" type="int" value="10"/>
    <property name="waterfallingtimer" type="int" value="12"/>
    <property name="watermoverate" type="float" value="6"/>
    <property name="watertilelimit" type="int" value="24"/>
    <property name="watertype" type="int" value="3"/>
   </properties>
  </object>
  <object id="72" name="climbwaterbucket" x="920" y="640" width="40" height="40">
   <properties>
    <property name="generate" type="bool" value="false"/>
    <property name="watertype" type="int" value="3"/>
   </properties>
  </object>
  <object id="101" name="climbwaterbucket" x="960" y="680" width="40" height="40">
   <properties>
    <property name="generate" type="bool" value="false"/>
   </properties>
  </object>
  <object id="102" name="climbwaterbucket" x="1040" y="680" width="40" height="40">
   <properties>
    <property name="generate" type="bool" value="false"/>
   </properties>
  </object>
  <object id="74" name="climbwaterbucket" x="1000" y="640" width="40" height="40">
   <properties>
    <property name="generate" type="bool" value="false"/>
    <property name="watertype" type="int" value="3"/>
   </properties>
  </object>
  <object id="76" name="climbwaterbucket" x="1080" y="640" width="40" height="40">
   <properties>
    <property name="generate" type="bool" value="false"/>
    <property name="watertype" type="int" value="3"/>
   </properties>
  </object>
  <object id="93" name="climbwaterbucket" x="600" y="560" width="40" height="40">
   <properties>
    <property name="activetime" type="float" value="45"/>
    <property name="generate" type="bool" value="true"/>
    <property name="spawnrate" type="float" value="12"/>
    <property name="timelimit" type="float" value="5"/>
    <property name="timer" type="float" value="60"/>
    <property name="waittime" type="float" value="30"/>
    <property name="waterfallingtimer" type="int" value="24"/>
    <property name="watermoverate" type="float" value="6"/>
    <property name="watertilelimit" type="int" value="32"/>
   </properties>
  </object>
  <object id="94" name="climbwaterbucket" x="600" y="840" width="40" height="40">
   <properties>
    <property name="generate" type="bool" value="false"/>
   </properties>
  </object>
  <object id="108" name="climbwaterbucket" x="920" y="120" width="40" height="40">
   <properties>
    <property name="activetime" type="float" value="60"/>
    <property name="generate" type="bool" value="true"/>
    <property name="spawnrate" type="float" value="12.5"/>
    <property name="timelimit" type="float" value="5"/>
    <property name="timer" type="float" value="75"/>
    <property name="waittime" type="float" value="30"/>
    <property name="waterbad" type="bool" value="true"/>
    <property name="waterdmg" type="int" value="10"/>
    <property name="waterfallingtimer" type="int" value="16"/>
    <property name="watermoverate" type="float" value="6"/>
    <property name="watertilelimit" type="int" value="32"/>
    <property name="watertype" type="int" value="3"/>
   </properties>
  </object>
  <object id="109" name="climbwaterbucket" x="1000" y="120" width="40" height="40">
   <properties>
    <property name="activetime" type="float" value="60"/>
    <property name="generate" type="bool" value="true"/>
    <property name="spawnrate" type="float" value="12.5"/>
    <property name="timelimit" type="float" value="5"/>
    <property name="timer" type="float" value="65"/>
    <property name="waittime" type="float" value="30"/>
    <property name="waterbad" type="bool" value="true"/>
    <property name="waterdmg" type="int" value="10"/>
    <property name="waterfallingtimer" type="int" value="16"/>
    <property name="watermoverate" type="float" value="6"/>
    <property name="watertilelimit" type="int" value="32"/>
    <property name="watertype" type="int" value="3"/>
   </properties>
  </object>
  <object id="110" name="climbwaterbucket" x="1080" y="120" width="40" height="40">
   <properties>
    <property name="activetime" type="float" value="60"/>
    <property name="generate" type="bool" value="true"/>
    <property name="spawnrate" type="float" value="12.5"/>
    <property name="timelimit" type="float" value="5"/>
    <property name="timer" type="float" value="55"/>
    <property name="waittime" type="float" value="30"/>
    <property name="waterbad" type="bool" value="true"/>
    <property name="waterdmg" type="int" value="10"/>
    <property name="waterfallingtimer" type="int" value="16"/>
    <property name="watermoverate" type="float" value="6"/>
    <property name="watertilelimit" type="int" value="32"/>
    <property name="watertype" type="int" value="3"/>
   </properties>
  </object>
  <object id="111" name="climbwaterbucket" x="960" y="360" width="40" height="40">
   <properties>
    <property name="activetime" type="float" value="60"/>
    <property name="generate" type="bool" value="true"/>
    <property name="spawnrate" type="float" value="25"/>
    <property name="timelimit" type="float" value="5"/>
    <property name="timer" type="float" value="20"/>
    <property name="waittime" type="float" value="30"/>
    <property name="waterfallingtimer" type="int" value="16"/>
    <property name="watermoverate" type="float" value="6"/>
    <property name="watertilelimit" type="int" value="32"/>
   </properties>
  </object>
  <object id="112" name="climbwaterbucket" x="1040" y="360" width="40" height="40">
   <properties>
    <property name="activetime" type="float" value="60"/>
    <property name="generate" type="bool" value="true"/>
    <property name="spawnrate" type="float" value="25"/>
    <property name="timelimit" type="float" value="5"/>
    <property name="timer" type="float" value="10"/>
    <property name="waittime" type="float" value="30"/>
    <property name="waterfallingtimer" type="int" value="16"/>
    <property name="watermoverate" type="float" value="6"/>
    <property name="watertilelimit" type="int" value="32"/>
   </properties>
  </object>
  <object id="160" name="climbmover" x="1280" y="280" width="40" height="40">
   <properties>
    <property name="target" type="object" value="161"/>
   </properties>
  </object>
  <object id="197" name="coinbowl" x="820" y="440" width="40" height="40">
   <properties>
    <property name="value" type="int" value="10"/>
   </properties>
  </object>
  <object id="199" name="coinbowl" x="1120" y="540" width="40" height="40">
   <properties>
    <property name="value" type="int" value="10"/>
   </properties>
  </object>
 </objectgroup>
 <objectgroup color="#ff00ff" id="5" name="objects_party">
  <object id="135" name="transition" x="-40" y="920" width="40" height="120">
   <properties>
    <property name="map" value="2_flooded_sanctuary/flooded_1"/>
    <property name="marker" value="entry2"/>
   </properties>
  </object>
  <object id="169" name="interactable" x="1440" y="400" width="120" height="120">
   <properties>
    <property name="solid" type="bool" value="true"/>
    <property name="text1">* (?!)[wait:5]
* (Something in the water blocked your way.)</property>
    <property name="text2" value="* (It seems like you can't keep going further, unless it'll move away.)"/>
   </properties>
  </object>
  <object id="325" name="climbentry" x="280" y="880" width="40" height="40">
   <properties>
    <property name="target" type="object" value="326"/>
   </properties>
  </object>
  <object id="326" name="climbexit" x="280" y="840" width="40" height="40">
   <properties>
    <property name="target" type="object" value="327"/>
   </properties>
  </object>
  <object id="329" name="climbentry" x="1320" y="360" width="40" height="40">
   <properties>
    <property name="target" type="object" value="330"/>
   </properties>
  </object>
  <object id="330" name="climbexit" x="1320" y="320" width="40" height="40">
   <properties>
    <property name="target" type="object" value="259"/>
   </properties>
  </object>
 </objectgroup>
 <objectgroup color="#ff0000" id="30" name="paths"/>
 <objectgroup id="21" name="objects_enemies"/>
 <objectgroup color="#00ff00" id="7" name="objects_overlay" visible="0">
  <object id="10" name="texturescroller" x="0" y="-40">
   <properties>
    <property name="type" value="hsv"/>
   </properties>
   <point/>
  </object>
  <object id="11" name="churchfog" x="40" y="-40">
   <point/>
  </object>
  <object id="50" name="parallax_waterfall" x="120" y="0" width="80" height="1280">
   <properties>
    <property name="parallax_x" type="float" value="1.2"/>
    <property name="parallax_y" type="float" value="1.2"/>
   </properties>
  </object>
  <object id="51" name="parallax_waterfall" x="720" y="0" width="80" height="1280">
   <properties>
    <property name="parallax_x" type="float" value="1.2"/>
    <property name="parallax_y" type="float" value="1.2"/>
   </properties>
  </object>
  <object id="117" name="parallax_waterfall" x="1680" y="0" width="80" height="1280">
   <properties>
    <property name="parallax_x" type="float" value="1.2"/>
    <property name="parallax_y" type="float" value="1.2"/>
   </properties>
  </object>
  <object id="118" name="parallax_waterfall" x="1760" y="0" width="80" height="1280">
   <properties>
    <property name="parallax_x" type="float" value="1.2"/>
    <property name="parallax_y" type="float" value="1.2"/>
   </properties>
  </object>
  <object id="167" name="parallax_waterfall" x="1960" y="0" width="80" height="1280">
   <properties>
    <property name="parallax_x" type="float" value="1.2"/>
    <property name="parallax_y" type="float" value="1.2"/>
   </properties>
  </object>
 </objectgroup>
 <objectgroup color="#ff00ff" id="31" name="objects"/>
 <objectgroup color="#00c000" id="32" name="controllers"/>
</map>
