<?xml version="1.0" encoding="UTF-8"?>
<map version="1.11" tiledversion="1.12.1" orientation="orthogonal" renderorder="right-down" width="20" height="50" tilewidth="40" tileheight="40" infinite="0" nextlayerid="19" nextobjectid="80">
 <editorsettings>
  <export target="data.lua" format="lua"/>
 </editorsettings>
 <properties>
  <property name="border" value="church_b"/>
  <property name="music" value="second_church"/>
 </properties>
 <tileset firstgid="1" source="../../../tilesets/bg_dw_church_2_tileset.tsx"/>
 <tileset firstgid="199" source="../../../tilesets/bg_dw_dither_overlay_tileset.tsx"/>
 <tileset firstgid="245" source="../../../tilesets/bg_dw_library_tileset_new.tsx"/>
 <tileset firstgid="1075" source="../../../tilesets/longslides.tsx"/>
 <tileset firstgid="1129" source="../../../tilesets/fast_travel_doors.tsx"/>
 <tileset firstgid="1139" source="../../../tilesets/church_objects.tsx"/>
 <tileset firstgid="1248" source="../../../tilesets/bg_dw_church_library_2_tileset.tsx"/>
 <tileset firstgid="1508" source="../../../tilesets/bg_dw_church_tileset_new.tsx"/>
 <objectgroup id="18" name="objects_bg_3" visible="0" parallaxx="0.3" parallaxy="0.82"/>
 <objectgroup id="15" name="objects_bg_2" visible="0" parallaxx="0.4" parallaxy="0.85">
  <object id="69" gid="1151" x="-10" y="910" width="480" height="150" rotation="-90">
   <properties>
    <property name="color" type="color" value="#ff2525ba"/>
   </properties>
  </object>
  <object id="70" gid="1151" x="-10" y="430" width="480" height="150" rotation="-90">
   <properties>
    <property name="color" type="color" value="#ff2525ba"/>
   </properties>
  </object>
  <object id="71" gid="1151" x="-10" y="1390" width="480" height="150" rotation="-90">
   <properties>
    <property name="color" type="color" value="#ff2525ba"/>
   </properties>
  </object>
  <object id="72" gid="1151" x="590" y="910" width="480" height="150" rotation="-90">
   <properties>
    <property name="color" type="color" value="#ff2525ba"/>
   </properties>
  </object>
  <object id="73" gid="1151" x="590" y="430" width="480" height="150" rotation="-90">
   <properties>
    <property name="color" type="color" value="#ff2525ba"/>
   </properties>
  </object>
  <object id="74" gid="1151" x="590" y="1390" width="480" height="150" rotation="-90">
   <properties>
    <property name="color" type="color" value="#ff2525ba"/>
   </properties>
  </object>
 </objectgroup>
 <objectgroup id="10" name="objects_bg" visible="0" parallaxx="0.5" parallaxy="0.9">
  <object id="32" gid="1143" x="10" y="1200" width="640" height="1600"/>
  <object id="50" gid="1140" x="384" y="1232" width="200" height="1240"/>
  <object id="52" gid="2147484788" x="-30" y="1690" width="200" height="1240"/>
  <object id="59" gid="1151" x="-380" y="590" width="416" height="130">
   <properties>
    <property name="color" type="color" value="#ff00007f"/>
   </properties>
  </object>
  <object id="60" gid="1151" x="36" y="590" width="416" height="130">
   <properties>
    <property name="color" type="color" value="#ff00007f"/>
   </properties>
  </object>
  <object id="61" gid="1151" x="452" y="590" width="416" height="130">
   <properties>
    <property name="color" type="color" value="#ff00007f"/>
   </properties>
  </object>
  <object id="62" gid="1151" x="-380" y="870" width="416" height="130">
   <properties>
    <property name="color" type="color" value="#ff00007f"/>
   </properties>
  </object>
  <object id="63" gid="1151" x="36" y="870" width="416" height="130">
   <properties>
    <property name="color" type="color" value="#ff00007f"/>
   </properties>
  </object>
  <object id="64" gid="1151" x="452" y="870" width="416" height="130">
   <properties>
    <property name="color" type="color" value="#ff00007f"/>
   </properties>
  </object>
 </objectgroup>
 <objectgroup id="17" name="objects_fade">
  <object id="51" gid="1147" x="800" y="1240" width="350" height="800" rotation="270"/>
 </objectgroup>
 <layer id="16" name="tiles_osc_optimize" width="20" height="50">
  <data encoding="csv">
0,0,0,0,0,0,0,0,0,0,0,0,0,0,0,0,0,0,0,0,
0,0,0,0,0,0,0,0,0,0,0,0,0,0,0,0,0,0,0,0,
0,0,0,0,0,0,0,0,0,0,0,0,0,0,0,0,0,0,0,0,
0,0,0,0,0,0,0,0,0,0,0,0,0,0,0,0,0,0,0,0,
0,0,0,0,0,0,0,0,0,0,0,0,0,0,0,0,0,0,0,0,
0,0,0,0,0,0,0,0,0,0,0,0,0,0,0,0,0,0,0,0,
0,0,0,0,0,0,0,0,0,0,0,0,0,0,0,0,0,0,0,0,
0,0,0,0,0,0,0,0,0,0,0,0,0,0,0,0,0,0,0,0,
0,0,0,0,194,194,194,194,194,194,194,194,194,194,194,194,194,194,0,0,
0,0,0,0,194,194,194,194,194,194,194,194,194,194,194,194,194,194,0,0,
0,0,0,0,194,194,194,194,194,194,194,194,194,194,194,194,194,194,0,0,
0,0,0,0,194,194,194,194,194,194,194,194,194,194,194,194,194,194,0,0,
0,0,0,0,194,194,194,194,194,194,194,194,194,194,194,194,194,194,0,0,
0,0,0,0,0,0,0,0,0,0,0,0,0,0,0,0,0,0,0,0,
0,0,0,0,0,0,0,0,0,0,0,0,0,0,0,0,0,0,0,0,
0,0,0,0,0,0,0,0,0,0,0,0,0,0,0,0,0,0,0,0,
0,0,0,0,0,0,0,0,0,0,0,0,0,0,0,0,0,0,0,0,
0,0,0,0,0,0,0,0,0,0,0,0,0,0,0,0,0,0,0,0,
0,0,0,0,0,0,0,0,0,0,0,0,0,0,0,0,0,0,0,0,
0,0,0,0,0,0,0,0,0,0,0,0,0,0,0,0,0,0,0,0,
0,0,0,0,0,0,0,0,0,0,0,0,0,0,0,0,0,0,0,0,
0,0,0,0,0,0,0,0,0,0,0,0,0,0,0,0,0,0,0,0,
0,0,0,0,0,0,0,0,0,0,0,0,0,0,0,0,0,0,0,0,
0,0,0,0,0,0,0,0,0,0,0,0,0,0,0,0,0,0,0,0,
0,0,0,0,0,0,0,0,0,0,0,0,0,0,0,0,0,0,0,0,
0,0,0,0,0,0,0,0,0,0,0,0,0,0,0,0,0,0,0,0,
0,0,0,0,0,0,0,0,0,0,0,0,0,0,0,0,0,0,0,0,
0,0,0,0,0,0,0,0,0,0,0,0,0,0,0,0,0,0,0,0,
0,0,0,0,0,0,0,0,0,0,0,0,0,0,0,0,0,0,0,0,
0,0,0,0,0,0,0,0,0,0,0,0,0,0,0,0,0,0,0,0,
0,0,0,0,0,0,0,0,0,0,0,0,0,0,0,0,0,0,0,0,
1640,1640,1640,1640,1640,1640,1640,1640,1640,1640,1640,1640,1640,1640,1640,1640,1640,1640,1640,1640,
1640,1640,1640,1640,1640,1640,1640,1640,1640,1640,1640,1640,1640,1640,1640,1640,1640,1640,1640,1640,
1640,1640,1640,1640,1640,1640,1640,1640,1640,1640,1640,1640,1640,1640,1640,1640,1640,1640,1640,1640,
1640,1640,1640,1640,1640,1640,1640,1640,1640,1640,1640,1640,1640,1640,1640,1640,1640,1640,1640,1640,
1640,1640,1640,1640,1640,1640,1640,1640,1640,1640,1640,1640,1640,1640,1640,1640,1640,1640,1640,1640,
1640,1640,1640,1640,1640,1640,1640,1640,1640,1640,1640,1640,1640,1640,1640,1640,1640,1640,1640,1640,
1640,1640,1640,1640,1640,1640,1640,1640,1640,1640,1640,1640,1640,1640,1640,1640,1640,1640,1640,1640,
1640,1640,1640,1640,1640,1640,1640,1640,1640,1640,1640,1640,1640,1640,1640,1640,1640,1640,1640,1640,
1640,1640,1640,1640,1640,1640,1640,1640,1640,1640,1640,1640,1640,1640,1640,1640,1640,1640,1640,1640,
1640,1640,1640,1640,1640,1640,1640,1640,1640,1640,1640,1640,1640,1640,1640,1640,1640,1640,1640,1640,
1640,1640,1640,1640,1640,1640,1640,1640,1640,1640,1640,1640,1640,1640,1640,1640,1640,1640,1640,1640,
1640,1640,1640,1640,1640,1640,1640,1640,1640,1640,1640,1640,1640,1640,1640,1640,1640,1640,1640,1640,
1640,1640,1640,1640,1640,1640,1640,1640,1640,1640,1640,1640,1640,1640,1640,1640,1640,1640,1640,1640,
1640,1640,1640,1640,1640,1640,1640,1640,1640,1640,1640,1640,1640,1640,1640,1640,1640,1640,1640,1640,
1640,1640,1640,1640,1640,1640,1640,1640,1640,1640,1640,1640,1640,1640,1640,1640,1640,1640,1640,1640,
1640,1640,1640,1640,1640,1640,1640,1640,1640,1640,1640,1640,1640,1640,1640,1640,1640,1640,1640,1640,
1640,1640,1640,1640,1640,1640,1640,1640,1640,1640,1640,1640,1640,1640,1640,1640,1640,1640,1640,1640,
1640,1640,1640,1640,1640,1640,1640,1640,1640,1640,1640,1640,1640,1640,1640,1640,1640,1640,1640,1640,
1640,1640,1640,1640,1640,1640,1640,1640,1640,1640,1640,1640,1640,1640,1640,1640,1640,1640,1640,1640
</data>
 </layer>
 <objectgroup id="14" name="objects_bg_high" parallaxy="0.9">
  <object id="40" gid="1231" x="620" y="2120" width="400" height="578"/>
  <object id="41" gid="1231" x="220" y="2120" width="400" height="578"/>
  <object id="42" gid="1231" x="-580" y="2120" width="400" height="578"/>
  <object id="43" gid="1231" x="-180" y="2120" width="400" height="578"/>
 </objectgroup>
 <objectgroup id="8" name="objects_osc">
  <object id="19" name="texturescroller" x="80" y="0">
   <properties>
    <property name="base_tex" value="backgrounds/glow_purple_tile_oscillate"/>
    <property name="scroll_tex" value="backgrounds/perlin_noise_purple_looping"/>
    <property name="type" value="library"/>
   </properties>
   <point/>
  </object>
  <object id="20" name="texturescroller" x="120" y="0">
   <properties>
    <property name="type" value="hsv"/>
   </properties>
   <point/>
  </object>
  <object id="30" name="tile_oscillate" x="160" y="320" width="560" height="200"/>
 </objectgroup>
 <layer id="1" name="Tile Layer 1" width="20" height="50">
  <data encoding="csv">
1779,1779,1779,1850,1926,1926,1926,1850,0,0,0,0,0,1850,1926,1926,1926,1850,0,0,
1779,1779,1779,1856,1889,1890,1891,1856,0,0,0,0,0,1856,1889,1890,1891,1856,0,0,
1779,1779,1779,1856,1895,1896,1897,1856,0,0,0,0,0,1856,1895,1896,1897,1856,0,0,
1779,1772,1779,1856,1901,1902,1903,1856,0,0,0,0,0,1856,1901,1902,1903,1856,0,0,
1779,1778,1779,1862,1907,1908,1909,1862,0,0,0,0,0,1862,1907,1908,1909,1862,0,0,
1779,1784,1779,1868,1907,1908,1909,1868,0,0,0,0,0,1868,1907,1908,1909,1868,0,0,
1779,1779,1779,1868,1913,1914,1915,1868,0,0,0,0,0,1868,1913,1914,1915,1868,0,0,
1785,1785,1785,1874,2083,2083,2083,1874,0,0,0,0,0,1874,2083,2083,2083,1874,0,0,
10,10,4,20,21,34,2147483653,2147483683,2147483682,132,133,134,135,2,3,10,10,23,0,0,
14,10,22,29,30,43,2147483672,2147483692,151,152,142,143,144,11,12,10,4,31,0,0,
28,28,28,28,31,52,2147483701,143,24,44,151,152,153,13,15,10,54,8,0,0,
0,0,0,0,17,187,169,159,160,160,143,44,151,135,8,5,168,188,0,0,
0,0,0,0,17,178,179,187,171,7,159,160,143,144,17,18,16,17,0,0,
0,0,0,0,28,28,28,0,0,1294,1295,1296,1297,0,0,28,28,28,0,0,
0,0,0,0,1922,1923,1924,0,0,258,258,258,258,0,0,1924,1925,1922,0,0,
0,0,0,0,1928,1929,1930,0,0,268,268,268,268,0,0,1930,1931,1928,0,0,
0,0,0,0,1940,1935,1936,0,0,0,0,0,0,0,0,1936,1937,1940,0,0,
0,0,0,0,1975,0,0,0,0,0,0,0,0,0,0,0,0,1975,0,0,
0,0,0,0,0,0,0,0,0,0,0,0,0,0,0,0,0,0,0,0,
0,0,0,0,0,0,0,0,0,0,0,0,0,0,0,0,0,0,0,0,
0,0,0,0,0,0,0,0,0,0,0,0,0,0,0,0,0,0,0,0,
0,0,0,0,0,0,0,0,0,0,0,0,0,0,0,0,0,0,0,0,
0,0,0,0,0,0,0,0,0,0,0,0,0,0,0,0,0,0,0,0,
0,0,0,0,0,0,0,0,0,0,0,0,0,0,0,0,0,0,0,0,
0,0,0,0,0,0,0,0,0,0,0,0,0,0,0,0,0,0,0,0,
0,0,0,0,0,0,0,0,0,0,0,0,0,0,0,0,0,0,0,0,
0,0,0,0,0,0,0,0,0,0,0,0,0,0,0,0,0,0,0,0,
0,0,0,0,0,0,0,0,0,0,0,0,0,0,0,0,0,0,0,0,
0,0,0,0,0,0,0,0,0,0,0,0,0,0,0,0,0,0,0,0,
0,0,0,0,0,0,0,0,0,0,0,0,0,0,0,0,0,0,0,0,
0,0,0,0,0,0,0,0,0,0,0,0,0,0,0,0,0,0,0,0,
0,0,0,0,0,0,0,0,0,0,0,0,0,0,0,0,0,0,0,0,
0,0,0,0,0,0,0,0,0,0,0,0,0,0,0,0,0,0,0,0,
0,0,0,0,0,0,0,0,0,0,0,0,0,0,0,0,0,0,0,0,
0,0,0,0,0,0,0,0,0,0,0,0,0,0,0,0,0,0,0,0,
0,0,0,0,0,0,0,0,0,0,0,0,0,0,0,0,0,0,0,0,
0,0,0,0,0,0,0,0,0,0,0,0,0,0,0,0,0,0,0,0,
0,0,0,0,0,0,0,0,0,0,0,0,0,0,0,0,0,0,0,0,
0,0,0,0,0,0,0,0,0,0,0,0,0,0,0,0,0,0,0,0,
0,0,0,0,0,0,0,0,0,0,0,0,0,0,0,0,0,0,0,0,
0,0,0,0,0,0,0,0,0,0,0,0,0,0,0,0,0,0,0,0,
0,0,0,0,0,0,0,0,0,0,0,0,0,0,0,0,0,0,0,0,
0,0,0,0,0,0,0,0,246,0,248,0,246,0,0,0,0,0,0,0,
0,0,0,0,0,0,0,0,256,0,258,0,256,0,248,0,0,0,0,0,
0,0,0,0,0,0,0,1418,1419,1439,1410,1430,1410,1409,1441,0,0,0,0,0,
0,0,0,0,0,0,0,1428,1419,1439,1410,1410,1429,1410,1421,0,0,0,0,0,
0,0,0,0,0,0,0,1418,1410,1410,1430,1410,1410,1410,1431,0,0,0,0,0,
0,0,0,0,0,0,0,1438,1410,1439,1410,1410,1410,1410,1441,0,0,0,0,0,
0,0,0,0,0,0,0,1468,1469,1469,1469,1469,1469,1469,1470,0,0,0,0,0,
0,0,0,0,0,0,0,1331,1332,1333,1334,1332,1333,1334,1331,0,0,0,0,0
</data>
 </layer>
 <layer id="2" name="Tile Layer 2" width="20" height="50">
  <data encoding="csv">
0,0,0,0,0,0,0,0,0,0,0,0,0,0,0,0,0,0,0,0,
0,0,0,0,0,0,0,0,0,0,0,0,0,0,0,0,0,0,0,0,
0,0,0,0,0,0,0,0,0,0,0,0,0,0,0,0,0,0,0,0,
0,0,0,0,0,0,0,0,0,0,0,0,0,0,0,0,0,0,0,0,
0,0,0,0,0,0,0,0,0,0,0,0,0,0,0,0,0,0,0,0,
0,0,0,0,0,0,0,0,0,0,0,0,0,0,0,0,0,0,0,0,
0,0,0,0,0,0,0,0,0,0,0,0,0,0,0,0,0,0,0,0,
0,0,0,0,0,0,0,0,0,0,0,0,0,0,0,0,0,0,0,0,
0,0,0,0,0,0,0,0,0,0,0,0,0,0,0,0,0,0,0,0,
0,0,0,0,0,0,0,0,0,0,0,0,0,0,0,0,0,0,0,0,
0,0,0,0,0,0,0,0,0,0,0,0,0,0,0,0,0,0,0,0,
0,0,0,0,0,0,0,0,0,0,0,0,0,0,0,0,0,0,0,0,
0,0,0,0,0,0,0,0,0,0,0,0,0,0,0,0,0,0,0,0,
0,0,0,0,0,0,0,1249,1251,1081,1082,1082,1083,1252,1254,0,0,0,0,0,
0,0,0,0,0,0,0,1259,1261,1090,1091,1091,1092,1259,1261,0,0,0,0,0,
0,0,0,0,0,0,0,1269,1271,1099,1100,1100,1101,1269,1271,0,0,0,0,0,
0,0,0,0,0,0,0,1262,1264,1108,1109,1109,1110,1262,1264,0,0,0,0,0,
0,0,0,0,0,0,0,1272,1274,1108,1109,1109,1110,1272,1274,0,0,0,0,0,
0,0,0,0,0,0,0,1259,1261,1108,1109,1109,1110,1259,1261,0,0,0,0,0,
0,0,0,0,0,0,0,1269,1271,1108,1109,1109,1110,1269,1271,0,0,0,0,0,
0,0,0,0,0,0,0,1262,1264,1108,1109,1109,1110,1262,1264,0,0,0,0,0,
0,0,0,0,0,0,0,1272,1274,1108,1109,1109,1110,1272,1274,0,0,0,0,0,
0,0,0,0,0,0,0,1259,1261,1108,1109,1109,1110,1259,1261,0,0,0,0,0,
0,0,0,0,0,0,0,1269,1271,1108,1109,1109,1110,1269,1271,0,0,0,0,0,
0,0,0,0,0,0,0,1262,1264,1108,1109,1109,1110,1262,1264,0,0,0,0,0,
0,0,0,0,0,0,0,1272,1274,1108,1109,1109,1110,1272,1274,0,0,0,0,0,
0,0,0,0,0,0,0,1259,1261,1108,1109,1109,1110,1259,1261,0,0,0,0,0,
0,0,0,0,0,0,0,1269,1271,1108,1109,1109,1110,1269,1271,0,0,0,0,0,
0,0,0,0,0,0,0,1262,1264,1108,1109,1109,1110,1262,1264,0,0,0,0,0,
0,0,0,0,0,0,0,1272,1274,1108,1109,1109,1110,1272,1274,0,0,0,0,0,
0,0,0,0,0,0,0,1259,1261,1108,1109,1109,1110,1259,1261,0,0,0,0,0,
0,0,0,0,0,0,0,1269,1271,1108,1109,1109,1110,1269,1271,0,0,0,0,0,
0,0,0,0,0,0,0,1262,1264,1108,1109,1109,1110,1262,1264,0,0,0,0,0,
0,0,0,0,0,0,0,1272,1274,1108,1109,1109,1110,1272,1274,0,0,0,0,0,
0,0,0,0,0,0,0,1259,1261,1108,1109,1109,1110,1259,1261,0,0,0,0,0,
0,0,0,0,0,0,0,1269,1271,1108,1109,1109,1110,1269,1271,0,0,0,0,0,
0,0,0,0,0,0,0,1262,1264,1108,1109,1109,1110,1262,1264,0,0,0,0,0,
0,0,0,0,0,0,0,1272,1274,1108,1109,1109,1110,1272,1274,0,0,0,0,0,
0,0,0,0,0,0,0,1259,1261,1108,1109,1109,1110,1259,1261,0,0,0,0,0,
0,0,0,0,0,0,0,1269,1271,1108,1109,1109,1110,1269,1271,0,0,0,0,0,
0,0,0,0,0,0,0,1262,1264,1108,1109,1109,1110,1262,1264,0,0,0,0,0,
0,0,0,0,0,0,0,1272,1274,1108,1109,1109,1110,1272,1274,0,0,0,0,0,
0,0,0,0,0,0,0,1269,1271,1108,1109,1109,1110,1269,1271,0,0,0,0,0,
0,0,0,0,0,0,0,1279,1281,1117,1118,1118,1119,1279,1281,0,0,0,0,0,
0,0,0,0,0,0,0,0,0,1126,1127,1127,1128,0,0,0,0,0,0,0,
0,0,0,0,0,0,0,0,0,0,0,0,0,0,0,0,0,0,0,0,
0,0,0,0,0,0,0,0,0,0,0,0,0,0,0,0,0,0,0,0,
0,0,0,0,0,0,0,0,0,0,0,0,0,0,0,0,0,0,0,0,
0,0,0,0,0,0,0,0,0,0,0,0,0,0,0,0,0,0,0,0,
0,0,0,0,0,0,0,0,0,0,0,0,0,0,0,0,0,0,0,0
</data>
 </layer>
 <objectgroup id="3" name="objects_party">
  <object id="9" name="script" x="280" y="1800" width="320" height="40">
   <properties>
    <property name="cutscene" value="events.travel_unlock"/>
   </properties>
  </object>
  <object id="15" name="transition" x="-40" y="320" width="40" height="80">
   <properties>
    <property name="map" value="1_2nd_sanctuary/second_sanctum_12"/>
    <property name="marker" value="entry2"/>
   </properties>
  </object>
  <object id="16" name="slidearea" x="360" y="520" width="160" height="1240"/>
  <object id="28" gid="1138" x="320" y="320" width="200" height="200"/>
  <object id="29" name="interactable" x="340" y="280" width="160" height="40">
   <properties>
    <property name="text1_1" value="* (It is a massive door with veins across it.)"/>
    <property name="text1_2">* (...[wait:5]Well, [wait:5]it's just that.)[wait:10]
* (The developers haven't added anything yet.)</property>
    <property name="text2_1" value="* (Useless door.)"/>
   </properties>
  </object>
  <object id="47" name="cameratarget" x="360" y="640" width="160" height="1080">
   <properties>
    <property name="lockx" type="bool" value="true"/>
    <property name="locky" type="bool" value="false"/>
    <property name="marker" value="targ"/>
    <property name="time" type="float" value="0.5"/>
   </properties>
  </object>
  <object id="78" name="window_glow" x="220" y="210">
   <properties>
    <property name="big" value="true"/>
   </properties>
   <point/>
  </object>
  <object id="79" name="window_glow" x="620" y="210">
   <properties>
    <property name="big" value="true"/>
   </properties>
   <point/>
  </object>
 </objectgroup>
 <objectgroup id="4" name="markers">
  <object id="10" name="kristo" x="408" y="1880">
   <point/>
  </object>
  <object id="11" name="susieto" x="472" y="1880">
   <point/>
  </object>
  <object id="12" name="ralseito" x="534" y="1840">
   <point/>
  </object>
  <object id="13" name="jammto" x="346" y="1840">
   <point/>
  </object>
  <object id="14" name="entry" x="40" y="360">
   <point/>
  </object>
  <object id="24" name="spawn" x="80" y="400">
   <point/>
  </object>
  <object id="45" name="targ" x="440" y="1440">
   <point/>
  </object>
 </objectgroup>
 <objectgroup id="5" name="collision" visible="0">
  <object id="1" x="0" y="400" width="160" height="1600"/>
  <object id="2" x="160" y="520" width="120" height="1480"/>
  <object id="3" x="280" y="1920" width="320" height="80"/>
  <object id="4" x="600" y="520" width="200" height="1480"/>
  <object id="5" x="520" y="520" width="80" height="1240"/>
  <object id="6" x="280" y="520" width="80" height="1240"/>
  <object id="7" x="720" y="320" width="80" height="200"/>
  <object id="8" x="0" y="0" width="800" height="320"/>
 </objectgroup>
 <objectgroup id="11" name="objects_over_party" visible="0" parallaxy="1.6">
  <object id="35" gid="1230" x="-890" y="660" width="2880" height="100" rotation="30"/>
  <object id="37" gid="1230" x="1790" y="950" width="2880" height="100" rotation="150"/>
 </objectgroup>
 <objectgroup id="12" name="objects_overer_party" visible="0" parallaxy="2">
  <object id="39" gid="1171" x="1480" y="1560" width="1920" height="200" rotation="180"/>
 </objectgroup>
 <objectgroup id="9" name="objects_darkness">
  <object id="21" name="darkness" x="160" y="0">
   <properties>
    <property name="alpha" type="float" value="0.23"/>
    <property name="highlight" type="bool" value="true"/>
   </properties>
   <point/>
  </object>
 </objectgroup>
 <objectgroup id="7" name="objects_fog">
  <object id="18" name="churchfog" x="40" y="0">
   <point/>
  </object>
 </objectgroup>
 <objectgroup id="6" name="objects_top">
  <object id="17" name="filter" x="0" y="0">
   <properties>
    <property name="type" value="hsv"/>
   </properties>
   <point/>
  </object>
 </objectgroup>
</map>
