<?xml version="1.0" encoding="UTF-8"?>
<map version="1.11" tiledversion="1.12.1" orientation="orthogonal" renderorder="right-down" width="48" height="32" tilewidth="40" tileheight="40" infinite="0" nextlayerid="17" nextobjectid="341">
 <editorsettings>
  <export target="data.lua" format="lua"/>
 </editorsettings>
 <properties>
  <property name="border" value="church_b"/>
  <property name="music" value="second_church"/>
 </properties>
 <tileset firstgid="1" source="../../../tilesets/church_objects.tsx"/>
 <tileset firstgid="111" source="../../../tilesets/bg_dw_church_tileset_new.tsx"/>
 <tileset firstgid="693" source="../../../tilesets/bg_dw_church_c_tileset.tsx"/>
 <tileset firstgid="972" source="../../../tilesets/bg_dw_church_2_tileset.tsx"/>
 <tileset firstgid="1170" source="../../../tilesets/longslides.tsx"/>
 <tileset firstgid="1224" source="../../../tilesets/bg_dw_church_library_2_tileset.tsx"/>
 <objectgroup id="16" name="objects_parallax3" visible="0" parallaxx="0.3" parallaxy="0.82">
  <object id="292" gid="110" x="-140" y="90" width="60" height="80">
   <properties>
    <property name="color" type="color" value="#ff2b2b2b"/>
   </properties>
  </object>
  <object id="293" gid="110" x="70" y="20" width="60" height="80">
   <properties>
    <property name="color" type="color" value="#ff2b2b2b"/>
   </properties>
  </object>
  <object id="294" gid="110" x="400" y="120" width="60" height="80">
   <properties>
    <property name="color" type="color" value="#ff2b2b2b"/>
   </properties>
  </object>
  <object id="295" gid="110" x="390" y="460" width="60" height="80">
   <properties>
    <property name="color" type="color" value="#ff2b2b2b"/>
   </properties>
  </object>
  <object id="296" gid="110" x="170" y="370" width="60" height="80">
   <properties>
    <property name="color" type="color" value="#ff2b2b2b"/>
   </properties>
  </object>
  <object id="297" gid="110" x="130" y="700" width="60" height="80">
   <properties>
    <property name="color" type="color" value="#ff2b2b2b"/>
   </properties>
  </object>
  <object id="298" gid="110" x="380" y="650" width="60" height="80">
   <properties>
    <property name="color" type="color" value="#ff2b2b2b"/>
   </properties>
  </object>
  <object id="299" gid="110" x="280" y="560" width="60" height="80">
   <properties>
    <property name="color" type="color" value="#ff2b2b2b"/>
   </properties>
  </object>
  <object id="300" gid="110" x="-80" y="560" width="60" height="80">
   <properties>
    <property name="color" type="color" value="#ff2b2b2b"/>
   </properties>
  </object>
  <object id="301" gid="110" x="120" y="910" width="60" height="80">
   <properties>
    <property name="color" type="color" value="#ff2b2b2b"/>
   </properties>
  </object>
  <object id="302" gid="110" x="580" y="960" width="60" height="80">
   <properties>
    <property name="color" type="color" value="#ff2b2b2b"/>
   </properties>
  </object>
  <object id="303" gid="110" x="420" y="1150" width="60" height="80">
   <properties>
    <property name="color" type="color" value="#ff2b2b2b"/>
   </properties>
  </object>
  <object id="304" gid="110" x="180" y="1160" width="60" height="80">
   <properties>
    <property name="color" type="color" value="#ff2b2b2b"/>
   </properties>
  </object>
  <object id="305" gid="110" x="-70" y="1010" width="60" height="80">
   <properties>
    <property name="color" type="color" value="#ff2b2b2b"/>
   </properties>
  </object>
  <object id="306" gid="110" x="740" y="780" width="60" height="80">
   <properties>
    <property name="color" type="color" value="#ff2b2b2b"/>
   </properties>
  </object>
  <object id="307" gid="110" x="610" y="610" width="60" height="80">
   <properties>
    <property name="color" type="color" value="#ff2b2b2b"/>
   </properties>
  </object>
  <object id="308" gid="110" x="720" y="80" width="60" height="80">
   <properties>
    <property name="color" type="color" value="#ff2b2b2b"/>
   </properties>
  </object>
  <object id="309" gid="110" x="930" y="160" width="60" height="80">
   <properties>
    <property name="color" type="color" value="#ff2b2b2b"/>
   </properties>
  </object>
  <object id="310" gid="110" x="990" y="470" width="60" height="80">
   <properties>
    <property name="color" type="color" value="#ff2b2b2b"/>
   </properties>
  </object>
  <object id="311" gid="110" x="930" y="1020" width="60" height="80">
   <properties>
    <property name="color" type="color" value="#ff2b2b2b"/>
   </properties>
  </object>
  <object id="312" gid="110" x="1060" y="740" width="60" height="80">
   <properties>
    <property name="color" type="color" value="#ff2b2b2b"/>
   </properties>
  </object>
  <object id="313" gid="110" x="1070" y="1090" width="60" height="80">
   <properties>
    <property name="color" type="color" value="#ff2b2b2b"/>
   </properties>
  </object>
  <object id="314" gid="110" x="1220" y="500" width="60" height="80">
   <properties>
    <property name="color" type="color" value="#ff2b2b2b"/>
   </properties>
  </object>
  <object id="315" gid="110" x="1260" y="840" width="60" height="80">
   <properties>
    <property name="color" type="color" value="#ff2b2b2b"/>
   </properties>
  </object>
  <object id="316" gid="110" x="390" y="910" width="60" height="80">
   <properties>
    <property name="color" type="color" value="#ff2b2b2b"/>
   </properties>
  </object>
  <object id="317" gid="110" x="650" y="270" width="60" height="80">
   <properties>
    <property name="color" type="color" value="#ff2b2b2b"/>
   </properties>
  </object>
  <object id="321" gid="110" x="1270" y="660" width="60" height="80">
   <properties>
    <property name="color" type="color" value="#ff2b2b2b"/>
   </properties>
  </object>
  <object id="323" gid="110" x="1420" y="1040" width="60" height="80">
   <properties>
    <property name="color" type="color" value="#ff2b2b2b"/>
   </properties>
  </object>
  <object id="324" gid="110" x="1620" y="610" width="60" height="80">
   <properties>
    <property name="color" type="color" value="#ff2b2b2b"/>
   </properties>
  </object>
  <object id="325" gid="110" x="1370" y="1220" width="60" height="80">
   <properties>
    <property name="color" type="color" value="#ff2b2b2b"/>
   </properties>
  </object>
  <object id="326" gid="110" x="2030" y="140" width="60" height="80">
   <properties>
    <property name="color" type="color" value="#ff2b2b2b"/>
   </properties>
  </object>
  <object id="327" gid="110" x="1780" y="420" width="60" height="80">
   <properties>
    <property name="color" type="color" value="#ff2b2b2b"/>
   </properties>
  </object>
  <object id="328" gid="110" x="1470" y="130" width="60" height="80">
   <properties>
    <property name="color" type="color" value="#ff2b2b2b"/>
   </properties>
  </object>
  <object id="329" gid="110" x="1200" y="-60" width="60" height="80">
   <properties>
    <property name="color" type="color" value="#ff2b2b2b"/>
   </properties>
  </object>
  <object id="333" gid="110" x="2020" y="1040" width="60" height="80">
   <properties>
    <property name="color" type="color" value="#ff2b2b2b"/>
   </properties>
  </object>
  <object id="335" gid="110" x="270" y="-140" width="60" height="80">
   <properties>
    <property name="color" type="color" value="#ff2b2b2b"/>
   </properties>
  </object>
 </objectgroup>
 <objectgroup id="15" name="objects_parallax2" visible="0" parallaxx="0.4" parallaxy="0.85">
  <object id="268" gid="110" x="150" y="510" width="84" height="112">
   <properties>
    <property name="color" type="color" value="#ff333333"/>
   </properties>
  </object>
  <object id="270" gid="110" x="270" y="230" width="84" height="112">
   <properties>
    <property name="color" type="color" value="#ff333333"/>
   </properties>
  </object>
  <object id="271" gid="110" x="450" y="440" width="84" height="112">
   <properties>
    <property name="color" type="color" value="#ff333333"/>
   </properties>
  </object>
  <object id="272" gid="110" x="-80" y="370" width="84" height="112">
   <properties>
    <property name="color" type="color" value="#ff333333"/>
   </properties>
  </object>
  <object id="273" gid="110" x="-110" y="740" width="84" height="112">
   <properties>
    <property name="color" type="color" value="#ff333333"/>
   </properties>
  </object>
  <object id="274" gid="110" x="170" y="880" width="84" height="112">
   <properties>
    <property name="color" type="color" value="#ff333333"/>
   </properties>
  </object>
  <object id="275" gid="110" x="420" y="740" width="84" height="112">
   <properties>
    <property name="color" type="color" value="#ff333333"/>
   </properties>
  </object>
  <object id="276" gid="110" x="650" y="570" width="84" height="112">
   <properties>
    <property name="color" type="color" value="#ff333333"/>
   </properties>
  </object>
  <object id="277" gid="110" x="900" y="620" width="84" height="112">
   <properties>
    <property name="color" type="color" value="#ff333333"/>
   </properties>
  </object>
  <object id="278" gid="110" x="820" y="20" width="84" height="112">
   <properties>
    <property name="color" type="color" value="#ff333333"/>
   </properties>
  </object>
  <object id="279" gid="110" x="1050" y="280" width="84" height="112">
   <properties>
    <property name="color" type="color" value="#ff333333"/>
   </properties>
  </object>
  <object id="280" gid="110" x="-50" y="1110" width="84" height="112">
   <properties>
    <property name="color" type="color" value="#ff333333"/>
   </properties>
  </object>
  <object id="281" gid="110" x="460" y="1120" width="84" height="112">
   <properties>
    <property name="color" type="color" value="#ff333333"/>
   </properties>
  </object>
  <object id="282" gid="110" x="770" y="1060" width="84" height="112">
   <properties>
    <property name="color" type="color" value="#ff333333"/>
   </properties>
  </object>
  <object id="283" gid="110" x="1160" y="810" width="84" height="112">
   <properties>
    <property name="color" type="color" value="#ff333333"/>
   </properties>
  </object>
  <object id="284" gid="110" x="1330" y="470" width="84" height="112">
   <properties>
    <property name="color" type="color" value="#ff333333"/>
   </properties>
  </object>
  <object id="285" gid="110" x="1500" y="1030" width="84" height="112">
   <properties>
    <property name="color" type="color" value="#ff333333"/>
   </properties>
  </object>
  <object id="286" gid="110" x="1550" y="50" width="84" height="112">
   <properties>
    <property name="color" type="color" value="#ff333333"/>
   </properties>
  </object>
  <object id="287" gid="110" x="1540" y="360" width="84" height="112">
   <properties>
    <property name="color" type="color" value="#ff333333"/>
   </properties>
  </object>
  <object id="288" gid="110" x="570" y="200" width="84" height="112">
   <properties>
    <property name="color" type="color" value="#ff333333"/>
   </properties>
  </object>
  <object id="289" gid="110" x="1640" y="760" width="84" height="112">
   <properties>
    <property name="color" type="color" value="#ff333333"/>
   </properties>
  </object>
  <object id="290" gid="110" x="1750" y="1190" width="84" height="112">
   <properties>
    <property name="color" type="color" value="#ff333333"/>
   </properties>
  </object>
  <object id="291" gid="110" x="-170" y="60" width="84" height="112">
   <properties>
    <property name="color" type="color" value="#ff333333"/>
   </properties>
  </object>
  <object id="318" gid="110" x="730" y="360" width="84" height="112">
   <properties>
    <property name="color" type="color" value="#ff333333"/>
   </properties>
  </object>
  <object id="319" gid="110" x="350" y="1030" width="84" height="112">
   <properties>
    <property name="color" type="color" value="#ff333333"/>
   </properties>
  </object>
  <object id="320" gid="110" x="-40" y="930" width="84" height="112">
   <properties>
    <property name="color" type="color" value="#ff333333"/>
   </properties>
  </object>
  <object id="330" gid="110" x="1860" y="630" width="84" height="112">
   <properties>
    <property name="color" type="color" value="#ff333333"/>
   </properties>
  </object>
  <object id="331" gid="110" x="2010" y="840" width="84" height="112">
   <properties>
    <property name="color" type="color" value="#ff333333"/>
   </properties>
  </object>
  <object id="332" gid="110" x="1830" y="340" width="84" height="112">
   <properties>
    <property name="color" type="color" value="#ff333333"/>
   </properties>
  </object>
  <object id="334" gid="110" x="360" y="-70" width="84" height="112">
   <properties>
    <property name="color" type="color" value="#ff333333"/>
   </properties>
  </object>
  <object id="337" gid="110" x="2020" y="510" width="84" height="112">
   <properties>
    <property name="color" type="color" value="#ff333333"/>
   </properties>
  </object>
 </objectgroup>
 <objectgroup id="13" name="objects_parallax" visible="0" parallaxx="0.5" parallaxy="0.9">
  <object id="246" gid="110" x="50" y="240" width="120" height="160">
   <properties>
    <property name="color" type="color" value="#ff7f7f7f"/>
   </properties>
  </object>
  <object id="247" gid="110" x="250" y="180" width="120" height="160">
   <properties>
    <property name="color" type="color" value="#ff7f7f7f"/>
   </properties>
  </object>
  <object id="248" gid="110" x="120" y="500" width="120" height="160">
   <properties>
    <property name="color" type="color" value="#ff7f7f7f"/>
   </properties>
  </object>
  <object id="249" gid="110" x="0" y="720" width="120" height="160">
   <properties>
    <property name="color" type="color" value="#ff7f7f7f"/>
   </properties>
  </object>
  <object id="250" gid="110" x="100" y="1170" width="120" height="160">
   <properties>
    <property name="color" type="color" value="#ff7f7f7f"/>
   </properties>
  </object>
  <object id="252" gid="110" x="670" y="1250" width="120" height="160">
   <properties>
    <property name="color" type="color" value="#ff7f7f7f"/>
   </properties>
  </object>
  <object id="253" gid="110" x="980" y="1030" width="120" height="160">
   <properties>
    <property name="color" type="color" value="#ff7f7f7f"/>
   </properties>
  </object>
  <object id="254" gid="110" x="1200" y="1240" width="120" height="160">
   <properties>
    <property name="color" type="color" value="#ff7f7f7f"/>
   </properties>
  </object>
  <object id="255" gid="110" x="1480" y="1150" width="120" height="160">
   <properties>
    <property name="color" type="color" value="#ff7f7f7f"/>
   </properties>
  </object>
  <object id="256" gid="110" x="1610" y="670" width="120" height="160">
   <properties>
    <property name="color" type="color" value="#ff7f7f7f"/>
   </properties>
  </object>
  <object id="257" gid="110" x="1760" y="990" width="120" height="160">
   <properties>
    <property name="color" type="color" value="#ff7f7f7f"/>
   </properties>
  </object>
  <object id="258" gid="110" x="1600" y="220" width="120" height="160">
   <properties>
    <property name="color" type="color" value="#ff7f7f7f"/>
   </properties>
  </object>
  <object id="259" gid="110" x="1820" y="90" width="120" height="160">
   <properties>
    <property name="color" type="color" value="#ff7f7f7f"/>
   </properties>
  </object>
  <object id="260" gid="110" x="650" y="70" width="120" height="160">
   <properties>
    <property name="color" type="color" value="#ff7f7f7f"/>
   </properties>
  </object>
  <object id="261" gid="110" x="790" y="780" width="120" height="160">
   <properties>
    <property name="color" type="color" value="#ff7f7f7f"/>
   </properties>
  </object>
  <object id="262" gid="110" x="1030" y="610" width="120" height="160">
   <properties>
    <property name="color" type="color" value="#ff7f7f7f"/>
   </properties>
  </object>
  <object id="263" gid="110" x="380" y="870" width="120" height="160">
   <properties>
    <property name="color" type="color" value="#ff7f7f7f"/>
   </properties>
  </object>
  <object id="265" gid="110" x="570" y="450" width="120" height="160">
   <properties>
    <property name="color" type="color" value="#ff7f7f7f"/>
   </properties>
  </object>
  <object id="267" gid="110" x="1170" y="230" width="120" height="160">
   <properties>
    <property name="color" type="color" value="#ff7f7f7f"/>
   </properties>
  </object>
  <object id="336" gid="110" x="1350" y="-50" width="120" height="160">
   <properties>
    <property name="color" type="color" value="#ff7f7f7f"/>
   </properties>
  </object>
 </objectgroup>
 <objectgroup id="14" name="objects_fade" visible="0">
  <object id="244" gid="9" x="1920" y="1400" width="720" height="1920" rotation="270"/>
 </objectgroup>
 <layer id="8" name="tile_osc_optimize" width="48" height="32">
  <data encoding="csv">
0,0,0,0,0,0,0,0,0,0,0,0,0,0,0,0,0,0,0,0,0,0,0,0,0,0,0,0,0,0,0,0,0,0,0,0,0,0,0,0,0,0,0,0,0,0,0,0,
0,0,0,0,0,0,0,0,0,0,0,0,0,0,0,0,0,0,0,0,0,0,0,0,0,0,0,0,0,0,0,0,0,0,0,0,0,0,0,0,0,0,0,0,0,0,0,0,
0,0,0,0,0,0,0,0,0,0,0,0,0,0,0,0,0,0,0,0,0,0,0,0,0,0,0,0,1483,1483,1483,1483,1483,1483,0,0,0,0,0,0,0,0,0,0,0,0,0,0,
0,0,0,0,0,0,0,0,0,0,0,0,0,0,0,0,0,0,0,0,0,0,0,0,0,0,0,0,1483,1483,1483,1483,1483,1483,0,0,0,0,0,0,0,0,0,0,0,0,0,0,
0,0,0,0,0,0,0,0,0,0,0,0,0,0,0,0,0,0,0,0,0,0,0,0,0,1483,1483,1483,1483,1483,1483,1483,1483,1483,1483,1483,1483,0,0,0,0,0,0,0,0,0,0,0,
0,0,0,0,0,0,0,0,0,0,0,0,0,0,1483,1483,1483,1483,1483,1483,1483,1483,1483,0,0,1483,1483,1483,1483,1483,1483,1483,1483,1483,1483,1483,1483,0,0,0,0,0,0,0,0,0,0,0,
0,0,0,0,0,0,0,0,0,0,0,1483,1483,1483,1483,1483,1483,1483,1483,1483,1483,1483,1483,1483,1483,1483,1483,1483,1483,1483,1483,1483,1483,1483,1483,1483,1483,0,0,0,0,0,0,0,0,0,0,0,
0,0,0,0,0,0,0,0,0,0,0,1483,1483,1483,1483,1483,1483,1483,1483,1483,1483,1483,1483,1483,1483,1483,1483,1483,1483,1483,1483,1483,1483,1483,1483,1483,1483,0,0,0,0,0,0,0,0,0,0,0,
0,0,0,0,0,0,0,0,0,0,0,1483,1483,1483,1483,1483,1483,1483,1483,1483,1483,1483,1483,1483,1483,1483,1483,1483,1483,1483,1483,1483,1483,1483,1483,1483,1483,1483,1483,1483,1483,1483,1483,1483,1483,1483,1483,1483,
0,0,0,0,0,0,0,0,0,0,0,1483,1483,1483,1483,1483,1483,1483,1483,1483,1483,1483,1483,1483,1483,1483,1483,1483,1483,1483,1483,1483,1483,1483,1483,1483,1483,1483,1483,1483,0,1483,1483,1483,1483,1483,1483,1483,
0,0,0,0,0,0,0,1483,1483,1483,1483,1483,1483,1483,1483,1483,1483,1483,1483,1483,1483,1483,1483,1483,1483,1483,1483,1483,1483,1483,1483,1483,1483,0,1483,1483,1483,0,0,0,0,0,0,0,0,0,0,0,
0,0,0,0,0,0,0,1483,1483,1483,1483,1483,1483,1483,1483,1483,1483,1483,1483,1483,1483,1483,1483,1483,1483,1483,1483,1483,1483,1483,1483,1483,1483,1483,1483,1483,1483,0,0,0,0,0,0,0,0,0,0,0,
0,0,0,0,0,0,0,1483,1483,1483,1483,1483,1483,1483,1483,1483,1483,1483,1483,1483,1483,1483,1483,1483,1483,1483,1483,1483,1483,1483,1483,1483,1483,1483,1483,1483,1483,0,0,0,0,0,0,0,0,0,0,0,
0,0,0,0,0,0,0,1483,1483,1483,1483,1483,1483,1483,1483,1483,1483,1483,1483,1483,1483,1483,1483,1483,1483,1483,1483,1483,1483,1483,1483,1483,1483,1483,1483,1483,1483,0,0,0,0,0,0,0,0,0,0,0,
0,0,0,0,0,0,0,1483,1483,1483,1483,1483,1483,1483,1483,1483,1483,1483,1483,1483,1483,1483,1483,1483,1483,1483,1483,1483,1483,1483,1483,1483,1483,1483,1483,1483,1483,0,0,0,0,0,0,0,0,0,0,0,
0,0,0,0,0,0,0,1483,1483,1483,1483,1483,1483,1483,1483,1483,1483,1483,1483,1483,1483,1483,1483,1483,1483,1483,1483,1483,1483,1483,1483,1483,1483,1483,1483,1483,1483,0,0,0,0,0,0,0,0,0,0,0,
0,0,0,0,0,0,0,1483,1483,1483,1483,1483,1483,1483,1483,1483,1483,1483,1483,1483,1483,0,0,1483,1483,1483,1483,1483,1483,1483,1483,1483,1483,1483,1483,1483,1483,0,0,0,0,0,0,0,0,0,0,0,
0,0,0,0,0,0,0,1483,1483,1483,1483,1483,1483,1483,1483,1483,1483,1483,1483,1483,1483,0,0,1483,1483,1483,1483,1483,1483,1483,1483,1483,1483,1483,1483,1483,1483,0,0,0,0,0,0,0,0,0,0,0,
0,0,0,0,0,1483,1483,1483,1483,1483,1483,1483,1483,1483,1483,1483,1483,1483,1483,1483,1483,0,0,0,0,0,0,0,0,0,0,0,1483,1483,1483,1483,1483,0,0,0,0,0,0,0,0,0,0,0,
0,0,0,0,0,1483,1483,1483,1483,1483,1483,1483,1483,1483,1483,1483,1483,1483,1483,1483,1483,0,0,0,0,0,0,0,0,0,0,0,1483,1483,1483,1483,1483,0,0,0,0,0,0,0,0,0,0,0,
0,0,0,0,0,1483,1483,1483,1483,1483,1483,1483,1483,1483,1483,1483,1483,1483,1483,0,0,0,0,0,0,0,0,0,0,0,0,0,0,0,0,0,0,0,0,0,0,0,0,0,0,0,0,0,
0,0,0,0,0,1483,1483,1483,1483,1483,1483,1483,1483,1483,1483,1483,1483,1483,1483,0,0,0,0,0,0,0,0,0,0,0,0,0,0,0,0,0,0,0,0,0,0,0,0,0,0,0,0,0,
0,0,0,0,0,0,0,0,0,1483,1483,1483,1483,1483,1483,1483,0,0,0,0,0,0,0,0,0,0,0,0,0,0,0,0,0,0,0,0,0,0,0,0,0,0,0,0,0,0,0,0,
0,0,0,0,0,0,0,0,0,1483,1483,1483,1483,1483,1483,1483,0,0,0,0,0,0,0,0,0,0,0,0,0,0,0,0,0,0,0,0,0,0,0,0,0,0,0,0,0,0,0,0,
0,0,0,0,0,0,0,0,0,0,0,0,1483,1483,0,0,0,0,0,0,0,0,0,0,0,0,0,0,0,0,0,0,0,0,0,0,0,0,0,0,0,0,0,0,0,0,0,0,
0,0,0,0,0,0,0,0,0,0,0,0,1483,1483,0,0,0,0,0,0,0,0,0,0,0,0,0,0,0,0,0,0,0,0,0,0,0,0,0,0,0,0,0,0,0,0,0,0,
0,0,0,0,0,0,0,0,0,0,0,0,1483,1483,0,0,0,0,0,0,0,0,0,0,0,0,0,0,0,0,0,0,0,0,0,0,0,0,0,0,0,0,0,0,0,0,0,0,
0,0,0,0,0,0,0,0,0,0,0,0,1483,1483,0,0,0,0,0,0,0,0,0,0,0,0,0,0,0,0,0,0,0,0,0,0,0,0,0,0,0,0,0,0,0,0,0,0,
0,0,0,0,0,0,0,0,0,0,0,0,1483,1483,0,0,0,0,0,0,0,0,0,0,0,0,0,0,0,0,0,0,0,0,0,0,0,0,0,0,0,0,0,0,0,0,0,0,
0,0,0,0,0,0,0,0,0,0,0,0,1483,1483,0,0,0,0,0,0,0,0,0,0,0,0,0,0,0,0,0,0,0,0,0,0,0,0,0,0,0,0,0,0,0,0,0,0,
0,0,0,0,0,0,0,0,0,0,0,0,0,1483,0,0,0,0,0,0,0,0,0,0,0,0,0,0,0,0,0,0,0,0,0,0,0,0,0,0,0,0,0,0,0,0,0,0,
0,0,0,0,0,0,0,0,0,0,0,0,0,0,0,0,0,0,0,0,0,0,0,0,0,0,0,0,0,0,0,0,0,0,0,0,0,0,0,0,0,0,0,0,0,0,0,0
</data>
 </layer>
 <objectgroup color="#93ffed" id="9" name="objects_osc">
  <object id="32" name="texturescroller" x="80" y="0">
   <properties>
    <property name="base_tex" value="backgrounds/glow_purple_tile_oscillate"/>
    <property name="scroll_tex" value="backgrounds/perlin_noise_purple_looping"/>
    <property name="type" value="library"/>
   </properties>
   <point/>
  </object>
  <object id="33" name="tile_oscillate" x="1480" y="320" width="440" height="80">
   <properties>
    <property name="type" value="library"/>
   </properties>
  </object>
  <object id="149" name="tile_oscillate" x="920" y="240" width="80" height="480">
   <properties>
    <property name="type" value="library"/>
   </properties>
  </object>
  <object id="150" name="tile_oscillate" x="1000" y="160" width="480" height="560">
   <properties>
    <property name="type" value="library"/>
   </properties>
  </object>
  <object id="151" name="tile_oscillate" x="560" y="200" width="360" height="480">
   <properties>
    <property name="type" value="library"/>
   </properties>
  </object>
  <object id="152" name="tile_oscillate" x="280" y="400" width="160" height="480">
   <properties>
    <property name="type" value="library"/>
   </properties>
  </object>
  <object id="153" name="tile_oscillate" x="440" y="680" width="320" height="200">
   <properties>
    <property name="type" value="library"/>
   </properties>
  </object>
  <object id="154" name="tile_oscillate" x="760" y="680" width="80" height="120">
   <properties>
    <property name="type" value="library"/>
   </properties>
  </object>
  <object id="202" name="tile_oscillate" x="360" y="880" width="280" height="80">
   <properties>
    <property name="type" value="library"/>
   </properties>
  </object>
  <object id="203" name="tile_oscillate" x="480" y="960" width="80" height="320">
   <properties>
    <property name="type" value="library"/>
   </properties>
  </object>
  <object id="205" name="tile_oscillate" x="440" y="240" width="120" height="440">
   <properties>
    <property name="type" value="library"/>
   </properties>
  </object>
  <object id="206" name="tile_oscillate" x="1280" y="720" width="200" height="80">
   <properties>
    <property name="type" value="library"/>
   </properties>
  </object>
  <object id="207" name="tile_oscillate" x="1120" y="80" width="240" height="80">
   <properties>
    <property name="type" value="library"/>
   </properties>
  </object>
 </objectgroup>
 <layer id="7" name="Tile Layer 2" width="48" height="32">
  <data encoding="csv">
0,0,0,0,0,0,0,0,0,0,0,0,0,0,0,0,0,0,0,0,0,0,0,0,0,0,0,0,0,0,0,0,0,0,0,0,0,0,0,0,0,0,0,0,0,0,0,0,
0,0,0,0,0,0,0,0,0,0,0,0,0,0,0,0,0,0,0,0,0,0,0,0,0,0,0,0,0,0,0,0,0,0,0,0,0,0,0,0,0,0,0,0,0,0,0,0,
0,0,0,0,0,0,0,0,0,0,0,0,0,0,0,0,0,0,0,0,0,0,0,0,0,0,0,0,0,0,0,0,0,0,0,0,0,0,0,0,0,0,0,0,0,0,0,0,
0,0,0,0,0,0,0,0,0,0,0,0,0,0,0,0,0,0,0,0,0,0,0,0,0,0,0,1359,0,0,0,0,0,0,0,0,0,0,0,0,0,0,0,0,0,0,0,0,
0,0,0,0,0,0,0,0,0,0,0,0,0,0,1359,0,0,0,1359,0,0,0,1359,0,0,0,0,0,0,0,0,0,0,0,0,0,0,0,0,0,0,0,0,0,0,0,0,0,
0,0,0,0,0,0,0,0,0,0,0,0,0,0,0,0,0,0,0,0,0,0,0,0,0,0,0,0,0,0,0,0,0,0,0,0,0,0,0,0,0,0,0,0,0,0,0,0,
0,0,0,0,0,0,0,0,0,0,0,0,0,0,0,0,0,0,0,0,0,0,0,0,0,0,0,0,0,0,0,0,0,0,0,0,0,0,0,0,0,0,0,0,0,0,0,0,
0,0,0,0,0,0,0,0,0,0,0,0,0,0,0,0,0,0,0,0,0,0,0,0,0,0,0,0,0,0,0,0,0,0,0,0,0,0,0,1359,0,0,0,1359,0,0,0,0,
0,0,0,0,0,0,0,0,0,0,0,0,0,0,0,0,0,0,0,0,0,0,0,0,0,0,0,0,0,0,0,0,0,0,0,0,0,0,0,0,0,0,0,0,0,0,0,0,
0,0,0,0,0,0,0,1359,0,0,1359,0,0,0,0,0,0,0,0,0,0,0,0,0,0,0,0,0,0,0,0,0,0,0,0,0,0,0,0,0,0,0,0,0,0,0,0,0,
0,0,0,0,0,0,0,0,0,0,0,0,0,0,0,0,0,0,0,0,0,0,0,0,0,0,0,0,0,0,0,0,0,0,0,0,0,0,0,0,0,0,0,0,0,0,0,0,
0,0,0,0,0,0,0,0,0,0,0,0,0,0,0,0,0,0,0,0,0,0,0,0,0,0,0,0,0,0,0,0,0,0,0,0,0,0,0,0,0,0,0,0,0,0,0,0,
0,0,0,0,0,0,0,0,0,0,0,0,0,0,0,0,0,0,0,0,0,0,0,0,0,0,0,0,0,0,0,0,0,0,0,0,0,0,0,0,0,0,0,0,0,0,0,0,
0,0,0,0,0,0,0,0,0,0,0,0,0,0,0,0,0,0,0,0,0,0,0,0,0,0,0,0,0,0,0,0,0,0,0,0,0,0,0,0,0,0,0,0,0,0,0,0,
0,0,0,0,0,0,0,0,0,0,0,0,0,0,0,0,0,0,0,0,0,0,0,0,0,0,0,0,0,0,0,0,0,0,0,0,0,0,0,0,0,0,0,0,0,0,0,0,
0,0,0,0,0,0,0,0,0,0,0,0,0,0,0,0,0,0,0,0,0,0,0,0,0,0,0,0,0,0,0,0,0,0,0,0,0,0,0,0,0,0,0,0,0,0,0,0,
0,0,0,0,0,0,0,0,0,0,0,0,0,0,0,0,0,0,0,0,0,0,0,0,0,0,0,0,0,0,0,0,0,0,0,0,0,0,0,0,0,0,0,0,0,0,0,0,
0,0,0,0,0,0,0,0,0,0,0,0,0,0,0,0,0,0,0,0,0,0,0,0,0,0,0,0,0,0,0,0,0,0,0,0,0,0,0,0,0,0,0,0,0,0,0,0,
0,0,0,0,0,0,0,0,0,0,0,0,0,0,0,0,0,0,0,0,0,0,0,0,0,0,0,0,0,0,0,0,0,0,0,0,0,0,0,0,0,0,0,0,0,0,0,0,
0,0,0,0,0,0,0,0,0,0,0,0,0,0,0,0,0,0,0,0,0,0,0,0,0,0,0,0,0,0,0,0,0,0,0,0,0,0,0,0,0,0,0,0,0,0,0,0,
0,0,0,0,0,0,0,0,0,0,0,0,0,0,0,0,0,0,0,0,0,0,0,0,0,0,0,0,0,0,0,0,0,0,0,0,0,0,0,0,0,0,0,0,0,0,0,0,
0,0,0,0,0,0,0,0,0,0,0,0,0,0,0,0,0,0,0,0,0,0,0,0,0,0,0,0,0,0,0,0,0,0,0,0,0,0,0,0,0,0,0,0,0,0,0,0,
0,0,0,0,0,0,0,0,0,0,0,0,0,0,0,0,0,0,0,0,0,0,0,0,0,0,0,0,0,0,0,0,0,0,0,0,0,0,0,0,0,0,0,0,0,0,0,0,
0,0,0,0,0,0,0,0,0,0,0,0,0,0,0,0,0,0,0,0,0,0,0,0,0,0,0,0,0,0,0,0,0,0,0,0,0,0,0,0,0,0,0,0,0,0,0,0,
0,0,0,0,0,0,0,0,0,0,0,0,0,0,0,0,0,0,0,0,0,0,0,0,0,0,0,0,0,0,0,0,0,0,0,0,0,0,0,0,0,0,0,0,0,0,0,0,
0,0,0,0,0,0,0,0,0,0,0,0,0,0,0,0,0,0,0,0,0,0,0,0,0,0,0,0,0,0,0,0,0,0,0,0,0,0,0,0,0,0,0,0,0,0,0,0,
0,0,0,0,0,0,0,0,0,0,0,0,0,0,0,0,0,0,0,0,0,0,0,0,0,0,0,0,0,0,0,0,0,0,0,0,0,0,0,0,0,0,0,0,0,0,0,0,
0,0,0,0,0,0,0,0,0,0,0,0,0,0,0,0,0,0,0,0,0,0,0,0,0,0,0,0,0,0,0,0,0,0,0,0,0,0,0,0,0,0,0,0,0,0,0,0,
0,0,0,0,0,0,0,0,0,0,0,0,0,0,0,0,0,0,0,0,0,0,0,0,0,0,0,0,0,0,0,0,0,0,0,0,0,0,0,0,0,0,0,0,0,0,0,0,
0,0,0,0,0,0,0,0,0,0,0,0,0,0,0,0,0,0,0,0,0,0,0,0,0,0,0,0,0,0,0,0,0,0,0,0,0,0,0,0,0,0,0,0,0,0,0,0,
0,0,0,0,0,0,0,0,0,0,0,0,0,0,0,0,0,0,0,0,0,0,0,0,0,0,0,0,0,0,0,0,0,0,0,0,0,0,0,0,0,0,0,0,0,0,0,0,
0,0,0,0,0,0,0,0,0,0,0,0,0,0,0,0,0,0,0,0,0,0,0,0,0,0,0,0,0,0,0,0,0,0,0,0,0,0,0,0,0,0,0,0,0,0,0,0
</data>
 </layer>
 <layer id="1" name="Tile Layer 1" width="48" height="32">
  <data encoding="csv">
0,0,0,0,0,0,0,1347,1358,1360,1347,1270,1271,1273,1307,1308,1309,1310,1307,1308,1309,1310,1307,1270,1273,1308,1310,1317,0,0,0,0,0,0,0,0,0,0,0,1307,1308,1309,1310,1307,0,0,0,0,
0,0,0,0,0,0,0,1394,1396,1385,1417,1280,1282,1283,1317,1318,1319,1320,1317,1318,1319,1320,1317,1280,1283,1318,1320,1327,1424,1425,1425,1425,1425,1426,0,0,0,0,0,1317,1318,1319,1320,1317,0,0,0,0,
0,0,0,0,0,0,0,1404,1386,1406,1397,1238,1239,1240,1327,1328,1329,1330,1327,1328,1329,1330,1327,1238,1240,1328,1330,1337,1394,1421,1441,1422,1412,1417,0,0,0,0,0,1317,1328,1329,1330,1317,0,0,0,0,
0,0,0,0,0,0,0,1394,1416,1415,1407,1248,1249,1250,1337,1348,1349,1350,1337,1348,1349,1350,1337,1248,1250,1358,1360,1347,1414,1412,1431,1431,1422,1407,1425,1425,1426,0,0,1317,1338,1339,1340,1317,0,0,0,1329,
0,0,0,0,0,0,0,1444,1445,1445,1446,1245,1246,1247,1347,1358,1359,1360,1347,1358,1359,1360,1347,1245,1247,1394,1396,1406,1395,1406,1386,1412,1441,1441,1431,1421,1407,0,0,1327,1338,1339,1340,1327,0,0,0,1339,
0,0,0,0,0,0,0,1307,1308,1310,1307,1255,1256,1257,1394,1421,1395,1396,1386,1395,1415,1396,1407,1255,1257,1394,1406,1396,1406,1406,1395,1421,1412,1431,1421,1432,1417,0,0,1327,1338,1339,1340,1327,0,0,0,1339,
0,0,0,0,0,0,0,1317,1318,1320,1317,1414,1431,1442,1442,1422,1395,1386,1396,1396,1415,1405,1395,1386,1415,1396,1395,1405,1406,1405,1406,1412,1421,1412,1411,1412,1397,0,0,1337,1348,1349,1350,1337,0,0,0,1349,
0,0,0,0,0,0,0,1327,1328,1330,1327,1404,1412,1431,1412,1412,1396,1405,1406,1385,1396,1386,1415,1415,1406,1395,1411,1422,1432,1395,1396,1431,1432,1422,1442,1431,1407,1425,1425,1347,1358,1359,1360,1347,1425,1425,1425,1425,
0,0,0,0,0,0,0,1337,1348,1350,1337,1414,1431,1432,1441,1422,1396,1415,1405,1395,1415,1395,1395,1395,1415,1431,1412,1421,1431,1432,1405,1395,1406,1396,1386,1405,1405,1395,1386,1395,1415,1415,1396,1415,1386,1386,1008,1009,
0,0,0,0,0,0,0,1347,1358,1360,1347,1394,1432,1422,1432,1441,1415,1395,1386,1386,1406,1405,1405,1405,1422,1421,1441,1421,1421,1422,1432,1415,1386,1396,1405,1395,1395,1405,1395,1415,1395,1386,1396,1406,1396,1396,1026,1027,
0,0,0,0,0,0,0,1414,1405,1386,1395,1395,1395,1406,1415,1386,1386,1405,1396,1406,1386,1406,1386,1415,1432,1412,1431,1431,1441,1441,1441,1406,1406,1415,1405,1415,1417,1444,1445,1445,1445,1445,1445,1445,1445,1445,1035,1037,
0,0,0,0,0,0,0,1394,1395,1386,1395,1406,1396,1396,1395,1415,1396,1396,1396,1432,1386,1406,1386,1386,1406,1441,1412,1432,1412,1422,1396,1396,1406,1386,1395,1395,1397,0,0,0,0,0,0,0,0,0,1044,1046,
0,0,0,0,0,0,0,1414,1395,1405,1441,1412,1441,1415,1386,1415,1395,1422,1412,1422,1431,1432,1406,1386,1395,1396,1422,1441,1432,1415,1405,1396,1396,1396,1406,1395,1397,0,0,0,0,0,0,0,0,0,0,0,
0,0,0,0,0,0,0,1414,1396,1386,1422,1441,1412,1386,1405,1405,1386,1432,1441,1432,1441,1432,1386,1405,1386,1395,1386,1415,1421,1422,1421,1421,1412,1412,1421,1406,1397,0,0,0,0,0,0,0,0,0,0,0,
0,0,0,0,0,0,0,1404,1396,1396,1411,1412,1441,1385,1396,1405,1395,1412,1432,1421,1411,1431,1396,1406,1416,1405,1396,1412,1412,1441,1441,1441,1432,1441,1431,1421,1407,0,0,0,0,0,0,0,0,0,0,0,
0,0,0,0,0,0,0,1394,1386,1415,1422,1421,1412,1395,1405,1406,1405,1395,1395,1431,1406,1396,1406,1396,1415,1386,1395,1422,1421,1431,1422,1441,1412,1431,1441,1421,1417,0,0,0,0,0,0,0,0,0,0,0,
0,0,0,0,0,0,0,1394,1441,1441,1431,1395,1395,1415,1405,1395,1395,1396,1395,1412,1412,1444,1446,1406,1396,1395,1405,1396,1442,1412,1421,1421,1421,1412,1432,1405,1397,0,0,0,0,0,0,0,0,0,0,0,
0,0,0,0,0,1424,1425,1414,1431,1421,1421,1405,1406,1395,1395,1396,1386,1395,1405,1412,1417,0,0,1414,1395,1386,1396,1396,1405,1415,1396,1405,1412,1432,1421,1412,1417,0,0,0,0,0,0,0,0,0,0,0,
0,0,0,0,0,1394,1412,1412,1412,1422,1421,1395,1406,1386,1396,1415,1431,1441,1432,1422,1407,0,0,1445,1445,1445,1445,1445,1445,1445,1445,1446,1394,1431,1441,1412,1417,0,0,0,0,0,0,0,0,0,0,0,
0,0,0,0,0,1404,1412,1422,1422,1441,1432,1386,1395,1396,1406,1415,1431,1431,1431,1431,1417,0,0,0,0,0,0,0,0,0,0,0,1414,1395,1405,1415,1417,0,0,0,0,0,0,0,0,0,0,0,
0,0,0,0,0,1414,1432,1442,1411,1421,1441,1396,1406,1405,1405,1406,1441,1422,1407,1444,1446,0,0,0,0,0,0,0,0,0,0,0,1444,1445,1445,1445,1446,0,0,0,0,0,0,0,0,0,0,0,
0,0,0,0,0,1404,1432,1431,1431,1431,1432,1406,1406,1395,1385,1415,1432,1422,1397,0,0,0,0,0,0,0,0,0,0,0,0,0,0,0,0,0,0,0,0,0,0,0,0,0,0,0,0,0,
0,0,0,0,0,1444,1445,1445,1446,1394,1395,1396,1386,1415,1405,1407,1444,1445,1446,0,0,0,0,0,0,0,0,0,0,0,0,0,0,0,0,0,0,0,0,0,0,0,0,0,0,0,0,0,
0,0,0,0,0,0,0,0,0,1404,1396,1385,1405,1406,1395,1417,0,0,0,0,0,0,0,0,0,0,0,0,0,0,0,0,0,0,0,0,0,0,0,0,0,0,0,0,0,0,0,0,
0,0,0,0,0,0,0,0,0,1444,1445,1446,1404,1417,1444,1446,0,0,0,0,0,0,0,0,0,0,0,0,0,0,0,0,0,0,0,0,0,0,0,0,0,0,0,0,0,0,0,0,
0,0,0,0,0,0,0,0,0,0,0,0,1404,1397,0,0,0,0,0,0,0,0,0,0,0,0,0,0,0,0,0,0,0,0,0,0,0,0,0,0,0,0,0,0,0,0,0,0,
0,0,0,0,0,0,0,0,0,0,0,0,1394,1397,0,0,0,0,0,0,0,0,0,0,0,0,0,0,0,0,0,0,0,0,0,0,0,0,0,0,0,0,0,0,0,0,0,0,
0,0,0,0,0,0,0,0,0,0,0,0,1394,1407,0,0,0,0,0,0,0,0,0,0,0,0,0,0,0,0,0,0,0,0,0,0,0,0,0,0,0,0,0,0,0,0,0,0,
0,0,0,0,0,0,0,0,0,0,0,0,1404,1417,0,0,0,0,0,0,0,0,0,0,0,0,0,0,0,0,0,0,0,0,0,0,0,0,0,0,0,0,0,0,0,0,0,0,
0,0,0,0,0,0,0,0,0,0,0,0,1394,1397,0,0,0,0,0,0,0,0,0,0,0,0,0,0,0,0,0,0,0,0,0,0,0,0,0,0,0,0,0,0,0,0,0,0,
0,0,0,0,0,0,0,0,0,0,0,0,1404,1417,0,0,0,0,0,0,0,0,0,0,0,0,0,0,0,0,0,0,0,0,0,0,0,0,0,0,0,0,0,0,0,0,0,0,
0,0,0,0,0,0,0,0,0,0,0,0,1394,1397,0,0,0,0,0,0,0,0,0,0,0,0,0,0,0,0,0,0,0,0,0,0,0,0,0,0,0,0,0,0,0,0,0,0
</data>
 </layer>
 <objectgroup id="4" name="collision">
  <object id="10" x="1480" y="280" width="440" height="40"/>
  <object id="35" x="1480" y="400" width="440" height="40"/>
  <object id="39" x="1480" y="160" width="40" height="120"/>
  <object id="40" x="1480" y="440" width="40" height="360"/>
  <object id="41" x="920" y="720" width="360" height="80"/>
  <object id="42" x="1000" y="80" width="120" height="80"/>
  <object id="45" x="920" y="160" width="80" height="80"/>
  <object id="47" x="400" y="240" width="40" height="160"/>
  <object id="48" x="280" y="360" width="120" height="40"/>
  <object id="49" x="200" y="400" width="80" height="320"/>
  <object id="50" x="640" y="880" width="120" height="80"/>
  <object id="51" x="760" y="800" width="80" height="80"/>
  <object id="52" x="840" y="640" width="80" height="160"/>
  <object id="186" x="160" y="720" width="40" height="160"/>
  <object id="191" x="560" y="160" width="360" height="40"/>
  <object id="193" x="440" y="200" width="120" height="40"/>
  <object id="196" x="200" y="880" width="160" height="80"/>
  <object id="197" x="1280" y="800" width="200" height="40"/>
  <object id="199" x="1120" y="40" width="240" height="40"/>
  <object id="200" x="1360" y="80" width="120" height="80"/>
  <object id="201" x="360" y="960" width="120" height="40"/>
  <object id="208" x="560" y="1000" width="40" height="280"/>
  <object id="211" x="400" y="1000" width="40" height="280"/>
  <object id="226" x="560" y="960" width="80" height="40"/>
  <object id="231" x="440" y="1240" width="40" height="40"/>
 </objectgroup>
 <objectgroup id="6" name="objects">
  <object id="234" name="magicglass" x="440" y="1000" width="40" height="240">
   <properties>
    <property name="new" value="true"/>
   </properties>
  </object>
  <object id="240" name="sprite" x="461.667" y="1221.33">
   <properties>
    <property name="speed" type="float" value="0.333333333"/>
    <property name="texture" value="effects/shine_white_1"/>
   </properties>
   <point/>
  </object>
  <object id="241" name="sprite" x="471.5" y="1157.75">
   <properties>
    <property name="speed" type="float" value="0.333333333"/>
    <property name="texture" value="effects/shine_white_1"/>
   </properties>
   <point/>
  </object>
  <object id="242" name="sprite" x="446.75" y="1115">
   <properties>
    <property name="speed" type="float" value="0.333333333"/>
    <property name="texture" value="effects/shine_white_1"/>
   </properties>
   <point/>
  </object>
  <object id="243" name="sprite" x="469.25" y="1049.5">
   <properties>
    <property name="speed" type="float" value="0.333333333"/>
    <property name="texture" value="effects/shine_white_1"/>
   </properties>
   <point/>
  </object>
 </objectgroup>
 <objectgroup id="5" name="markers">
  <object id="22" name="entry" x="1880" y="360">
   <point/>
  </object>
  <object id="23" name="spawn" x="1660" y="360">
   <point/>
  </object>
  <object id="230" name="entry2" x="520" y="1240">
   <point/>
  </object>
 </objectgroup>
 <objectgroup id="11" name="objects_belowparty">
  <object id="229" name="bellplayable" x="1640" y="260" width="40" height="40">
   <properties>
    <property name="interactable" type="bool" value="true"/>
    <property name="script" value="respawn_bookshelves_secsanct"/>
   </properties>
  </object>
 </objectgroup>
 <objectgroup id="3" name="objects_party">
  <object id="18" name="transition" x="1920" y="320" width="40" height="80">
   <properties>
    <property name="map" value="1_2nd_sanctuary/second_sanctum_5"/>
    <property name="marker" value="entry2"/>
   </properties>
  </object>
  <object id="38" name="remotepianomove" x="1160" y="160" width="80" height="80"/>
  <object id="58" name="bookshelf_destructable" x="440" y="240" width="80" height="160"/>
  <object id="59" name="bookshelf_destructable" x="520" y="240" width="80" height="160"/>
  <object id="61" name="bookshelf_destructable" x="680" y="240" width="80" height="160"/>
  <object id="63" name="bookshelf_destructable" x="520" y="320" width="80" height="160"/>
  <object id="64" name="bookshelf_destructable" x="600" y="320" width="80" height="160"/>
  <object id="65" name="bookshelf_destructable" x="680" y="320" width="80" height="160"/>
  <object id="66" name="bookshelf_destructable" x="440" y="400" width="80" height="160"/>
  <object id="67" name="bookshelf_destructable" x="520" y="400" width="80" height="160"/>
  <object id="69" name="bookshelf_destructable" x="680" y="400" width="80" height="160"/>
  <object id="71" name="bookshelf_destructable" x="520" y="480" width="80" height="160"/>
  <object id="72" name="bookshelf_destructable" x="600" y="480" width="80" height="160"/>
  <object id="73" name="bookshelf_destructable" x="680" y="480" width="80" height="160"/>
  <object id="74" name="bookshelf_destructable" x="440" y="560" width="80" height="160"/>
  <object id="75" name="bookshelf_destructable" x="520" y="560" width="80" height="160"/>
  <object id="76" name="bookshelf_destructable" x="600" y="560" width="80" height="160"/>
  <object id="77" name="bookshelf_destructable" x="680" y="560" width="80" height="160"/>
  <object id="78" name="bookshelf_destructable" x="440" y="640" width="80" height="160"/>
  <object id="79" name="bookshelf_destructable" x="520" y="640" width="80" height="160"/>
  <object id="80" name="bookshelf_destructable" x="600" y="640" width="80" height="160"/>
  <object id="81" name="bookshelf_destructable" x="680" y="640" width="80" height="160"/>
  <object id="82" name="bookshelf_destructable" x="440" y="720" width="80" height="160"/>
  <object id="85" name="bookshelf_destructable" x="680" y="720" width="80" height="160"/>
  <object id="227" name="bookshelf_destructable" x="480" y="1000" width="80" height="160"/>
  <object id="87" name="bookshelf_destructable" x="760" y="480" width="80" height="160"/>
  <object id="88" name="bookshelf_destructable" x="760" y="560" width="80" height="160"/>
  <object id="89" name="bookshelf_destructable" x="760" y="640" width="80" height="160"/>
  <object id="95" name="bookshelf_destructable" x="920" y="320" width="80" height="160"/>
  <object id="96" name="bookshelf_destructable" x="920" y="400" width="80" height="160"/>
  <object id="99" name="bookshelf_destructable" x="1000" y="320" width="80" height="160"/>
  <object id="100" name="bookshelf_destructable" x="1000" y="400" width="80" height="160"/>
  <object id="101" name="bookshelf_destructable" x="1000" y="480" width="80" height="160"/>
  <object id="102" name="bookshelf_destructable" x="1080" y="240" width="80" height="160"/>
  <object id="103" name="bookshelf_destructable" x="1080" y="320" width="80" height="160"/>
  <object id="105" name="bookshelf_destructable" x="1080" y="480" width="80" height="160"/>
  <object id="107" name="bookshelf_destructable" x="1160" y="320" width="80" height="160"/>
  <object id="109" name="bookshelf_destructable" x="1160" y="480" width="80" height="160"/>
  <object id="111" name="bookshelf_destructable" x="1240" y="320" width="80" height="160"/>
  <object id="112" name="bookshelf_destructable" x="1240" y="400" width="80" height="160"/>
  <object id="113" name="bookshelf_destructable" x="1240" y="480" width="80" height="160"/>
  <object id="115" name="bookshelf_destructable" x="1320" y="320" width="80" height="160"/>
  <object id="116" name="bookshelf_destructable" x="1320" y="400" width="80" height="160"/>
  <object id="119" name="bookshelf_destructable" x="1400" y="320" width="80" height="160"/>
  <object id="121" name="bookshelf_destructable" x="1400" y="480" width="80" height="160"/>
  <object id="122" name="bookshelf_destructable" x="1400" y="160" width="80" height="160"/>
  <object id="125" name="bookshelf_destructable" x="1320" y="160" width="80" height="160"/>
  <object id="126" name="bookshelf_destructable" x="1240" y="80" width="80" height="160"/>
  <object id="128" name="bookshelf_destructable" x="1240" y="160" width="80" height="160"/>
  <object id="130" name="bookshelf_destructable" x="1080" y="80" width="80" height="160"/>
  <object id="131" name="bookshelf_destructable" x="1000" y="80" width="80" height="160"/>
  <object id="133" name="bookshelf_destructable" x="920" y="160" width="80" height="160"/>
  <object id="134" name="bookshelf_destructable" x="1000" y="160" width="80" height="160"/>
  <object id="135" name="bookshelf_destructable" x="1080" y="160" width="80" height="160"/>
  <object id="138" name="bookshelf_destructable" x="920" y="560" width="80" height="160"/>
  <object id="139" name="bookshelf_destructable" x="1000" y="560" width="80" height="160"/>
  <object id="140" name="bookshelf_destructable" x="1080" y="560" width="80" height="160"/>
  <object id="141" name="bookshelf_destructable" x="1160" y="560" width="80" height="160"/>
  <object id="142" name="bookshelf_destructable" x="1240" y="560" width="80" height="160"/>
  <object id="143" name="bookshelf_destructable" x="1320" y="560" width="80" height="160"/>
  <object id="144" name="bookshelf_destructable" x="1400" y="560" width="80" height="160"/>
  <object id="155" name="bookshelf_destructable" x="440" y="160" width="80" height="160"/>
  <object id="156" name="bookshelf_destructable" x="520" y="160" width="80" height="160"/>
  <object id="157" name="bookshelf_destructable" x="600" y="160" width="80" height="160"/>
  <object id="158" name="bookshelf_destructable" x="680" y="160" width="80" height="160"/>
  <object id="159" name="bookshelf_destructable" x="760" y="320" width="80" height="160"/>
  <object id="166" name="bookshelf_destructable" x="840" y="480" width="80" height="160"/>
  <object id="167" name="bookshelf_destructable" x="840" y="480" width="80" height="160"/>
  <object id="168" name="bookshelf_destructable" x="840" y="400" width="80" height="160"/>
  <object id="169" name="bookshelf_destructable" x="840" y="320" width="80" height="160"/>
  <object id="170" name="bookshelf_destructable" x="840" y="240" width="80" height="160"/>
  <object id="171" name="bookshelf_destructable" x="760" y="160" width="80" height="160"/>
  <object id="172" name="bookshelf_destructable" x="840" y="160" width="80" height="160"/>
  <object id="174" name="bookshelf_destructable" x="280" y="320" width="80" height="160"/>
  <object id="175" name="bookshelf_destructable" x="280" y="400" width="80" height="160"/>
  <object id="176" name="bookshelf_destructable" x="280" y="480" width="80" height="160"/>
  <object id="177" name="bookshelf_destructable" x="280" y="560" width="80" height="160"/>
  <object id="178" name="bookshelf_destructable" x="280" y="640" width="80" height="160"/>
  <object id="180" name="bookshelf_destructable" x="360" y="320" width="80" height="160"/>
  <object id="181" name="bookshelf_destructable" x="360" y="400" width="80" height="160"/>
  <object id="182" name="bookshelf_destructable" x="360" y="480" width="80" height="160"/>
  <object id="183" name="bookshelf_destructable" x="360" y="560" width="80" height="160"/>
  <object id="184" name="bookshelf_destructable" x="360" y="640" width="80" height="160"/>
  <object id="189" name="bookshelf_destructable" x="200" y="640" width="80" height="160"/>
  <object id="228" name="interactable" x="480" y="1080" width="80" height="40">
   <properties>
    <property name="text1" value="* (Despite all of your efforts...)"/>
    <property name="text2" value="* (It is still in your way.)"/>
    <property name="text3" value="* (Though... [wait:10]There is some stagnant dust next to the bookshelf.)"/>
   </properties>
  </object>
  <object id="187" name="bookshelf_destructable" x="200" y="720" width="80" height="160"/>
  <object id="232" name="transition" x="480" y="1280" width="80" height="40">
   <properties>
    <property name="map" value="1_2nd_sanctuary/second_sanctum_7"/>
    <property name="marker" value="entry"/>
   </properties>
  </object>
  <object id="233" name="interactable" x="480" y="1120" width="80" height="40">
   <properties>
    <property name="text1" value="* (Despite all of your efforts...)"/>
    <property name="text2" value="* (It is no longer in your way.)"/>
   </properties>
  </object>
 </objectgroup>
 <objectgroup id="10" name="objects_fog">
  <object id="1" name="churchfog" x="40" y="0">
   <point/>
  </object>
 </objectgroup>
 <objectgroup id="2" name="objects_top" visible="0">
  <object id="2" name="filter" x="0" y="0">
   <properties>
    <property name="type" value="hsv"/>
   </properties>
   <point/>
  </object>
 </objectgroup>
</map>
